(G-CODE GENERATED BY FLATCAM v8.918 - www.flatcam.org - Version Date: 2019/06/11)

(Name: Combo_SingleGeo_cnc)
(Type: G-code from Geometry)
(Units: MM)

(Created on Friday, 14 June 2019 at 22:09)

(TOOL DIAMETER: 0.45 mm)

(Feedrate: 200.0 mm/min)
(Feedrate_Z: 100.0 mm/min)
(Feedrate rapids 76.2 mm/min)

(Z_Cut: -0.1 mm)
(Z_Move: 1.0 mm)
(Z Toolchange: 25.4 mm)
(X,Y Toolchange: 0.0000, 0.0000 mm)
(Z Start: None mm)
(Z End: 50.8 mm)
(Steps per circle: 128)
(Postprocessor Geometry: grbl_11)

(X range:   -1.6710 ...   87.8685  mm)
(Y range:   -3.0660 ...   71.0791  mm)

(Spindle Speed: 500 RPM)


G21
G90
G94
G17

G01 F200.00
G00 Z1.0000

M03 S500
G00 X10.8563 Y12.1241
G01 F100.00
G01 Z-0.1000
G01 F200.00
G01 X11.0326 Y12.1502 F200.00
G01 X10.9798 Y12.4241 F200.00
G01 X10.9452 Y12.9092 F200.00
G01 X8.8319 Y12.9092 F200.00
G01 X9.2055 Y12.6906 F200.00
G01 X9.4429 Y12.5173 F200.00
G01 X9.9058 Y12.4755 F200.00
G01 X10.2063 Y12.4064 F200.00
G01 X10.4973 Y12.3045 F200.00
G01 X10.8563 Y12.1241 F200.00
G00 Z1.0000
G00 X10.6908 Y21.8672
G01 F100.00
G01 Z-0.1000
G01 F200.00
G01 X10.4655 Y21.8672 F200.00
G01 X10.2315 Y21.5940 F200.00
G01 X9.8829 Y21.2632 F200.00
G01 X9.4733 Y20.9552 F200.00
G01 X9.1893 Y20.7857 F200.00
G01 X9.4994 Y20.5979 F200.00
G01 X9.6824 Y20.4680 F200.00
G01 X9.8829 Y20.3082 F200.00
G01 X10.2265 Y19.9824 F200.00
G01 X10.4372 Y19.9817 F200.00
G01 X10.4408 Y20.6382 F200.00
G01 X10.4790 Y21.0609 F200.00
G01 X10.5642 Y21.4768 F200.00
G01 X10.6908 Y21.8672 F200.00
G00 Z1.0000
G00 X11.5301 Y22.3752
G01 F100.00
G01 Z-0.1000
G01 F200.00
G01 X10.2113 Y22.3752 F200.00
G01 X10.0022 Y22.0998 F200.00
G01 X9.7117 Y21.7915 F200.00
G01 X9.3885 Y21.5177 F200.00
G01 X9.0366 Y21.2818 F200.00
G01 X8.6606 Y21.0867 F200.00
G01 X8.2651 Y20.9350 F200.00
G01 X7.8551 Y20.8285 F200.00
G01 X7.5839 Y20.7853 F200.00
G01 X7.8944 Y20.7358 F200.00
G01 X8.2651 Y20.6364 F200.00
G01 X8.4533 Y20.5706 F200.00
G01 X8.8403 Y20.3982 F200.00
G01 X9.2055 Y20.1836 F200.00
G01 X9.3885 Y20.0537 F200.00
G01 X9.7117 Y19.7799 F200.00
G01 X9.9991 Y19.4751 F200.00
G01 X10.9452 Y19.4722 F200.00
G01 X10.9480 Y20.6097 F200.00
G01 X10.9798 Y20.9759 F200.00
G01 X11.0151 Y21.1811 F200.00
G01 X11.0990 Y21.4979 F200.00
G01 X11.2332 Y21.8511 F200.00
G01 X11.3971 Y22.1685 F200.00
G01 X11.5301 Y22.3752 F200.00
G00 Z1.0000
G00 X12.6043 Y28.4248
G01 F100.00
G01 Z-0.1000
G01 F200.00
G01 X12.4420 Y28.5497 F200.00
G01 X12.2158 Y28.7625 F200.00
G01 X12.0149 Y28.9994 F200.00
G01 X11.8417 Y29.2572 F200.00
G01 X11.6985 Y29.5328 F200.00
G01 X11.5871 Y29.8228 F200.00
G01 X11.5088 Y30.1233 F200.00
G01 X11.4662 Y30.4172 F200.00
G01 X7.5840 Y30.4172 F200.00
G01 X7.3448 Y30.4287 F200.00
G01 X7.0092 Y30.4779 F200.00
G01 X6.6023 Y30.5981 F200.00
G01 X6.1712 Y30.8057 F200.00
G01 X5.8545 Y31.0259 F200.00
G01 X5.8545 Y27.7785 F200.00
G01 X6.1686 Y27.8012 F200.00
G01 X6.4912 Y27.8032 F200.00
G01 X6.8210 Y28.0363 F200.00
G01 X7.2521 Y28.2439 F200.00
G01 X7.6871 Y28.3692 F200.00
G01 X7.9946 Y28.4133 F200.00
G01 X8.2338 Y28.4248 F200.00
G01 X12.6043 Y28.4248 F200.00
G00 Z1.0000
G00 X11.4458 Y28.9328
G01 F100.00
G01 Z-0.1000
G01 F200.00
G01 X11.2292 Y29.3384 F200.00
G01 X11.0990 Y29.6821 F200.00
G01 X11.0374 Y29.9092 F200.00
G01 X7.4843 Y29.9120 F200.00
G01 X7.1181 Y29.9438 F200.00
G01 X6.9129 Y29.9791 F200.00
G01 X6.5961 Y30.0630 F200.00
G01 X6.3625 Y30.1476 F200.00
G01 X6.3625 Y28.3436 F200.00
G01 X6.7226 Y28.5623 F200.00
G01 X7.0577 Y28.7132 F200.00
G01 X7.4076 Y28.8256 F200.00
G01 X7.7679 Y28.8982 F200.00
G01 X8.2338 Y28.9328 F200.00
G01 X11.4458 Y28.9328 F200.00
G00 Z1.0000
G00 X7.7027 Y29.4012
G01 F100.00
G01 Z-0.1000
G01 F200.00
G01 X7.2878 Y29.4143 F200.00
G01 X6.8705 Y29.4706 F200.00
G01 X6.8705 Y29.1837 F200.00
G01 X7.2670 Y29.3138 F200.00
G01 X7.7027 Y29.4012 F200.00
G00 Z1.0000
G00 X2.8545 Y24.4249
G01 F100.00
G01 Z-0.1000
G01 F200.00
G01 X2.8545 Y20.8771 F200.00
G01 X3.0457 Y20.7046 F200.00
G01 X3.7994 Y19.9510 F200.00
G01 X5.5840 Y19.9510 F200.00
G01 X5.8508 Y19.9372 F200.00
G01 X6.1738 Y19.8870 F200.00
G01 X6.4751 Y19.8022 F200.00
G01 X7.3788 Y19.7884 F200.00
G01 X7.7682 Y19.7223 F200.00
G01 X8.0645 Y19.6319 F200.00
G01 X8.2759 Y19.5443 F200.00
G01 X8.5452 Y19.4004 F200.00
G01 X8.8006 Y19.2251 F200.00
G01 X9.0347 Y19.0223 F200.00
G01 X9.2446 Y18.7946 F200.00
G01 X9.4852 Y18.4508 F200.00
G01 X11.9612 Y18.4508 F200.00
G01 X11.9624 Y20.5527 F200.00
G01 X11.9815 Y20.8057 F200.00
G01 X12.0127 Y20.9885 F200.00
G01 X12.0752 Y21.2166 F200.00
G01 X12.2050 Y21.5297 F200.00
G01 X12.3318 Y21.7494 F200.00
G01 X12.4825 Y21.9535 F200.00
G01 X12.6551 Y22.1394 F200.00
G01 X12.8473 Y22.3048 F200.00
G01 X13.2043 Y22.5290 F200.00
G01 X13.5174 Y22.6588 F200.00
G01 X13.9283 Y22.7525 F200.00
G01 X14.2667 Y22.7716 F200.00
G01 X14.5197 Y22.7525 F200.00
G01 X14.7025 Y22.7213 F200.00
G01 X14.9306 Y22.6588 F200.00
G01 X15.1708 Y22.5644 F200.00
G01 X15.4634 Y22.4022 F200.00
G01 X15.7929 Y22.1394 F200.00
G01 X16.0252 Y21.8775 F200.00
G01 X16.0252 Y23.3912 F200.00
G01 X9.6266 Y23.3912 F200.00
G01 X9.4278 Y23.0267 F200.00
G01 X9.2446 Y22.7768 F200.00
G01 X9.0347 Y22.5491 F200.00
G01 X8.8006 Y22.3463 F200.00
G01 X8.6088 Y22.2104 F200.00
G01 X8.3488 Y22.0624 F200.00
G01 X8.0645 Y21.9395 F200.00
G01 X7.6849 Y21.8301 F200.00
G01 X7.3788 Y21.7830 F200.00
G01 X7.1547 Y21.7704 F200.00
G01 X6.1971 Y21.7704 F200.00
G01 X5.8881 Y21.7925 F200.00
G01 X5.6500 Y21.8332 F200.00
G01 X5.2873 Y21.9395 F200.00
G01 X5.0030 Y22.0624 F200.00
G01 X4.7343 Y22.2164 F200.00
G01 X4.5512 Y22.3463 F200.00
G01 X4.3171 Y22.5491 F200.00
G01 X4.0539 Y22.8436 F200.00
G01 X3.8786 Y23.0990 F200.00
G01 X3.7330 Y23.3724 F200.00
G01 X3.5996 Y23.7273 F200.00
G01 X3.3688 Y23.9124 F200.00
G01 X2.8545 Y24.4249 F200.00
G00 Z1.0000
G00 X3.3625 Y22.9826
G01 F100.00
G01 Z-0.1000
G01 F200.00
G01 X3.3625 Y21.1040 F200.00
G01 X4.0098 Y20.4590 F200.00
G01 X5.5840 Y20.4590 F200.00
G01 X5.8793 Y20.4444 F200.00
G01 X6.2701 Y20.3858 F200.00
G01 X6.5509 Y20.3102 F200.00
G01 X7.4073 Y20.2956 F200.00
G01 X7.9088 Y20.2104 F200.00
G01 X8.2589 Y20.1012 F200.00
G01 X8.4730 Y20.0125 F200.00
G01 X8.9115 Y19.7693 F200.00
G01 X9.2059 Y19.5506 F200.00
G01 X9.3732 Y19.4011 F200.00
G01 X9.6234 Y19.1331 F200.00
G01 X9.7505 Y18.9678 F200.00
G01 X11.4532 Y18.9626 F200.00
G01 X11.4552 Y20.5812 F200.00
G01 X11.4806 Y20.8908 F200.00
G01 X11.5139 Y21.0848 F200.00
G01 X11.5871 Y21.3572 F200.00
G01 X11.7603 Y21.7755 F200.00
G01 X12.0149 Y22.1806 F200.00
G01 X12.3165 Y22.5182 F200.00
G01 X12.5534 Y22.7191 F200.00
G01 X12.7967 Y22.8832 F200.00
G01 X9.9344 Y22.8832 F200.00
G01 X9.7122 Y22.5497 F200.00
G01 X9.3732 Y22.1703 F200.00
G01 X9.0945 Y21.9320 F200.00
G01 X8.8970 Y21.7920 F200.00
G01 X8.4662 Y21.5560 F200.00
G01 X8.1245 Y21.4231 F200.00
G01 X7.7700 Y21.3293 F200.00
G01 X7.5488 Y21.2917 F200.00
G01 X7.1120 Y21.2612 F200.00
G01 X6.2398 Y21.2612 F200.00
G01 X5.8030 Y21.2917 F200.00
G01 X5.4430 Y21.3610 F200.00
G01 X5.0929 Y21.4702 F200.00
G01 X4.8788 Y21.5589 F200.00
G01 X4.5609 Y21.7264 F200.00
G01 X4.1459 Y22.0208 F200.00
G01 X3.8779 Y22.2710 F200.00
G01 X3.6396 Y22.5497 F200.00
G01 X3.4996 Y22.7472 F200.00
G01 X3.3625 Y22.9826 F200.00
G00 Z1.0000
G00 X4.9952 Y20.9670
G01 F100.00
G01 Z-0.1000
G01 F200.00
G01 X4.6817 Y21.0907 F200.00
G01 X4.3152 Y21.2818 F200.00
G01 X3.8705 Y21.5917 F200.00
G01 X3.8705 Y21.3167 F200.00
G01 X4.2202 Y20.9670 F200.00
G01 X4.9952 Y20.9670 F200.00
G00 Z1.0000
G00 X-1.6558 Y19.0176
G01 F100.00
G01 Z-0.1000
G01 F200.00
G01 X-1.6710 Y18.7509 F200.00
G01 X-1.6572 Y18.4841 F200.00
G01 X-1.5911 Y18.0947 F200.00
G01 X-1.5007 Y17.7984 F200.00
G01 X-1.3778 Y17.5141 F200.00
G01 X-1.2298 Y17.2541 F200.00
G01 X-1.0939 Y17.0623 F200.00
G01 X-0.8617 Y16.7972 F200.00
G01 X0.7012 Y15.2343 F200.00
G01 X0.8995 Y15.0554 F200.00
G01 X1.2217 Y14.8268 F200.00
G01 X1.4910 Y14.6829 F200.00
G01 X1.7024 Y14.5953 F200.00
G01 X2.0651 Y14.4890 F200.00
G01 X2.3881 Y14.4388 F200.00
G01 X2.6549 Y14.4250 F200.00
G01 X4.8417 Y14.4250 F200.00
G01 X5.1430 Y14.3402 F200.00
G01 X5.4660 Y14.2900 F200.00
G01 X5.7328 Y14.2762 F200.00
G01 X6.7550 Y14.2762 F200.00
G01 X7.0164 Y14.1336 F200.00
G01 X7.2566 Y14.0392 F200.00
G01 X7.4847 Y13.9767 F200.00
G01 X7.7524 Y13.9359 F200.00
G01 X7.9632 Y13.9252 F200.00
G01 X11.9612 Y13.9252 F200.00
G01 X11.9719 Y12.6792 F200.00
G01 X12.0096 Y12.4284 F200.00
G01 X12.1035 Y12.1027 F200.00
G01 X12.2864 Y11.7230 F200.00
G01 X12.4825 Y11.4465 F200.00
G01 X12.6551 Y11.2606 F200.00
G01 X12.8473 Y11.0952 F200.00
G01 X13.2043 Y10.8710 F200.00
G01 X13.4367 Y10.7695 F200.00
G01 X13.6791 Y10.6947 F200.00
G01 X14.0132 Y10.6379 F200.00
G01 X14.2240 Y10.6272 F200.00
G01 X14.5197 Y10.6475 F200.00
G01 X14.9306 Y10.7412 F200.00
G01 X15.2437 Y10.8710 F200.00
G01 X15.4547 Y10.9917 F200.00
G01 X15.6675 Y11.1485 F200.00
G01 X15.8534 Y11.3211 F200.00
G01 X16.0188 Y11.5133 F200.00
G01 X16.1616 Y11.7230 F200.00
G01 X16.2560 Y11.8970 F200.00
G01 X16.3897 Y11.6593 F200.00
G01 X16.6586 Y11.3211 F200.00
G01 X16.9113 Y11.0952 F200.00
G01 X17.2683 Y10.8710 F200.00
G01 X17.5814 Y10.7412 F200.00
G01 X17.8095 Y10.6787 F200.00
G01 X17.9923 Y10.6475 F200.00
G01 X18.2880 Y10.6272 F200.00
G01 X18.5837 Y10.6475 F200.00
G01 X18.9946 Y10.7412 F200.00
G01 X19.3077 Y10.8710 F200.00
G01 X19.6647 Y11.0952 F200.00
G01 X19.8569 Y11.2606 F200.00
G01 X20.0828 Y11.5133 F200.00
G01 X20.2256 Y11.7230 F200.00
G01 X20.4085 Y12.1027 F200.00
G01 X20.4993 Y12.4115 F200.00
G01 X20.5401 Y12.6792 F200.00
G01 X20.5508 Y12.8900 F200.00
G01 X20.5508 Y22.3613 F200.00
G01 X20.8210 Y22.0159 F200.00
G01 X20.8210 Y11.8094 F200.00
G01 X20.6581 Y11.4821 F200.00
G01 X20.4939 Y11.2366 F200.00
G01 X20.3043 Y11.0100 F200.00
G01 X20.0916 Y10.8051 F200.00
G01 X19.8581 Y10.6241 F200.00
G01 X19.6067 Y10.4691 F200.00
G01 X19.3401 Y10.3419 F200.00
G01 X19.0614 Y10.2439 F200.00
G01 X18.7738 Y10.1764 F200.00
G01 X18.4807 Y10.1400 F200.00
G01 X18.1853 Y10.1352 F200.00
G01 X17.8911 Y10.1620 F200.00
G01 X17.6015 Y10.2201 F200.00
G01 X17.3198 Y10.3089 F200.00
G01 X16.8101 Y10.5228 F200.00
G01 X16.6093 Y10.5764 F200.00
G01 X16.4037 Y10.6060 F200.00
G01 X16.1959 Y10.6112 F200.00
G01 X15.9890 Y10.5919 F200.00
G01 X15.7858 Y10.5483 F200.00
G01 X15.5892 Y10.4812 F200.00
G01 X15.1985 Y10.3111 F200.00
G01 X14.9235 Y10.2233 F200.00
G01 X14.6407 Y10.1648 F200.00
G01 X14.3534 Y10.1362 F200.00
G01 X14.0647 Y10.1377 F200.00
G01 X13.7778 Y10.1695 F200.00
G01 X13.4957 Y10.2311 F200.00
G01 X13.2216 Y10.3218 F200.00
G01 X12.9585 Y10.4407 F200.00
G01 X12.7093 Y10.5865 F200.00
G01 X12.2739 Y10.8975 F200.00
G01 X12.1005 Y10.9902 F200.00
G01 X11.9180 Y11.0629 F200.00
G01 X11.6622 Y11.1282 F200.00
G01 X11.3225 Y11.1543 F200.00
G01 X10.9485 Y11.1060 F200.00
G01 X10.6559 Y11.0075 F200.00
G01 X10.5236 Y11.1233 F200.00
G01 X10.3634 Y11.2355 F200.00
G01 X10.1944 Y11.3280 F200.00
G01 X10.0107 Y11.4033 F200.00
G01 X9.8370 Y11.4539 F200.00
G01 X9.6297 Y11.4892 F200.00
G01 X9.0548 Y11.5102 F200.00
G01 X8.8674 Y11.6788 F200.00
G01 X8.6175 Y11.8620 F200.00
G01 X8.3488 Y12.0160 F200.00
G01 X8.0645 Y12.1389 F200.00
G01 X7.7018 Y12.2452 F200.00
G01 X7.4637 Y12.2859 F200.00
G01 X7.1547 Y12.3080 F200.00
G01 X6.8452 Y12.2954 F200.00
G01 X6.5391 Y12.2483 F200.00
G01 X6.1595 Y12.1389 F200.00
G01 X5.9522 Y12.0530 F200.00
G01 X5.6788 Y11.9074 F200.00
G01 X5.4234 Y11.7321 F200.00
G01 X5.2689 Y11.6004 F200.00
G01 X4.7179 Y11.6135 F200.00
G01 X4.4755 Y11.6019 F200.00
G01 X4.1693 Y11.5389 F200.00
G01 X3.9817 Y11.4708 F200.00
G01 X3.8128 Y11.3871 F200.00
G01 X3.6475 Y11.4790 F200.00
G01 X3.4611 Y11.5566 F200.00
G01 X3.2853 Y11.6086 F200.00
G01 X3.0746 Y11.6450 F200.00
G01 X1.0204 Y11.7015 F200.00
G01 X0.5070 Y11.7495 F200.00
G01 X0.2438 Y11.7331 F200.00
G01 X-0.1080 Y11.6476 F200.00
G01 X-0.3939 Y11.5164 F200.00
G01 X-0.6417 Y11.3448 F200.00
G01 X-0.8852 Y11.1004 F200.00
G01 X-1.0243 Y10.9024 F200.00
G01 X-1.1764 Y10.5860 F200.00
G01 X-1.2442 Y10.3432 F200.00
G01 X-1.2811 Y10.0016 F200.00
G01 X-1.2737 Y-1.4582 F200.00
G01 X-1.2263 Y-1.7371 F200.00
G01 X-1.1241 Y-2.0292 F200.00
G01 X-0.9934 Y-2.2680 F200.00
G01 X-0.8691 Y-2.4351 F200.00
G01 X-0.6503 Y-2.6539 F200.00
G01 X-0.4196 Y-2.8176 F200.00
G01 X-0.2444 Y-2.9089 F200.00
G01 X0.0477 Y-3.0111 F200.00
G01 X0.2416 Y-3.0489 F200.00
G01 X0.4813 Y-3.0660 F200.00
G01 X13.7748 Y-3.0660 F200.00
G01 X14.0105 Y-3.0495 F200.00
G01 X14.2240 Y-3.0065 F200.00
G01 X14.4375 Y-3.0495 F200.00
G01 X14.6732 Y-3.0660 F200.00
G01 X17.8388 Y-3.0660 F200.00
G01 X18.0745 Y-3.0495 F200.00
G01 X18.2880 Y-3.0065 F200.00
G01 X18.5015 Y-3.0495 F200.00
G01 X18.7372 Y-3.0660 F200.00
G01 X77.2500 Y-3.0660 F200.00
G01 X77.4897 Y-3.0489 F200.00
G01 X77.6836 Y-3.0111 F200.00
G01 X77.8720 Y-2.9519 F200.00
G01 X78.0527 Y-2.8718 F200.00
G01 X78.2145 Y-2.7782 F200.00
G01 X78.3816 Y-2.6539 F200.00
G01 X78.7300 Y-2.3161 F200.00
G01 X79.0784 Y-2.6539 F200.00
G01 X79.3091 Y-2.8176 F200.00
G01 X79.4802 Y-2.9072 F200.00
G01 X79.6686 Y-2.9801 F200.00
G01 X79.8429 Y-3.0271 F200.00
G01 X80.0553 Y-3.0585 F200.00
G01 X86.1060 Y-3.0660 F200.00
G01 X86.3457 Y-3.0489 F200.00
G01 X86.6474 Y-2.9801 F200.00
G01 X86.9087 Y-2.8718 F200.00
G01 X87.1707 Y-2.7072 F200.00
G01 X87.3212 Y-2.5791 F200.00
G01 X87.5097 Y-2.3682 F200.00
G01 X87.6743 Y-2.1062 F200.00
G01 X87.7826 Y-1.8449 F200.00
G01 X87.8514 Y-1.5432 F200.00
G01 X87.8685 Y-1.3035 F200.00
G01 X87.8673 Y17.5754 F200.00
G01 X87.8514 Y17.7724 F200.00
G01 X87.7826 Y18.0741 F200.00
G01 X87.6743 Y18.3354 F200.00
G01 X87.5097 Y18.5974 F200.00
G01 X87.3816 Y18.7479 F200.00
G01 X87.1707 Y18.9364 F200.00
G01 X86.9087 Y19.1010 F200.00
G01 X86.7280 Y19.1811 F200.00
G01 X86.4731 Y19.2563 F200.00
G01 X86.2607 Y19.2877 F200.00
G01 X86.1060 Y19.2952 F200.00
G01 X85.8663 Y19.2781 F200.00
G01 X85.6724 Y19.2403 F200.00
G01 X85.3803 Y19.1381 F200.00
G01 X85.2051 Y19.0468 F200.00
G01 X85.0413 Y18.9364 F200.00
G01 X84.8597 Y18.7790 F200.00
G01 X81.5131 Y15.4324 F200.00
G01 X81.3557 Y15.2508 F200.00
G01 X81.1911 Y14.9888 F200.00
G01 X81.1110 Y14.8081 F200.00
G01 X81.0358 Y14.5532 F200.00
G01 X81.0044 Y14.3408 F200.00
G01 X80.9969 Y11.0815 F200.00
G01 X80.9799 Y10.7796 F200.00
G01 X80.9376 Y10.5304 F200.00
G01 X80.8676 Y10.2875 F200.00
G01 X80.7709 Y10.0540 F200.00
G01 X80.6486 Y9.8327 F200.00
G01 X80.5023 Y9.6266 F200.00
G01 X80.3339 Y9.4381 F200.00
G01 X80.1454 Y9.2697 F200.00
G01 X79.9393 Y9.1234 F200.00
G01 X79.7180 Y9.0011 F200.00
G01 X79.4845 Y8.9044 F200.00
G01 X79.2416 Y8.8344 F200.00
G01 X78.9924 Y8.7921 F200.00
G01 X78.7400 Y8.7779 F200.00
G01 X78.4876 Y8.7921 F200.00
G01 X78.2384 Y8.8344 F200.00
G01 X77.9955 Y8.9044 F200.00
G01 X77.7620 Y9.0011 F200.00
G01 X77.5407 Y9.1234 F200.00
G01 X77.3346 Y9.2697 F200.00
G01 X77.1461 Y9.4381 F200.00
G01 X76.9777 Y9.6266 F200.00
G01 X76.8314 Y9.8327 F200.00
G01 X76.7091 Y10.0540 F200.00
G01 X76.6124 Y10.2875 F200.00
G01 X76.5424 Y10.5304 F200.00
G01 X76.5001 Y10.7796 F200.00
G01 X76.4831 Y11.0815 F200.00
G01 X76.4756 Y12.5925 F200.00
G01 X76.4472 Y12.7881 F200.00
G01 X76.3690 Y13.0598 F200.00
G01 X76.2889 Y13.2405 F200.00
G01 X76.1953 Y13.4023 F200.00
G01 X75.9962 Y13.6530 F200.00
G01 X75.8522 Y13.7882 F200.00
G01 X75.6938 Y13.9064 F200.00
G01 X75.5233 Y14.0061 F200.00
G01 X75.3426 Y14.0862 F200.00
G01 X75.0877 Y14.1614 F200.00
G01 X74.7206 Y14.2003 F200.00
G01 X64.5224 Y14.1991 F200.00
G01 X64.2148 Y14.1644 F200.00
G01 X64.0237 Y14.1144 F200.00
G01 X63.8394 Y14.0432 F200.00
G01 X63.6006 Y13.9125 F200.00
G01 X63.3499 Y13.7134 F200.00
G01 X62.6241 Y12.9894 F200.00
G01 X62.4022 Y12.7169 F200.00
G01 X62.2671 Y12.4739 F200.00
G01 X62.1943 Y12.2860 F200.00
G01 X62.1472 Y12.1120 F200.00
G01 X62.1121 Y11.8394 F200.00
G01 X62.0687 Y11.7960 F200.00
G01 X61.7314 Y11.7453 F200.00
G01 X61.4393 Y11.6431 F200.00
G01 X61.2005 Y11.5124 F200.00
G01 X60.9498 Y11.3133 F200.00
G01 X58.6327 Y8.9962 F200.00
G01 X58.5046 Y8.8457 F200.00
G01 X58.3942 Y8.6819 F200.00
G01 X58.3046 Y8.5108 F200.00
G01 X58.2191 Y8.2786 F200.00
G01 X58.0407 Y8.1002 F200.00
G01 X57.8196 Y8.0760 F200.00
G01 X57.6250 Y8.0301 F200.00
G01 X57.3971 Y7.9458 F200.00
G01 X57.0399 Y7.7835 F200.00
G01 X56.7480 Y7.6831 F200.00
G01 X56.4479 Y7.6106 F200.00
G01 X56.1424 Y7.5669 F200.00
G01 X55.7922 Y7.5503 F200.00
G01 X41.6648 Y7.5503 F200.00
G01 X41.3394 Y7.5646 F200.00
G01 X41.0556 Y7.6023 F200.00
G01 X40.5121 Y7.7122 F200.00
G01 X40.0181 Y7.9762 F200.00
G01 X39.7701 Y8.1320 F200.00
G01 X39.5371 Y8.3094 F200.00
G01 X39.2917 Y8.5337 F200.00
G01 X27.3983 Y20.4270 F200.00
G01 X27.1993 Y20.5973 F200.00
G01 X27.0185 Y20.7146 F200.00
G01 X26.3470 Y21.0379 F200.00
G01 X26.3470 Y21.6223 F200.00
G01 X26.5068 Y21.5148 F200.00
G01 X26.7761 Y21.3709 F200.00
G01 X27.0682 Y21.2551 F200.00
G01 X27.3541 Y21.1764 F200.00
G01 X39.7033 Y8.8289 F200.00
G01 X39.9374 Y8.6261 F200.00
G01 X40.1205 Y8.4962 F200.00
G01 X40.3892 Y8.3422 F200.00
G01 X40.6735 Y8.2193 F200.00
G01 X41.0362 Y8.1130 F200.00
G01 X41.3592 Y8.0628 F200.00
G01 X41.6260 Y8.0490 F200.00
G01 X55.8340 Y8.0490 F200.00
G01 X56.1857 Y8.0723 F200.00
G01 X56.4069 Y8.1099 F200.00
G01 X56.7058 Y8.1911 F200.00
G01 X56.9938 Y8.3052 F200.00
G01 X57.2672 Y8.4508 F200.00
G01 X57.5226 Y8.6261 F200.00
G01 X57.7567 Y8.8289 F200.00
G01 X63.6285 Y14.6990 F200.00
G01 X76.9775 Y14.6990 F200.00
G01 X76.9787 Y10.9893 F200.00
G01 X77.0134 Y10.6817 F200.00
G01 X77.0634 Y10.4906 F200.00
G01 X77.1346 Y10.3063 F200.00
G01 X77.2259 Y10.1311 F200.00
G01 X77.3363 Y9.9673 F200.00
G01 X77.5248 Y9.7564 F200.00
G01 X77.7668 Y9.5634 F200.00
G01 X77.9373 Y9.4637 F200.00
G01 X78.1180 Y9.3836 F200.00
G01 X78.3064 Y9.3244 F200.00
G01 X78.5003 Y9.2866 F200.00
G01 X78.7827 Y9.2707 F200.00
G01 X79.0903 Y9.3054 F200.00
G01 X79.2814 Y9.3554 F200.00
G01 X79.4657 Y9.4266 F200.00
G01 X79.6409 Y9.5179 F200.00
G01 X79.8047 Y9.6283 F200.00
G01 X79.9552 Y9.7564 F200.00
G01 X80.1437 Y9.9673 F200.00
G01 X80.2541 Y10.1311 F200.00
G01 X80.3437 Y10.3022 F200.00
G01 X80.4166 Y10.4906 F200.00
G01 X80.4666 Y10.6817 F200.00
G01 X80.5025 Y11.0320 F200.00
G01 X80.5025 Y14.7320 F200.00
G01 X80.4598 Y15.1121 F200.00
G01 X80.6937 Y15.3183 F200.00
G01 X86.3111 Y20.9373 F200.00
G01 X86.5139 Y21.1714 F200.00
G01 X86.6438 Y21.3545 F200.00
G01 X86.7978 Y21.6232 F200.00
G01 X86.9207 Y21.9075 F200.00
G01 X87.0270 Y22.2702 F200.00
G01 X87.0772 Y22.5932 F200.00
G01 X87.0910 Y22.8600 F200.00
G01 X87.0910 Y45.9740 F200.00
G01 X87.0677 Y46.3257 F200.00
G01 X87.0301 Y46.5469 F200.00
G01 X86.9489 Y46.8458 F200.00
G01 X86.8348 Y47.1338 F200.00
G01 X86.6498 Y47.4708 F200.00
G01 X86.4606 Y47.7294 F200.00
G01 X86.2507 Y47.9571 F200.00
G01 X86.0166 Y48.1599 F200.00
G01 X85.7612 Y48.3352 F200.00
G01 X85.4919 Y48.4791 F200.00
G01 X85.2805 Y48.5667 F200.00
G01 X84.9842 Y48.6571 F200.00
G01 X84.6797 Y48.7137 F200.00
G01 X84.3280 Y48.7370 F200.00
G01 X80.1397 Y48.7370 F200.00
G01 X79.8992 Y48.8342 F200.00
G01 X80.0730 Y49.0296 F200.00
G01 X80.2269 Y49.2745 F200.00
G01 X80.3312 Y49.5265 F200.00
G01 X80.3956 Y49.8085 F200.00
G01 X80.4109 Y50.0807 F200.00
G01 X80.3785 Y50.3682 F200.00
G01 X80.3030 Y50.6302 F200.00
G01 X80.1638 Y50.9130 F200.00
G01 X80.5030 Y51.1026 F200.00
G01 X80.8073 Y51.3243 F200.00
G01 X81.0768 Y51.5716 F200.00
G01 X81.3170 Y51.8475 F200.00
G01 X81.5248 Y52.1487 F200.00
G01 X81.6958 Y52.4671 F200.00
G01 X81.8331 Y52.8109 F200.00
G01 X81.9267 Y53.1469 F200.00
G01 X81.9863 Y53.5252 F200.00
G01 X82.0033 Y53.8480 F200.00
G01 X82.0021 Y58.4627 F200.00
G01 X81.9863 Y58.7428 F200.00
G01 X81.9298 Y59.1042 F200.00
G01 X81.8049 Y59.5377 F200.00
G01 X81.6975 Y59.7969 F200.00
G01 X81.5248 Y60.1193 F200.00
G01 X81.2637 Y60.4873 F200.00
G01 X81.0164 Y60.7568 F200.00
G01 X80.8073 Y60.9437 F200.00
G01 X80.4393 Y61.2048 F200.00
G01 X80.1209 Y61.3758 F200.00
G01 X79.8577 Y61.4849 F200.00
G01 X79.4411 Y61.6067 F200.00
G01 X79.0628 Y61.6663 F200.00
G01 X78.7400 Y61.6833 F200.00
G01 X78.3323 Y61.6568 F200.00
G01 X77.9725 Y61.5908 F200.00
G01 X77.6223 Y61.4849 F200.00
G01 X77.2862 Y61.3405 F200.00
G01 X76.9770 Y61.1654 F200.00
G01 X76.6995 Y60.9637 F200.00
G01 X12.6731 Y60.9637 F200.00
G01 X12.3774 Y60.9434 F200.00
G01 X11.9665 Y60.8497 F200.00
G01 X11.7303 Y60.7570 F200.00
G01 X11.5061 Y60.6385 F200.00
G01 X11.2964 Y60.4957 F200.00
G01 X11.1042 Y60.3303 F200.00
G01 X10.9316 Y60.1444 F200.00
G01 X10.7809 Y59.9403 F200.00
G01 X10.6541 Y59.7206 F200.00
G01 X10.5526 Y59.4882 F200.00
G01 X10.4778 Y59.2458 F200.00
G01 X10.4306 Y58.9966 F200.00
G01 X10.4115 Y58.6582 F200.00
G01 X10.4306 Y58.4052 F200.00
G01 X10.4778 Y58.1560 F200.00
G01 X10.5526 Y57.9136 F200.00
G01 X10.6605 Y57.6695 F200.00
G01 X10.6605 Y57.2695 F200.00
G01 X10.5002 Y57.3125 F200.00
G01 X10.2878 Y57.3439 F200.00
G01 X9.9784 Y57.3439 F200.00
G01 X9.6995 Y57.2965 F200.00
G01 X9.3966 Y57.1891 F200.00
G01 X9.1279 Y57.1706 F200.00
G01 X8.9691 Y57.1159 F200.00
G01 X8.8212 Y57.0240 F200.00
G01 X8.6980 Y56.9008 F200.00
G01 X8.6061 Y56.7529 F200.00
G01 X8.5514 Y56.5941 F200.00
G01 X8.5329 Y56.3259 F200.00
G01 X8.4565 Y56.1303 F200.00
G01 X8.4095 Y55.9560 F200.00
G01 X8.3718 Y55.6316 F200.00
G01 X8.3706 Y52.8689 F200.00
G01 X8.3877 Y52.6292 F200.00
G01 X8.4255 Y52.4353 F200.00
G01 X8.4847 Y52.2469 F200.00
G01 X8.5648 Y52.0662 F200.00
G01 X8.7294 Y51.8042 F200.00
G01 X8.8575 Y51.6537 F200.00
G01 X9.0015 Y51.5185 F200.00
G01 X9.2322 Y51.3548 F200.00
G01 X9.5111 Y51.2205 F200.00
G01 X9.6995 Y51.1613 F200.00
G01 X9.8934 Y51.1235 F200.00
G01 X10.1331 Y51.1064 F200.00
G01 X10.2878 Y51.1139 F200.00
G01 X10.5667 Y51.1613 F200.00
G01 X10.7551 Y51.2205 F200.00
G01 X10.9358 Y51.3006 F200.00
G01 X11.1978 Y51.4652 F200.00
G01 X11.3483 Y51.5933 F200.00
G01 X11.4835 Y51.7373 F200.00
G01 X11.6017 Y51.8957 F200.00
G01 X11.7014 Y52.0662 F200.00
G01 X11.8097 Y52.3275 F200.00
G01 X11.8785 Y52.6292 F200.00
G01 X11.8956 Y52.8689 F200.00
G01 X11.8956 Y53.7346 F200.00
G01 X12.2503 Y53.6215 F200.00
G01 X12.4903 Y53.5853 F200.00
G01 X12.6731 Y53.5763 F200.00
G01 X13.0790 Y53.6184 F200.00
G01 X13.4506 Y53.7346 F200.00
G01 X13.4506 Y53.2078 F200.00
G01 X13.1785 Y53.1036 F200.00
G01 X12.9937 Y53.0052 F200.00
G01 X12.8219 Y52.8855 F200.00
G01 X12.6033 Y52.6806 F200.00
G01 X12.4728 Y52.5169 F200.00
G01 X12.3626 Y52.3389 F200.00
G01 X12.1565 Y51.8752 F200.00
G01 X12.0357 Y51.6599 F200.00
G01 X11.8921 Y51.4591 F200.00
G01 X11.7274 Y51.2752 F200.00
G01 X11.4407 Y51.0167 F200.00
G01 X11.3053 Y50.8742 F200.00
G01 X11.1865 Y50.7175 F200.00
G01 X11.0860 Y50.5485 F200.00
G01 X11.0067 Y50.3743 F200.00
G01 X10.9443 Y50.1824 F200.00
G01 X10.8922 Y49.8789 F200.00
G01 X10.8869 Y49.6803 F200.00
G01 X10.9036 Y49.4865 F200.00
G01 X10.9652 Y49.2119 F200.00
G01 X11.0338 Y49.0276 F200.00
G01 X11.1209 Y48.8547 F200.00
G01 X11.2992 Y48.6000 F200.00
G01 X11.4374 Y48.4532 F200.00
G01 X11.5837 Y48.3295 F200.00
G01 X11.8209 Y48.1779 F200.00
G01 X12.1044 Y48.0576 F200.00
G01 X12.2945 Y48.0075 F200.00
G01 X12.5313 Y47.9749 F200.00
G01 X12.9357 Y47.9480 F200.00
G01 X13.2378 Y47.8938 F200.00
G01 X13.5321 Y47.8062 F200.00
G01 X13.8148 Y47.6864 F200.00
G01 X14.0825 Y47.5360 F200.00
G01 X14.3317 Y47.3567 F200.00
G01 X14.5595 Y47.1508 F200.00
G01 X14.7630 Y46.9209 F200.00
G01 X14.9396 Y46.6697 F200.00
G01 X15.0872 Y46.4005 F200.00
G01 X15.2039 Y46.1165 F200.00
G01 X15.2884 Y45.8213 F200.00
G01 X15.3395 Y45.5186 F200.00
G01 X15.3593 Y45.1629 F200.00
G01 X15.3593 Y40.2474 F200.00
G01 X15.3438 Y39.9333 F200.00
G01 X15.3040 Y39.6652 F200.00
G01 X15.2380 Y39.4024 F200.00
G01 X15.1466 Y39.1472 F200.00
G01 X15.0305 Y38.9023 F200.00
G01 X14.7414 Y38.3907 F200.00
G01 X14.6299 Y38.0372 F200.00
G01 X14.5958 Y37.7216 F200.00
G01 X14.6120 Y37.4471 F200.00
G01 X14.6785 Y37.1535 F200.00
G01 X14.7822 Y36.8988 F200.00
G01 X14.9395 Y36.6422 F200.00
G01 X15.0618 Y36.4941 F200.00
G01 X15.2634 Y36.3070 F200.00
G01 X15.5145 Y36.1410 F200.00
G01 X15.6879 Y36.0585 F200.00
G01 X15.8694 Y35.9953 F200.00
G01 X16.4581 Y35.8912 F200.00
G01 X16.7259 Y35.8234 F200.00
G01 X16.9854 Y35.7292 F200.00
G01 X17.2342 Y35.6095 F200.00
G01 X17.4698 Y35.4655 F200.00
G01 X17.6898 Y35.2986 F200.00
G01 X17.8921 Y35.1106 F200.00
G01 X18.0745 Y34.9033 F200.00
G01 X18.2867 Y34.6069 F200.00
G01 X18.4734 Y34.3867 F200.00
G01 X20.0970 Y32.7632 F200.00
G01 X20.0970 Y32.0266 F200.00
G01 X19.8880 Y32.2700 F200.00
G01 X17.9162 Y34.2418 F200.00
G01 X17.7108 Y34.5647 F200.00
G01 X17.4849 Y34.8174 F200.00
G01 X17.2927 Y34.9828 F200.00
G01 X17.0830 Y35.1256 F200.00
G01 X16.8588 Y35.2441 F200.00
G01 X16.4609 Y35.3833 F200.00
G01 X16.2117 Y35.4305 F200.00
G01 X15.9160 Y35.4508 F200.00
G01 X9.1830 Y35.4508 F200.00
G01 X9.0496 Y35.7110 F200.00
G01 X8.8535 Y35.9875 F200.00
G01 X8.5555 Y36.2855 F200.00
G01 X8.3514 Y36.4362 F200.00
G01 X8.0588 Y36.5984 F200.00
G01 X7.8186 Y36.6928 F200.00
G01 X7.5905 Y36.7553 F200.00
G01 X7.4077 Y36.7865 F200.00
G01 X7.1547 Y36.8056 F200.00
G01 X6.9012 Y36.7961 F200.00
G01 X6.6504 Y36.7584 F200.00
G01 X6.4054 Y36.6928 F200.00
G01 X6.1692 Y36.6001 F200.00
G01 X5.9450 Y36.4816 F200.00
G01 X5.7353 Y36.3388 F200.00
G01 X5.5431 Y36.1734 F200.00
G01 X5.3465 Y35.9574 F200.00
G01 X5.3465 Y36.4579 F200.00
G01 X5.8298 Y36.9412 F200.00
G01 X11.6000 Y36.9412 F200.00
G01 X11.8957 Y36.9615 F200.00
G01 X12.3066 Y37.0552 F200.00
G01 X12.6197 Y37.1850 F200.00
G01 X12.8307 Y37.3057 F200.00
G01 X13.0435 Y37.4625 F200.00
G01 X14.2000 Y38.6040 F200.00
G01 X14.3948 Y38.8273 F200.00
G01 X14.6190 Y39.1843 F200.00
G01 X14.7205 Y39.4167 F200.00
G01 X14.8113 Y39.7255 F200.00
G01 X14.8521 Y39.9932 F200.00
G01 X14.8628 Y40.2040 F200.00
G01 X14.8616 Y45.2547 F200.00
G01 X14.8425 Y45.5077 F200.00
G01 X14.7953 Y45.7569 F200.00
G01 X14.7205 Y45.9993 F200.00
G01 X14.6190 Y46.2317 F200.00
G01 X14.4983 Y46.4427 F200.00
G01 X14.3415 Y46.6555 F200.00
G01 X14.1689 Y46.8414 F200.00
G01 X13.9767 Y47.0068 F200.00
G01 X13.7670 Y47.1496 F200.00
G01 X13.5428 Y47.2681 F200.00
G01 X13.3066 Y47.3608 F200.00
G01 X13.0785 Y47.4233 F200.00
G01 X12.8957 Y47.4545 F200.00
G01 X12.6000 Y47.4748 F200.00
G01 X12.3892 Y47.4641 F200.00
G01 X12.1384 Y47.4264 F200.00
G01 X11.8934 Y47.3608 F200.00
G01 X11.6572 Y47.2681 F200.00
G01 X11.3693 Y47.1103 F200.00
G01 X11.1565 Y46.9535 F200.00
G01 X10.9706 Y46.7809 F200.00
G01 X10.8052 Y46.5887 F200.00
G01 X10.6624 Y46.3790 F200.00
G01 X10.5456 Y46.1588 F200.00
G01 X10.4325 Y45.8537 F200.00
G01 X10.2882 Y46.1284 F200.00
G01 X10.1017 Y46.3633 F200.00
G01 X9.8984 Y46.5450 F200.00
G01 X9.6535 Y46.6989 F200.00
G01 X9.4015 Y46.8032 F200.00
G01 X9.1195 Y46.8676 F200.00
G01 X8.8473 Y46.8829 F200.00
G01 X8.5598 Y46.8505 F200.00
G01 X8.3785 Y46.8032 F200.00
G01 X8.1265 Y46.6989 F200.00
G01 X7.9649 Y46.6041 F200.00
G01 X7.7387 Y46.4237 F200.00
G01 X7.6103 Y46.2872 F200.00
G01 X7.4525 Y46.0648 F200.00
G01 X7.3677 Y45.9026 F200.00
G01 X7.2899 Y45.6929 F200.00
G01 X7.2288 Y45.9186 F200.00
G01 X7.1361 Y46.1548 F200.00
G01 X6.9783 Y46.4427 F200.00
G01 X6.7094 Y46.7809 F200.00
G01 X6.4567 Y47.0068 F200.00
G01 X6.2470 Y47.1496 F200.00
G01 X6.0268 Y47.2664 F200.00
G01 X5.6249 Y47.4073 F200.00
G01 X5.2908 Y47.4641 F200.00
G01 X5.0800 Y47.4748 F200.00
G01 X4.8692 Y47.4641 F200.00
G01 X4.6184 Y47.4264 F200.00
G01 X4.3734 Y47.3608 F200.00
G01 X4.1372 Y47.2681 F200.00
G01 X3.9130 Y47.1496 F200.00
G01 X3.7033 Y47.0068 F200.00
G01 X3.5111 Y46.8414 F200.00
G01 X3.3385 Y46.6555 F200.00
G01 X3.1874 Y46.4508 F200.00
G01 X2.6122 Y46.4496 F200.00
G01 X2.1933 Y46.4024 F200.00
G01 X1.8676 Y46.3085 F200.00
G01 X1.4879 Y46.1256 F200.00
G01 X1.2782 Y45.9828 F200.00
G01 X1.0549 Y45.7880 F200.00
G01 X-0.6495 Y44.0686 F200.00
G01 X-0.8002 Y43.8645 F200.00
G01 X-0.9624 Y43.5719 F200.00
G01 X-1.0568 Y43.3317 F200.00
G01 X-1.1193 Y43.1036 F200.00
G01 X-1.1505 Y42.9208 F200.00
G01 X-1.1708 Y42.6251 F200.00
G01 X-1.1601 Y42.4143 F200.00
G01 X-1.1033 Y42.0802 F200.00
G01 X-1.0285 Y41.8378 F200.00
G01 X-0.9270 Y41.6054 F200.00
G01 X-0.8063 Y41.3944 F200.00
G01 X-0.6705 Y41.2097 F200.00
G01 X-0.6705 Y20.8771 F200.00
G01 X-0.8911 Y20.6736 F200.00
G01 X-1.0939 Y20.4395 F200.00
G01 X-1.2238 Y20.2564 F200.00
G01 X-1.3778 Y19.9877 F200.00
G01 X-1.5007 Y19.7034 F200.00
G01 X-1.5911 Y19.4071 F200.00
G01 X-1.6558 Y19.0176 F200.00
G00 Z1.0000
G00 X19.5054 Y27.5931
G01 F100.00
G01 Z-0.1000
G01 F200.00
G01 X19.4976 Y27.8377 F200.00
G01 X19.5359 Y28.1979 F200.00
G01 X19.2697 Y28.0801 F200.00
G01 X19.0040 Y27.9953 F200.00
G01 X19.3080 Y27.7743 F200.00
G01 X19.5054 Y27.5931 F200.00
G00 Z1.0000
G00 X20.0970 Y29.3134
G01 F100.00
G01 Z-0.1000
G01 F200.00
G01 X19.8569 Y29.0406 F200.00
G01 X19.6647 Y28.8752 F200.00
G01 X19.4550 Y28.7324 F200.00
G01 X19.2308 Y28.6139 F200.00
G01 X18.9946 Y28.5212 F200.00
G01 X18.5837 Y28.4275 F200.00
G01 X18.2880 Y28.4072 F200.00
G01 X18.0772 Y28.4179 F200.00
G01 X17.7431 Y28.4747 F200.00
G01 X17.5007 Y28.5495 F200.00
G01 X17.2683 Y28.6510 F200.00
G01 X17.0486 Y28.7778 F200.00
G01 X16.8709 Y28.9075 F200.00
G01 X15.6394 Y28.9075 F200.00
G01 X15.4547 Y28.7717 F200.00
G01 X15.2437 Y28.6510 F200.00
G01 X15.0113 Y28.5495 F200.00
G01 X14.7689 Y28.4747 F200.00
G01 X14.5197 Y28.4275 F200.00
G01 X14.2240 Y28.4072 F200.00
G01 X14.0132 Y28.4179 F200.00
G01 X13.7455 Y28.4587 F200.00
G01 X13.5174 Y28.5212 F200.00
G01 X13.2772 Y28.6156 F200.00
G01 X12.9846 Y28.7778 F200.00
G01 X12.6551 Y29.0406 F200.00
G01 X12.4292 Y29.2933 F200.00
G01 X12.2050 Y29.6503 F200.00
G01 X12.1035 Y29.8827 F200.00
G01 X12.0287 Y30.1251 F200.00
G01 X11.9719 Y30.4592 F200.00
G01 X11.9612 Y30.9252 F200.00
G01 X7.5840 Y30.9252 F200.00
G01 X7.3732 Y30.9359 F200.00
G01 X7.1055 Y30.9767 F200.00
G01 X6.8774 Y31.0392 F200.00
G01 X6.6372 Y31.1336 F200.00
G01 X6.4170 Y31.2504 F200.00
G01 X6.2073 Y31.3932 F200.00
G01 X6.0151 Y31.5586 F200.00
G01 X5.7669 Y31.8429 F200.00
G01 X5.5431 Y32.0306 F200.00
G01 X5.3465 Y32.2482 F200.00
G01 X5.3465 Y27.1455 F200.00
G01 X5.6669 Y27.2343 F200.00
G01 X5.9730 Y27.2814 F200.00
G01 X6.6781 Y27.2952 F200.00
G01 X7.0031 Y27.5523 F200.00
G01 X7.2910 Y27.7101 F200.00
G01 X7.6889 Y27.8493 F200.00
G01 X8.0230 Y27.9061 F200.00
G01 X8.2338 Y27.9168 F200.00
G01 X17.5260 Y27.9168 F200.00
G01 X17.7368 Y27.9061 F200.00
G01 X18.0045 Y27.8653 F200.00
G01 X18.2326 Y27.8028 F200.00
G01 X18.4728 Y27.7084 F200.00
G01 X18.7654 Y27.5462 F200.00
G01 X18.9695 Y27.3955 F200.00
G01 X19.1260 Y27.2540 F200.00
G01 X19.8880 Y26.4920 F200.00
G01 X20.0970 Y26.2486 F200.00
G01 X20.0970 Y27.2193 F200.00
G01 X20.0249 Y27.5150 F200.00
G01 X20.0056 Y27.8377 F200.00
G01 X20.0270 Y28.0634 F200.00
G01 X20.0970 Y28.3422 F200.00
G01 X20.0970 Y29.3134 F200.00
G00 Z1.0000
G00 X13.4034 Y36.4668
G01 F100.00
G01 Z-0.1000
G01 F200.00
G01 X13.8643 Y36.4668 F200.00
G01 X13.7516 Y36.7327 F200.00
G01 X13.4034 Y36.4668 F200.00
G00 Z1.0000
G00 X14.0898 Y37.7754
G01 F100.00
G01 Z-0.1000
G01 F200.00
G01 X13.5075 Y37.1958 F200.00
G01 X13.2706 Y36.9949 F200.00
G01 X13.1188 Y36.8874 F200.00
G01 X12.7372 Y36.6785 F200.00
G01 X12.2855 Y36.5205 F200.00
G01 X11.9808 Y36.4606 F200.00
G01 X11.6000 Y36.4332 F200.00
G01 X9.1364 Y36.4332 F200.00
G01 X9.3211 Y36.2146 F200.00
G01 X9.4930 Y35.9588 F200.00
G01 X14.8889 Y35.9588 F200.00
G01 X14.6778 Y36.1615 F200.00
G01 X14.5216 Y36.3535 F200.00
G01 X14.3872 Y36.5613 F200.00
G01 X14.2762 Y36.7825 F200.00
G01 X14.1899 Y37.0144 F200.00
G01 X14.1295 Y37.2544 F200.00
G01 X14.0955 Y37.4996 F200.00
G01 X14.0898 Y37.7754 F200.00
G00 Z1.0000
G00 X9.8292 Y43.2468
G01 F100.00
G01 Z-0.1000
G01 F200.00
G01 X9.5422 Y43.1326 F200.00
G01 X9.3052 Y43.0727 F200.00
G01 X8.9612 Y43.0339 F200.00
G01 X8.7169 Y43.0396 F200.00
G01 X8.4466 Y43.0778 F200.00
G01 X8.1034 Y43.1796 F200.00
G01 X7.7915 Y43.3299 F200.00
G01 X7.5721 Y43.4771 F200.00
G01 X7.3865 Y43.1506 F200.00
G01 X7.2003 Y42.9020 F200.00
G01 X6.9875 Y42.6758 F200.00
G01 X6.7762 Y42.4962 F200.00
G01 X6.4915 Y42.1798 F200.00
G01 X6.2488 Y41.9748 F200.00
G01 X9.8292 Y41.9748 F200.00
G01 X9.8292 Y43.2468 F200.00
G00 Z1.0000
G00 X10.3372 Y44.3768
G01 F100.00
G01 Z-0.1000
G01 F200.00
G01 X10.2230 Y44.2036 F200.00
G01 X10.0413 Y44.0003 F200.00
G01 X9.8151 Y43.8199 F200.00
G01 X9.6535 Y43.7251 F200.00
G01 X9.4015 Y43.6208 F200.00
G01 X9.2202 Y43.5735 F200.00
G01 X8.9327 Y43.5411 F200.00
G01 X8.7454 Y43.5468 F200.00
G01 X8.5430 Y43.5765 F200.00
G01 X8.2978 Y43.6490 F200.00
G01 X8.0372 Y43.7745 F200.00
G01 X7.8816 Y43.8790 F200.00
G01 X7.6783 Y44.0607 F200.00
G01 X7.5570 Y44.2036 F200.00
G01 X7.4525 Y44.3592 F200.00
G01 X7.3387 Y44.5914 F200.00
G01 X7.2944 Y44.2224 F200.00
G01 X7.2288 Y43.9774 F200.00
G01 X7.1344 Y43.7372 F200.00
G01 X7.0176 Y43.5170 F200.00
G01 X6.8748 Y43.3073 F200.00
G01 X6.7094 Y43.1151 F200.00
G01 X6.4111 Y42.8569 F200.00
G01 X6.2134 Y42.6191 F200.00
G01 X5.9607 Y42.3932 F200.00
G01 X5.7510 Y42.2504 F200.00
G01 X5.5268 Y42.1319 F200.00
G01 X5.2906 Y42.0392 F200.00
G01 X5.0456 Y41.9736 F200.00
G01 X4.6267 Y41.9264 F200.00
G01 X3.5922 Y41.9252 F200.00
G01 X2.8545 Y41.1876 F200.00
G01 X2.8545 Y38.9511 F200.00
G01 X3.3526 Y39.4492 F200.00
G01 X3.4047 Y39.7489 F200.00
G01 X3.5456 Y40.1508 F200.00
G01 X3.7078 Y40.4434 F200.00
G01 X3.8585 Y40.6475 F200.00
G01 X4.1565 Y40.9455 F200.00
G01 X4.3693 Y41.1023 F200.00
G01 X4.6572 Y41.2601 F200.00
G01 X4.8934 Y41.3528 F200.00
G01 X5.3043 Y41.4465 F200.00
G01 X5.6000 Y41.4668 F200.00
G01 X10.3372 Y41.4668 F200.00
G01 X10.3372 Y44.3768 F200.00
G00 Z1.0000
G00 X9.8511 Y47.1668
G01 F100.00
G01 Z-0.1000
G01 F200.00
G01 X10.1091 Y47.0184 F200.00
G01 X10.3518 Y46.8275 F200.00
G01 X10.5918 Y47.1195 F200.00
G01 X10.8180 Y47.3323 F200.00
G01 X11.1872 Y47.5943 F200.00
G01 X11.5242 Y47.7629 F200.00
G01 X11.3792 Y47.8517 F200.00
G01 X11.1774 Y48.0048 F200.00
G01 X10.9939 Y48.1794 F200.00
G01 X10.8334 Y48.3704 F200.00
G01 X10.7634 Y48.1905 F200.00
G01 X10.6490 Y47.9687 F200.00
G01 X10.4148 Y47.6403 F200.00
G01 X10.1499 Y47.3782 F200.00
G01 X9.8511 Y47.1668 F200.00
G00 Z1.0000
G00 X10.5686 Y50.6415
G01 F100.00
G01 Z-0.1000
G01 F200.00
G01 X10.4579 Y50.6226 F200.00
G01 X10.3930 Y50.6153 F200.00
G01 X10.5053 Y50.4799 F200.00
G01 X10.5686 Y50.6415 F200.00
G00 Z1.0000
G00 X9.9868 Y57.8532
G01 F100.00
G01 Z-0.1000
G01 F200.00
G01 X10.0355 Y57.8559 F200.00
G01 X10.0225 Y57.9011 F200.00
G01 X10.0127 Y57.8869 F200.00
G01 X9.9868 Y57.8532 F200.00
G00 Z1.0000
G00 X17.9916 Y55.4221
G01 F100.00
G01 Z-0.1000
G01 F200.00
G01 X17.9916 Y55.3501 F200.00
G01 X18.1610 Y55.4221 F200.00
G01 X17.9916 Y55.4221 F200.00
G00 Z1.0000
G00 X27.6719 Y55.4221
G01 F100.00
G01 Z-0.1000
G01 F200.00
G01 X27.6809 Y55.4190 F200.00
G01 X27.7015 Y55.4105 F200.00
G01 X27.7015 Y55.4221 F200.00
G01 X27.6719 Y55.4221 F200.00
G00 Z1.0000
G00 X28.2365 Y55.9301
G01 F100.00
G01 Z-0.1000
G01 F200.00
G01 X17.4566 Y55.9301 F200.00
G01 X17.4836 Y55.5889 F200.00
G01 X17.4836 Y54.3611 F200.00
G01 X17.6063 Y54.4864 F200.00
G01 X17.8013 Y54.6500 F200.00
G01 X18.0134 Y54.7907 F200.00
G01 X18.2399 Y54.9067 F200.00
G01 X18.4780 Y54.9967 F200.00
G01 X18.7246 Y55.0595 F200.00
G01 X19.1600 Y55.1025 F200.00
G01 X26.8532 Y55.0942 F200.00
G01 X27.2442 Y55.0278 F200.00
G01 X27.5969 Y54.9039 F200.00
G01 X27.9372 Y54.7149 F200.00
G01 X28.2095 Y54.4991 F200.00
G01 X28.2095 Y55.5889 F200.00
G01 X28.2365 Y55.9301 F200.00
G00 Z1.0000
G00 X28.8023 Y52.3046
G01 F100.00
G01 Z-0.1000
G01 F200.00
G01 X28.7346 Y52.6023 F200.00
G01 X28.7175 Y52.8420 F200.00
G01 X28.7175 Y55.5889 F200.00
G01 X28.7564 Y55.9560 F200.00
G01 X28.8034 Y56.1303 F200.00
G01 X28.8798 Y56.3259 F200.00
G01 X28.8804 Y56.4381 F200.00
G01 X16.7557 Y56.4381 F200.00
G01 X16.8615 Y56.2109 F200.00
G01 X16.9207 Y56.0225 F200.00
G01 X16.9585 Y55.8286 F200.00
G01 X16.9744 Y55.6316 F200.00
G01 X16.9756 Y52.3046 F200.00
G01 X17.4794 Y52.3046 F200.00
G01 X17.4334 Y52.4817 F200.00
G01 X17.4050 Y52.6773 F200.00
G01 X17.3975 Y52.8320 F200.00
G01 X17.4146 Y53.0717 F200.00
G01 X17.4524 Y53.2656 F200.00
G01 X17.5116 Y53.4540 F200.00
G01 X17.6459 Y53.7329 F200.00
G01 X17.8096 Y53.9636 F200.00
G01 X17.9448 Y54.1076 F200.00
G01 X18.0953 Y54.2357 F200.00
G01 X18.3573 Y54.4003 F200.00
G01 X18.5380 Y54.4804 F200.00
G01 X18.7264 Y54.5396 F200.00
G01 X18.9203 Y54.5774 F200.00
G01 X19.1600 Y54.5945 F200.00
G01 X26.6700 Y54.5945 F200.00
G01 X27.0371 Y54.5556 F200.00
G01 X27.2114 Y54.5086 F200.00
G01 X27.3998 Y54.4357 F200.00
G01 X27.5709 Y54.3461 F200.00
G01 X27.7347 Y54.2357 F200.00
G01 X27.9456 Y54.0472 F200.00
G01 X28.0737 Y53.8967 F200.00
G01 X28.2383 Y53.6347 F200.00
G01 X28.3184 Y53.4540 F200.00
G01 X28.3776 Y53.2656 F200.00
G01 X28.4154 Y53.0717 F200.00
G01 X28.4313 Y52.7893 F200.00
G01 X28.4154 Y52.5923 F200.00
G01 X28.3506 Y52.3046 F200.00
G01 X28.8023 Y52.3046 F200.00
G00 Z1.0000
G00 X33.7975 Y53.7504
G01 F100.00
G01 Z-0.1000
G01 F200.00
G01 X33.4528 Y53.6453 F200.00
G01 X33.0469 Y53.6032 F200.00
G01 X32.8641 Y53.6122 F200.00
G01 X32.6241 Y53.6484 F200.00
G01 X32.4229 Y53.7031 F200.00
G01 X32.2425 Y53.7727 F200.00
G01 X32.2350 Y52.6873 F200.00
G01 X32.2036 Y52.4749 F200.00
G01 X32.1577 Y52.3046 F200.00
G01 X32.6977 Y52.3046 F200.00
G01 X32.8716 Y52.5877 F200.00
G01 X32.9975 Y52.7366 F200.00
G01 X33.1390 Y52.8707 F200.00
G01 X33.3032 Y52.9944 F200.00
G01 X33.4621 Y53.0880 F200.00
G01 X33.7975 Y53.2269 F200.00
G01 X33.7975 Y53.7504 F200.00
G00 Z1.0000
G00 X37.8227 Y55.7626
G01 F100.00
G01 Z-0.1000
G01 F200.00
G01 X37.9263 Y55.8664 F200.00
G01 X37.9976 Y55.9301 F200.00
G01 X37.8035 Y55.9301 F200.00
G01 X37.8227 Y55.7626 F200.00
G00 Z1.0000
G00 X41.6205 Y52.3046
G01 F100.00
G01 Z-0.1000
G01 F200.00
G01 X41.5785 Y52.4495 F200.00
G01 X41.1999 Y52.4495 F200.00
G01 X41.1606 Y52.3046 F200.00
G01 X41.6205 Y52.3046 F200.00
G00 Z1.0000
G00 X45.8703 Y55.9301
G01 F100.00
G01 Z-0.1000
G01 F200.00
G01 X44.7724 Y55.9301 F200.00
G01 X44.9444 Y55.7657 F200.00
G01 X45.1080 Y55.5707 F200.00
G01 X45.3084 Y55.2491 F200.00
G01 X45.4265 Y55.4463 F200.00
G01 X45.5802 Y55.6492 F200.00
G01 X45.7557 Y55.8335 F200.00
G01 X45.8703 Y55.9301 F200.00
G00 Z1.0000
G00 X50.0805 Y55.9301
G01 F100.00
G01 Z-0.1000
G01 F200.00
G01 X49.7472 Y55.9301 F200.00
G01 X49.9590 Y55.7328 F200.00
G01 X50.0544 Y55.6198 F200.00
G01 X50.0805 Y55.9301 F200.00
G00 Z1.0000
G00 X50.6404 Y52.3049
G01 F100.00
G01 Z-0.1000
G01 F200.00
G01 X50.5786 Y52.5823 F200.00
G01 X50.5615 Y52.8220 F200.00
G01 X50.5615 Y55.5889 F200.00
G01 X50.6004 Y55.9560 F200.00
G01 X50.6474 Y56.1303 F200.00
G01 X50.7238 Y56.3259 F200.00
G01 X50.7244 Y56.4381 F200.00
G01 X37.1026 Y56.4381 F200.00
G01 X37.2084 Y56.2109 F200.00
G01 X37.2676 Y56.0225 F200.00
G01 X37.3054 Y55.8286 F200.00
G01 X37.3213 Y55.6316 F200.00
G01 X37.3225 Y52.3046 F200.00
G01 X37.7994 Y52.3046 F200.00
G01 X37.7346 Y52.5923 F200.00
G01 X37.7187 Y52.7893 F200.00
G01 X37.7175 Y54.2120 F200.00
G01 X37.7346 Y54.4517 F200.00
G01 X37.8034 Y54.7534 F200.00
G01 X37.9117 Y55.0147 F200.00
G01 X38.0763 Y55.2767 F200.00
G01 X38.2648 Y55.4876 F200.00
G01 X38.4153 Y55.6157 F200.00
G01 X38.6773 Y55.7803 F200.00
G01 X38.9386 Y55.8886 F200.00
G01 X39.1297 Y55.9386 F200.00
G01 X39.4800 Y55.9745 F200.00
G01 X40.9212 Y55.9745 F200.00
G01 X41.1705 Y56.0292 F200.00
G01 X41.4020 Y56.0458 F200.00
G01 X41.6335 Y56.0292 F200.00
G01 X41.8828 Y55.9745 F200.00
G01 X43.2900 Y55.9745 F200.00
G01 X43.6571 Y55.9356 F200.00
G01 X43.9120 Y55.8604 F200.00
G01 X44.1909 Y55.7261 F200.00
G01 X44.3547 Y55.6157 F200.00
G01 X44.5656 Y55.4272 F200.00
G01 X44.6937 Y55.2767 F200.00
G01 X44.8583 Y55.0147 F200.00
G01 X44.9666 Y54.7534 F200.00
G01 X45.0354 Y54.4517 F200.00
G01 X45.0525 Y54.2120 F200.00
G01 X45.0513 Y52.8233 F200.00
G01 X45.0166 Y52.5157 F200.00
G01 X44.9596 Y52.3046 F200.00
G01 X45.4737 Y52.3046 F200.00
G01 X45.5370 Y52.6736 F200.00
G01 X45.5469 Y54.1791 F200.00
G01 X45.5858 Y54.5462 F200.00
G01 X45.6610 Y54.8011 F200.00
G01 X45.7953 Y55.0800 F200.00
G01 X45.9590 Y55.3107 F200.00
G01 X46.1778 Y55.5295 F200.00
G01 X46.3449 Y55.6538 F200.00
G01 X46.5837 Y55.7845 F200.00
G01 X46.8758 Y55.8867 F200.00
G01 X47.1547 Y55.9341 F200.00
G01 X48.4593 Y55.9341 F200.00
G01 X48.6717 Y55.9027 F200.00
G01 X48.9266 Y55.8275 F200.00
G01 X49.2055 Y55.6932 F200.00
G01 X49.4362 Y55.5295 F200.00
G01 X49.5802 Y55.3943 F200.00
G01 X49.7083 Y55.2438 F200.00
G01 X49.8729 Y54.9818 F200.00
G01 X49.9530 Y54.8011 F200.00
G01 X50.0122 Y54.6127 F200.00
G01 X50.0596 Y54.3338 F200.00
G01 X50.0671 Y52.8706 F200.00
G01 X50.0835 Y52.5741 F200.00
G01 X50.1312 Y52.3050 F200.00
G01 X50.6404 Y52.3049 F200.00
G00 Z1.0000
G00 X55.6415 Y53.7504
G01 F100.00
G01 Z-0.1000
G01 F200.00
G01 X55.2968 Y53.6453 F200.00
G01 X54.8909 Y53.6032 F200.00
G01 X54.7081 Y53.6122 F200.00
G01 X54.4681 Y53.6484 F200.00
G01 X54.2669 Y53.7031 F200.00
G01 X54.0865 Y53.7727 F200.00
G01 X54.0853 Y52.7793 F200.00
G01 X54.0694 Y52.5823 F200.00
G01 X54.0075 Y52.3047 F200.00
G01 X54.5482 Y52.3047 F200.00
G01 X54.7293 Y52.5979 F200.00
G01 X54.8622 Y52.7525 F200.00
G01 X55.0121 Y52.8908 F200.00
G01 X55.1857 Y53.0167 F200.00
G01 X55.3546 Y53.1109 F200.00
G01 X55.6415 Y53.2234 F200.00
G01 X55.6415 Y53.7504 F200.00
G00 Z1.0000
G00 X51.1694 Y44.7195
G01 F100.00
G01 Z-0.1000
G01 F200.00
G01 X44.3082 Y44.7195 F200.00
G01 X44.5543 Y44.5431 F200.00
G01 X44.8636 Y44.4062 F200.00
G01 X45.1061 Y44.2594 F200.00
G01 X45.3934 Y44.0303 F200.00
G01 X49.0375 Y40.3902 F200.00
G01 X49.0466 Y42.2317 F200.00
G01 X49.0689 Y42.4298 F200.00
G01 X49.1321 Y42.7348 F200.00
G01 X49.2290 Y43.0309 F200.00
G01 X49.3584 Y43.3142 F200.00
G01 X49.5188 Y43.5812 F200.00
G01 X49.7080 Y43.8286 F200.00
G01 X49.9238 Y44.0532 F200.00
G01 X50.1633 Y44.2523 F200.00
G01 X50.4236 Y44.4233 F200.00
G01 X50.7015 Y44.5641 F200.00
G01 X50.9933 Y44.6729 F200.00
G01 X51.1694 Y44.7195 F200.00
G00 Z1.0000
G00 X47.1610 Y43.7035
G01 F100.00
G01 Z-0.1000
G01 F200.00
G01 X48.0966 Y42.7679 F200.00
G01 X48.1868 Y43.1239 F200.00
G01 X48.2903 Y43.4197 F200.00
G01 X48.4197 Y43.7035 F200.00
G01 X47.1610 Y43.7035 F200.00
G00 Z1.0000
G00 X45.9346 Y44.2115
G01 F100.00
G01 Z-0.1000
G01 F200.00
G01 X48.5295 Y41.6166 F200.00
G01 X48.5394 Y42.2602 F200.00
G01 X48.5961 Y42.6761 F200.00
G01 X48.6750 Y42.9833 F200.00
G01 X48.8077 Y43.3412 F200.00
G01 X48.9681 Y43.6581 F200.00
G01 X49.1694 Y43.9666 F200.00
G01 X49.3689 Y44.2115 F200.00
G01 X45.9346 Y44.2115 F200.00
G00 Z1.0000
G00 X41.6492 Y45.2275
G01 F100.00
G01 Z-0.1000
G01 F200.00
G01 X42.1821 Y44.6946 F200.00
G01 X42.8832 Y44.6848 F200.00
G01 X43.1911 Y44.6402 F200.00
G01 X43.4366 Y44.5748 F200.00
G01 X43.8289 Y44.4123 F200.00
G01 X44.0723 Y44.2687 F200.00
G01 X44.3041 Y44.0933 F200.00
G01 X44.6179 Y43.9616 F200.00
G01 X44.8808 Y43.7964 F200.00
G01 X45.1066 Y43.6026 F200.00
G01 X49.5455 Y39.1637 F200.00
G01 X49.5455 Y42.0200 F200.00
G01 X49.5538 Y42.2032 F200.00
G01 X49.5936 Y42.4835 F200.00
G01 X49.6513 Y42.7020 F200.00
G01 X49.7441 Y42.9469 F200.00
G01 X49.9331 Y43.2872 F200.00
G01 X50.0868 Y43.4901 F200.00
G01 X50.2623 Y43.6744 F200.00
G01 X50.5633 Y43.9131 F200.00
G01 X50.8959 Y44.0947 F200.00
G01 X51.1340 Y44.1847 F200.00
G01 X51.4912 Y44.2663 F200.00
G01 X51.7448 Y44.2885 F200.00
G01 X57.1655 Y44.2835 F200.00
G01 X57.1659 Y45.2275 F200.00
G01 X41.6492 Y45.2275 F200.00
G00 Z1.0000
G00 X37.1230 Y38.8775
G01 F100.00
G01 Z-0.1000
G01 F200.00
G01 X37.0856 Y38.8775 F200.00
G01 X37.1202 Y38.8484 F200.00
G01 X37.1230 Y38.8775 F200.00
G00 Z1.0000
G00 X31.2667 Y39.3855
G01 F100.00
G01 Z-0.1000
G01 F200.00
G01 X31.8762 Y38.7881 F200.00
G01 X32.0438 Y38.7187 F200.00
G01 X32.2171 Y38.6236 F200.00
G01 X32.3684 Y38.5177 F200.00
G01 X32.5127 Y38.3916 F200.00
G01 X32.7800 Y38.6060 F200.00
G01 X33.0184 Y38.7357 F200.00
G01 X33.3091 Y38.8368 F200.00
G01 X33.5865 Y38.8837 F200.00
G01 X35.6852 Y38.8898 F200.00
G01 X36.0039 Y38.8526 F200.00
G01 X36.2015 Y38.7988 F200.00
G01 X36.3969 Y38.7201 F200.00
G01 X36.5715 Y38.6245 F200.00
G01 X36.7389 Y38.5064 F200.00
G01 X36.9074 Y38.3541 F200.00
G01 X37.0270 Y38.2161 F200.00
G01 X37.1483 Y38.0411 F200.00
G01 X37.2591 Y37.8270 F200.00
G01 X37.3973 Y37.5068 F200.00
G01 X37.5232 Y37.2824 F200.00
G01 X37.6716 Y37.0722 F200.00
G01 X37.8409 Y36.8784 F200.00
G01 X38.0294 Y36.7032 F200.00
G01 X38.2350 Y36.5485 F200.00
G01 X38.4556 Y36.4159 F200.00
G01 X38.6886 Y36.3067 F200.00
G01 X38.9317 Y36.2223 F200.00
G01 X39.1822 Y36.1635 F200.00
G01 X39.4375 Y36.1309 F200.00
G01 X39.6946 Y36.1249 F200.00
G01 X40.2115 Y36.1582 F200.00
G01 X40.5827 Y36.1125 F200.00
G01 X40.9314 Y35.9915 F200.00
G01 X41.1674 Y35.8578 F200.00
G01 X41.3195 Y35.7430 F200.00
G01 X41.4866 Y35.5858 F200.00
G01 X41.6414 Y35.4076 F200.00
G01 X41.7504 Y35.2470 F200.00
G01 X41.8411 Y35.0754 F200.00
G01 X41.9124 Y34.8948 F200.00
G01 X42.0362 Y34.4069 F200.00
G01 X42.1219 Y34.1695 F200.00
G01 X42.2336 Y33.9431 F200.00
G01 X42.3698 Y33.7307 F200.00
G01 X42.6173 Y33.4243 F200.00
G01 X42.7292 Y33.2614 F200.00
G01 X42.8661 Y32.9838 F200.00
G01 X42.9565 Y32.6643 F200.00
G01 X42.9861 Y32.3558 F200.00
G01 X42.9504 Y31.9946 F200.00
G01 X42.8603 Y31.6945 F200.00
G01 X43.1566 Y31.6945 F200.00
G01 X43.3618 Y31.8028 F200.00
G01 X43.5720 Y31.8847 F200.00
G01 X43.7901 Y31.9425 F200.00
G01 X44.0132 Y31.9756 F200.00
G01 X45.3680 Y31.9846 F200.00
G01 X45.8121 Y31.9505 F200.00
G01 X45.9792 Y32.1149 F200.00
G01 X46.2117 Y32.2830 F200.00
G01 X46.3887 Y32.3768 F200.00
G01 X46.6845 Y32.4820 F200.00
G01 X46.8811 Y32.5209 F200.00
G01 X47.0809 Y32.5372 F200.00
G01 X47.8565 Y32.5384 F200.00
G01 X48.0004 Y32.7112 F200.00
G01 X48.1444 Y32.8464 F200.00
G01 X48.4141 Y33.0316 F200.00
G01 X44.5773 Y33.0375 F200.00
G01 X44.3925 Y33.0643 F200.00
G01 X44.1646 Y33.1317 F200.00
G01 X43.9362 Y33.2417 F200.00
G01 X43.7941 Y33.3368 F200.00
G01 X43.5740 Y33.4036 F200.00
G01 X43.2951 Y33.5379 F200.00
G01 X43.0644 Y33.7016 F200.00
G01 X42.8456 Y33.9204 F200.00
G01 X42.7213 Y34.0875 F200.00
G01 X42.5906 Y34.3263 F200.00
G01 X42.4884 Y34.6184 F200.00
G01 X42.4506 Y34.8123 F200.00
G01 X42.4335 Y35.3379 F200.00
G01 X40.9259 Y36.8455 F200.00
G01 X40.5881 Y36.8455 F200.00
G01 X40.2474 Y36.6970 F200.00
G01 X39.8915 Y36.6157 F200.00
G01 X39.6240 Y36.5971 F200.00
G01 X39.3565 Y36.6157 F200.00
G01 X39.0006 Y36.6970 F200.00
G01 X38.7135 Y36.8159 F200.00
G01 X38.4044 Y37.0101 F200.00
G01 X38.1727 Y37.2171 F200.00
G01 X38.0261 Y37.3884 F200.00
G01 X37.8319 Y37.6975 F200.00
G01 X37.7130 Y37.9846 F200.00
G01 X37.6552 Y38.2025 F200.00
G01 X37.6143 Y38.5653 F200.00
G01 X37.6222 Y38.7906 F200.00
G01 X37.6742 Y39.0969 F200.00
G01 X37.7716 Y39.3855 F200.00
G01 X31.2667 Y39.3855 F200.00
G00 Z1.0000
G00 X28.6519 Y44.0620
G01 F100.00
G01 Z-0.1000
G01 F200.00
G01 X28.8764 Y44.1158 F200.00
G01 X29.0073 Y44.2247 F200.00
G01 X29.2447 Y44.3795 F200.00
G01 X29.5758 Y44.5389 F200.00
G01 X29.8448 Y44.6281 F200.00
G01 X30.0392 Y44.6724 F200.00
G01 X30.3203 Y44.7089 F200.00
G01 X36.7792 Y44.7195 F200.00
G01 X28.4299 Y44.7195 F200.00
G01 X28.5534 Y44.4225 F200.00
G01 X28.6519 Y44.0620 F200.00
G00 Z1.0000
G00 X27.4120 Y45.2275
G01 F100.00
G01 Z-0.1000
G01 F200.00
G01 X27.6002 Y45.0456 F200.00
G01 X27.7791 Y44.8260 F200.00
G01 X27.9036 Y44.6302 F200.00
G01 X28.0180 Y44.3994 F200.00
G01 X28.1056 Y44.1571 F200.00
G01 X28.1652 Y43.9064 F200.00
G01 X28.2008 Y43.5391 F200.00
G01 X28.1908 Y43.3201 F200.00
G01 X28.5655 Y43.5001 F200.00
G01 X28.8345 Y43.5860 F200.00
G01 X29.0990 Y43.6390 F200.00
G01 X29.3844 Y43.8693 F200.00
G01 X29.5641 Y43.9756 F200.00
G01 X29.7702 Y44.0696 F200.00
G01 X29.9854 Y44.1399 F200.00
G01 X30.3488 Y44.2017 F200.00
G01 X37.1581 Y44.2084 F200.00
G01 X37.2232 Y44.4526 F200.00
G01 X37.3267 Y44.7234 F200.00
G01 X37.4535 Y44.9677 F200.00
G01 X37.6303 Y45.2275 F200.00
G01 X27.4120 Y45.2275 F200.00
G00 Z1.0000
G00 X25.6230 Y45.9250
G01 F100.00
G01 Z-0.1000
G01 F200.00
G01 X25.6230 Y45.3898 F200.00
G01 X25.8968 Y45.3045 F200.00
G01 X26.2831 Y45.2342 F200.00
G01 X26.4765 Y45.1832 F200.00
G01 X26.6628 Y45.1105 F200.00
G01 X26.9351 Y44.9555 F200.00
G01 X27.1477 Y44.7825 F200.00
G01 X27.3703 Y44.5244 F200.00
G01 X27.5088 Y44.2915 F200.00
G01 X27.6226 Y43.9997 F200.00
G01 X27.6674 Y43.8048 F200.00
G01 X27.6928 Y43.5391 F200.00
G01 X27.6825 Y43.3199 F200.00
G01 X27.6499 Y43.1226 F200.00
G01 X27.5952 Y42.9302 F200.00
G01 X27.5190 Y42.7453 F200.00
G01 X27.2660 Y42.3051 F200.00
G01 X27.1574 Y42.0699 F200.00
G01 X27.0740 Y41.8248 F200.00
G01 X27.0165 Y41.5722 F200.00
G01 X26.9856 Y41.3150 F200.00
G01 X26.9817 Y41.0561 F200.00
G01 X27.0048 Y40.7981 F200.00
G01 X27.0546 Y40.5439 F200.00
G01 X27.1306 Y40.2963 F200.00
G01 X27.2320 Y40.0579 F200.00
G01 X27.3425 Y39.8586 F200.00
G01 X27.9220 Y39.8586 F200.00
G01 X27.7790 Y40.0513 F200.00
G01 X27.6348 Y40.3145 F200.00
G01 X27.5142 Y40.6591 F200.00
G01 X27.4622 Y40.9654 F200.00
G01 X27.4622 Y41.3306 F200.00
G01 X27.5142 Y41.6369 F200.00
G01 X27.6365 Y41.9856 F200.00
G01 X27.7851 Y42.2534 F200.00
G01 X27.9194 Y42.4344 F200.00
G01 X28.0731 Y42.5993 F200.00
G01 X28.3673 Y42.8330 F200.00
G01 X28.6305 Y42.9772 F200.00
G01 X28.8406 Y43.0590 F200.00
G01 X29.0585 Y43.1168 F200.00
G01 X29.3297 Y43.1526 F200.00
G01 X29.5952 Y43.3961 F200.00
G01 X29.8868 Y43.5681 F200.00
G01 X30.2094 Y43.6708 F200.00
G01 X30.5040 Y43.7004 F200.00
G01 X37.6117 Y43.7004 F200.00
G01 X37.6566 Y44.1108 F200.00
G01 X37.7113 Y44.3120 F200.00
G01 X37.7949 Y44.5263 F200.00
G01 X37.8981 Y44.7220 F200.00
G01 X38.0248 Y44.9087 F200.00
G01 X38.2319 Y45.1405 F200.00
G01 X38.4033 Y45.2872 F200.00
G01 X38.5900 Y45.4139 F200.00
G01 X38.7898 Y45.5188 F200.00
G01 X39.0000 Y45.6007 F200.00
G01 X39.2181 Y45.6585 F200.00
G01 X39.4412 Y45.6916 F200.00
G01 X39.8068 Y45.6916 F200.00
G01 X40.0468 Y45.6554 F200.00
G01 X40.2480 Y45.6007 F200.00
G01 X40.4623 Y45.5171 F200.00
G01 X40.7303 Y45.3684 F200.00
G01 X41.0471 Y45.1111 F200.00
G01 X41.9717 Y44.1866 F200.00
G01 X42.8548 Y44.1776 F200.00
G01 X43.0948 Y44.1414 F200.00
G01 X43.2960 Y44.0867 F200.00
G01 X43.5832 Y43.9677 F200.00
G01 X43.7783 Y43.8544 F200.00
G01 X44.0498 Y43.6392 F200.00
G01 X44.2993 Y43.5524 F200.00
G01 X44.5868 Y43.3821 F200.00
G01 X44.7474 Y43.2434 F200.00
G01 X49.6484 Y38.3424 F200.00
G01 X50.2337 Y38.3424 F200.00
G01 X50.1084 Y38.6824 F200.00
G01 X50.0706 Y38.8763 F200.00
G01 X50.0547 Y39.0733 F200.00
G01 X50.0610 Y42.1747 F200.00
G01 X50.1084 Y42.4536 F200.00
G01 X50.2123 Y42.7498 F200.00
G01 X50.3019 Y42.9209 F200.00
G01 X50.4123 Y43.0847 F200.00
G01 X50.6008 Y43.2956 F200.00
G01 X50.8515 Y43.4947 F200.00
G01 X51.0903 Y43.6254 F200.00
G01 X51.2746 Y43.6966 F200.00
G01 X51.4657 Y43.7466 F200.00
G01 X51.7733 Y43.7813 F200.00
G01 X57.0060 Y43.7825 F200.00
G01 X57.3731 Y43.7436 F200.00
G01 X57.6735 Y43.6495 F200.00
G01 X57.6747 Y45.2547 F200.00
G01 X57.6906 Y45.4517 F200.00
G01 X57.7543 Y45.7355 F200.00
G01 X26.4160 Y45.7355 F200.00
G01 X26.0489 Y45.7744 F200.00
G01 X25.7940 Y45.8496 F200.00
G01 X25.6230 Y45.9250 F200.00
G00 Z1.0000
G00 X30.4994 Y34.0530
G01 F100.00
G01 Z-0.1000
G01 F200.00
G01 X30.4994 Y34.4723 F200.00
G01 X29.1383 Y35.8334 F200.00
G01 X26.3048 Y35.8334 F200.00
G01 X26.1670 Y35.7545 F200.00
G01 X25.8760 Y35.5421 F200.00
G01 X25.6230 Y35.3105 F200.00
G01 X25.6230 Y34.5236 F200.00
G01 X25.8074 Y34.7754 F200.00
G01 X25.9569 Y34.9427 F200.00
G01 X26.1846 Y35.1526 F200.00
G01 X26.5068 Y35.3812 F200.00
G01 X26.7802 Y35.5268 F200.00
G01 X26.9875 Y35.6127 F200.00
G01 X27.2838 Y35.7031 F200.00
G01 X27.6732 Y35.7692 F200.00
G01 X27.9400 Y35.7830 F200.00
G01 X28.2068 Y35.7692 F200.00
G01 X28.5962 Y35.7031 F200.00
G01 X28.8925 Y35.6127 F200.00
G01 X29.1768 Y35.4898 F200.00
G01 X29.4455 Y35.3358 F200.00
G01 X29.6954 Y35.1526 F200.00
G01 X29.9231 Y34.9427 F200.00
G01 X30.1259 Y34.7086 F200.00
G01 X30.3012 Y34.4532 F200.00
G01 X30.4098 Y34.2568 F200.00
G01 X30.4994 Y34.0530 F200.00
G00 Z1.0000
G00 X31.2110 Y29.7314
G01 F100.00
G01 Z-0.1000
G01 F200.00
G01 X31.2110 Y27.7669 F200.00
G01 X31.4636 Y27.9210 F200.00
G01 X31.6955 Y28.0257 F200.00
G01 X31.9378 Y28.1038 F200.00
G01 X32.3083 Y28.1679 F200.00
G01 X32.0860 Y28.3737 F200.00
G01 X31.8575 Y28.6602 F200.00
G01 X31.6657 Y29.0073 F200.00
G01 X31.5377 Y29.3834 F200.00
G01 X31.2110 Y29.7314 F200.00
G00 Z1.0000
G00 X37.1894 Y28.5060
G01 F100.00
G01 Z-0.1000
G01 F200.00
G01 X37.0088 Y28.7113 F200.00
G01 X36.8387 Y28.9766 F200.00
G01 X36.5257 Y28.8669 F200.00
G01 X36.2829 Y28.8260 F200.00
G01 X36.0908 Y28.6216 F200.00
G01 X35.8474 Y28.4367 F200.00
G01 X35.5104 Y28.2717 F200.00
G01 X35.2469 Y28.1984 F200.00
G01 X34.9080 Y28.1649 F200.00
G01 X33.6977 Y28.1661 F200.00
G01 X33.3733 Y28.2038 F200.00
G01 X33.1990 Y28.2508 F200.00
G01 X33.0106 Y28.3237 F200.00
G01 X32.7672 Y28.4588 F200.00
G01 X32.6088 Y28.5770 F200.00
G01 X32.4648 Y28.7122 F200.00
G01 X32.3367 Y28.8627 F200.00
G01 X32.2263 Y29.0265 F200.00
G01 X32.1350 Y29.2017 F200.00
G01 X32.0638 Y29.3860 F200.00
G01 X32.0038 Y29.6358 F200.00
G01 X31.7179 Y29.9216 F200.00
G01 X31.5605 Y30.1032 F200.00
G01 X31.3959 Y30.3652 F200.00
G01 X31.2785 Y30.6581 F200.00
G01 X31.0889 Y30.8369 F200.00
G01 X30.9128 Y31.0393 F200.00
G01 X30.7861 Y31.2260 F200.00
G01 X30.7030 Y31.3806 F200.00
G01 X30.7030 Y25.5368 F200.00
G01 X30.8063 Y25.4677 F200.00
G01 X30.7570 Y25.7533 F200.00
G01 X30.7570 Y26.0627 F200.00
G01 X30.8044 Y26.3416 F200.00
G01 X30.8636 Y26.5300 F200.00
G01 X30.9437 Y26.7107 F200.00
G01 X31.1083 Y26.9727 F200.00
G01 X31.2968 Y27.1836 F200.00
G01 X31.5475 Y27.3827 F200.00
G01 X31.7863 Y27.5134 F200.00
G01 X31.9706 Y27.5846 F200.00
G01 X32.1617 Y27.6346 F200.00
G01 X32.4693 Y27.6693 F200.00
G01 X36.3539 Y27.6705 F200.00
G01 X37.1894 Y28.5060 F200.00
G00 Z1.0000
G00 X37.8696 Y22.1997
G01 F100.00
G01 Z-0.1000
G01 F200.00
G01 X37.6640 Y22.1593 F200.00
G01 X37.3527 Y22.1242 F200.00
G01 X37.1051 Y22.1141 F200.00
G01 X37.8567 Y21.3625 F200.00
G01 X38.0093 Y21.2884 F200.00
G01 X37.9127 Y21.7440 F200.00
G01 X37.8696 Y22.1997 F200.00
G00 Z1.0000
G00 X46.3501 Y22.8406
G01 F100.00
G01 Z-0.1000
G01 F200.00
G01 X45.9133 Y22.9371 F200.00
G01 X45.6120 Y23.0499 F200.00
G01 X45.3767 Y23.1685 F200.00
G01 X45.7045 Y22.8406 F200.00
G01 X46.3501 Y22.8406 F200.00
G00 Z1.0000
G00 X47.0055 Y23.3375
G01 F100.00
G01 Z-0.1000
G01 F200.00
G01 X46.6648 Y23.3215 F200.00
G01 X46.2725 Y23.3676 F200.00
G01 X45.9195 Y23.4723 F200.00
G01 X45.6876 Y23.5770 F200.00
G01 X45.4688 Y23.7071 F200.00
G01 X45.2659 Y23.8608 F200.00
G01 X44.4306 Y24.6844 F200.00
G01 X44.4306 Y23.3961 F200.00
G01 X45.4941 Y22.3326 F200.00
G01 X47.0239 Y22.3326 F200.00
G01 X47.0055 Y22.6060 F200.00
G01 X47.0055 Y23.3375 F200.00
G00 Z1.0000
G00 X47.6974 Y21.8246
G01 F100.00
G01 Z-0.1000
G01 F200.00
G01 X47.5684 Y22.1724 F200.00
G01 X47.5210 Y22.4513 F200.00
G01 X47.5135 Y24.0095 F200.00
G01 X47.1696 Y23.8824 F200.00
G01 X46.9757 Y23.8446 F200.00
G01 X46.7360 Y23.8275 F200.00
G01 X46.3689 Y23.8664 F200.00
G01 X46.1946 Y23.9134 F200.00
G01 X46.0062 Y23.9863 F200.00
G01 X45.7628 Y24.1214 F200.00
G01 X45.5208 Y24.3144 F200.00
G01 X44.1639 Y25.6695 F200.00
G01 X43.9226 Y25.6695 F200.00
G01 X43.9226 Y23.1857 F200.00
G01 X45.2837 Y21.8246 F200.00
G01 X47.6974 Y21.8246 F200.00
G00 Z1.0000
G00 X51.7499 Y20.3355
G01 F100.00
G01 Z-0.1000
G01 F200.00
G01 X51.7808 Y20.1648 F200.00
G01 X51.8046 Y19.8832 F200.00
G01 X51.7808 Y19.4592 F200.00
G01 X51.6868 Y19.0474 F200.00
G01 X51.5243 Y18.6551 F200.00
G01 X51.3807 Y18.4117 F200.00
G01 X51.2107 Y18.1860 F200.00
G01 X50.9120 Y17.8873 F200.00
G01 X50.5657 Y17.6415 F200.00
G01 X50.1851 Y17.4582 F200.00
G01 X49.7770 Y17.3407 F200.00
G01 X49.4972 Y17.3012 F200.00
G01 X49.2860 Y17.2914 F200.00
G01 X44.4500 Y17.2914 F200.00
G01 X44.2388 Y17.3012 F200.00
G01 X43.9590 Y17.3407 F200.00
G01 X43.6854 Y17.4112 F200.00
G01 X43.4146 Y17.5147 F200.00
G01 X43.0497 Y17.7173 F200.00
G01 X42.8240 Y17.8873 F200.00
G01 X40.1276 Y20.5696 F200.00
G01 X39.8965 Y20.8373 F200.00
G01 X39.7395 Y21.0723 F200.00
G01 X39.6099 Y21.3234 F200.00
G01 X39.5092 Y21.5874 F200.00
G01 X39.4387 Y21.8610 F200.00
G01 X39.3992 Y22.1408 F200.00
G01 X39.3894 Y25.0024 F200.00
G01 X38.6895 Y24.3025 F200.00
G01 X38.4427 Y24.0900 F200.00
G01 X38.1324 Y23.8950 F200.00
G01 X37.9005 Y23.7903 F200.00
G01 X37.6582 Y23.7122 F200.00
G01 X37.4088 Y23.6617 F200.00
G01 X37.0840 Y23.6375 F200.00
G01 X33.4264 Y23.6375 F200.00
G01 X36.9930 Y20.0709 F200.00
G01 X37.2116 Y19.9839 F200.00
G01 X37.4804 Y19.8436 F200.00
G01 X37.7381 Y19.6705 F200.00
G01 X37.9749 Y19.4696 F200.00
G01 X38.1877 Y19.2435 F200.00
G01 X38.3840 Y18.9804 F200.00
G01 X38.5310 Y18.7271 F200.00
G01 X38.6762 Y18.3877 F200.00
G01 X42.9809 Y14.0830 F200.00
G01 X54.4791 Y14.0830 F200.00
G01 X60.1711 Y19.7749 F200.00
G01 X60.5015 Y20.0622 F200.00
G01 X60.6990 Y20.2022 F200.00
G01 X60.9275 Y20.3355 F200.00
G01 X51.7499 Y20.3355 F200.00
G00 Z1.0000
G00 X52.3142 Y19.8275
G01 F100.00
G01 Z-0.1000
G01 F200.00
G01 X52.2816 Y19.3741 F200.00
G01 X52.1750 Y18.9067 F200.00
G01 X52.0515 Y18.5794 F200.00
G01 X51.9011 Y18.2866 F200.00
G01 X51.7950 Y18.1177 F200.00
G01 X51.4961 Y17.7429 F200.00
G01 X51.2505 Y17.5085 F200.00
G01 X51.0946 Y17.3842 F200.00
G01 X50.6887 Y17.1291 F200.00
G01 X50.3795 Y16.9889 F200.00
G01 X50.0565 Y16.8842 F200.00
G01 X49.8621 Y16.8399 F200.00
G01 X49.5257 Y16.7940 F200.00
G01 X49.2860 Y16.7834 F200.00
G01 X44.4500 Y16.7834 F200.00
G01 X44.2103 Y16.7940 F200.00
G01 X43.8345 Y16.8470 F200.00
G01 X43.3565 Y16.9889 F200.00
G01 X43.0473 Y17.1291 F200.00
G01 X42.7557 Y17.3030 F200.00
G01 X42.4855 Y17.5085 F200.00
G01 X39.7684 Y20.2104 F200.00
G01 X39.4822 Y20.5434 F200.00
G01 X39.2949 Y20.8266 F200.00
G01 X39.1406 Y21.1290 F200.00
G01 X39.0210 Y21.4467 F200.00
G01 X38.9379 Y21.7759 F200.00
G01 X38.8920 Y22.1123 F200.00
G01 X38.8814 Y22.3520 F200.00
G01 X38.8814 Y23.7962 F200.00
G01 X38.6248 Y23.5966 F200.00
G01 X38.3782 Y23.4504 F200.00
G01 X38.1985 Y23.3639 F200.00
G01 X37.7988 Y23.2241 F200.00
G01 X37.4938 Y23.1609 F200.00
G01 X37.0840 Y23.1295 F200.00
G01 X34.6528 Y23.1295 F200.00
G01 X37.2746 Y20.5078 F200.00
G01 X37.5789 Y20.3696 F200.00
G01 X37.8949 Y20.1822 F200.00
G01 X38.3134 Y19.8484 F200.00
G01 X38.5665 Y19.5820 F200.00
G01 X38.8024 Y19.2686 F200.00
G01 X38.9756 Y18.9729 F200.00
G01 X39.1138 Y18.6686 F200.00
G01 X43.1913 Y14.5910 F200.00
G01 X54.2687 Y14.5910 F200.00
G01 X59.5052 Y19.8275 F200.00
G01 X52.3142 Y19.8275 F200.00
G00 Z1.0000
G00 X53.2080 Y16.6230
G01 F100.00
G01 Z-0.1000
G01 F200.00
G01 X53.4270 Y16.6230 F200.00
G01 X54.5995 Y17.7955 F200.00
G01 X53.9259 Y17.7955 F200.00
G01 X53.6795 Y17.3037 F200.00
G01 X53.4522 Y16.9419 F200.00
G01 X53.2080 Y16.6230 F200.00
G00 Z1.0000
G00 X51.9395 Y16.1150
G01 F100.00
G01 Z-0.1000
G01 F200.00
G01 X53.6374 Y16.1150 F200.00
G01 X55.8259 Y18.3035 F200.00
G01 X53.5759 Y18.3035 F200.00
G01 X53.4560 Y17.9881 F200.00
G01 X53.3028 Y17.6721 F200.00
G01 X52.9568 Y17.1215 F200.00
G01 X52.6324 Y16.7274 F200.00
G01 X52.3706 Y16.4656 F200.00
G01 X51.9395 Y16.1150 F200.00
G00 Z1.0000
G00 X57.0523 Y18.8115
G01 F100.00
G01 Z-0.1000
G01 F200.00
G01 X53.2024 Y18.8115 F200.00
G01 X53.0478 Y18.3297 F200.00
G01 X52.7903 Y17.7951 F200.00
G01 X52.6236 Y17.5298 F200.00
G01 X52.3471 Y17.1705 F200.00
G01 X52.0321 Y16.8444 F200.00
G01 X51.6826 Y16.5555 F200.00
G01 X51.1801 Y16.2399 F200.00
G01 X50.8978 Y16.1039 F200.00
G01 X50.4725 Y15.9468 F200.00
G01 X50.0323 Y15.8382 F200.00
G01 X49.5827 Y15.7796 F200.00
G01 X49.2860 Y15.7674 F200.00
G01 X44.4500 Y15.7674 F200.00
G01 X44.1533 Y15.7796 F200.00
G01 X43.8420 Y15.8147 F200.00
G01 X43.6419 Y15.8494 F200.00
G01 X43.2760 Y15.9431 F200.00
G01 X43.6122 Y15.6070 F200.00
G01 X53.8478 Y15.6070 F200.00
G01 X57.0523 Y18.8115 F200.00
G00 Z1.0000
G00 X58.2788 Y19.3195
G01 F100.00
G01 Z-0.1000
G01 F200.00
G01 X52.7854 Y19.3195 F200.00
G01 X52.7019 Y18.9009 F200.00
G01 X52.5196 Y18.3823 F200.00
G01 X52.3457 Y18.0408 F200.00
G01 X52.2093 Y17.8238 F200.00
G01 X51.8749 Y17.4044 F200.00
G01 X51.5890 Y17.1297 F200.00
G01 X51.3886 Y16.9698 F200.00
G01 X50.9344 Y16.6845 F200.00
G01 X50.7034 Y16.5732 F200.00
G01 X50.3319 Y16.4349 F200.00
G01 X49.9472 Y16.3390 F200.00
G01 X49.5542 Y16.2868 F200.00
G01 X49.2860 Y16.2754 F200.00
G01 X44.4500 Y16.2754 F200.00
G01 X43.9271 Y16.3155 F200.00
G01 X43.5389 Y16.3961 F200.00
G01 X43.1621 Y16.5196 F200.00
G01 X42.8016 Y16.6845 F200.00
G01 X42.3474 Y16.9698 F200.00
G01 X41.9492 Y17.3112 F200.00
G01 X39.4092 Y19.8512 F200.00
G01 X39.2277 Y20.0490 F200.00
G01 X38.9684 Y20.3899 F200.00
G01 X38.7825 Y20.7036 F200.00
G01 X38.6712 Y20.9346 F200.00
G01 X38.5329 Y21.3061 F200.00
G01 X38.4370 Y21.6908 F200.00
G01 X38.3848 Y22.0838 F200.00
G01 X38.3734 Y22.8865 F200.00
G01 X37.9395 Y22.7359 F200.00
G01 X37.5789 Y22.6601 F200.00
G01 X37.3242 Y22.6314 F200.00
G01 X35.8792 Y22.6215 F200.00
G01 X37.5623 Y20.9384 F200.00
G01 X37.8246 Y20.8142 F200.00
G01 X38.1889 Y20.5965 F200.00
G01 X38.6519 Y20.2272 F200.00
G01 X38.9453 Y19.9205 F200.00
G01 X39.2025 Y19.5829 F200.00
G01 X39.4202 Y19.2186 F200.00
G01 X39.5444 Y18.9563 F200.00
G01 X43.4017 Y15.0990 F200.00
G01 X54.0583 Y15.0990 F200.00
G01 X58.2788 Y19.3195 F200.00
G00 Z1.0000
G00 X57.4211 Y27.3525
G01 F100.00
G01 Z-0.1000
G01 F200.00
G01 X57.6735 Y27.3525 F200.00
G01 X57.6735 Y27.6049 F200.00
G01 X57.4211 Y27.3525 F200.00
G00 Z1.0000
G00 X61.9973 Y27.8605
G01 F100.00
G01 Z-0.1000
G01 F200.00
G01 X62.0052 Y30.1832 F200.00
G01 X62.0498 Y30.4911 F200.00
G01 X62.1152 Y30.7366 F200.00
G01 X62.2187 Y31.0074 F200.00
G01 X62.3455 Y31.2517 F200.00
G01 X62.5025 Y31.4867 F200.00
G01 X62.7336 Y31.7544 F200.00
G01 X66.2896 Y35.3104 F200.00
G01 X66.5997 Y35.5716 F200.00
G01 X63.9286 Y35.5716 F200.00
G01 X61.7065 Y33.3495 F200.00
G01 X61.7065 Y27.8605 F200.00
G01 X61.9973 Y27.8605 F200.00
G00 Z1.0000
G00 X62.2145 Y31.9388
G01 F100.00
G01 Z-0.1000
G01 F200.00
G01 X62.3744 Y32.1136 F200.00
G01 X65.3245 Y35.0636 F200.00
G01 X64.1390 Y35.0636 F200.00
G01 X62.2145 Y33.1391 F200.00
G01 X62.2145 Y31.9388 F200.00
G00 Z1.0000
G00 X58.6585 Y36.0051
G01 F100.00
G01 Z-0.1000
G01 F200.00
G01 X60.1662 Y37.5127 F200.00
G01 X59.9774 Y37.4394 F200.00
G01 X59.7863 Y37.3894 F200.00
G01 X59.4360 Y37.3535 F200.00
G01 X59.0689 Y37.3924 F200.00
G01 X58.8946 Y37.4394 F200.00
G01 X58.6585 Y37.5354 F200.00
G01 X58.6585 Y36.0051 F200.00
G00 Z1.0000
G00 X66.3967 Y39.6124
G01 F100.00
G01 Z-0.1000
G01 F200.00
G01 X65.4505 Y40.5585 F200.00
G01 X65.2380 Y40.8053 F200.00
G01 X65.0430 Y41.1156 F200.00
G01 X64.9383 Y41.3475 F200.00
G01 X64.8815 Y41.5159 F200.00
G01 X64.8815 Y39.6124 F200.00
G01 X66.3967 Y39.6124 F200.00
G00 Z1.0000
G00 X68.8185 Y43.4969
G01 F100.00
G01 Z-0.1000
G01 F200.00
G01 X68.8185 Y42.8941 F200.00
G01 X69.0522 Y42.6604 F200.00
G01 X69.6761 Y42.6604 F200.00
G01 X69.5097 Y42.8057 F200.00
G01 X68.8185 Y43.4969 F200.00
G00 Z1.0000
G00 X73.2152 Y42.6604
G01 F100.00
G01 Z-0.1000
G01 F200.00
G01 X74.4327 Y42.6604 F200.00
G01 X74.7230 Y42.7722 F200.00
G01 X74.0852 Y43.4116 F200.00
G01 X73.9759 Y43.5412 F200.00
G01 X73.8646 Y43.7132 F200.00
G01 X73.7844 Y43.4300 F200.00
G01 X73.6501 Y43.1511 F200.00
G01 X73.4864 Y42.9204 F200.00
G01 X73.3512 Y42.7764 F200.00
G01 X73.2152 Y42.6604 F200.00
G00 Z1.0000
G00 X73.6716 Y44.9139
G01 F100.00
G01 Z-0.1000
G01 F200.00
G01 X73.6716 Y51.3080 F200.00
G01 X73.6871 Y51.5197 F200.00
G01 X73.7435 Y51.7668 F200.00
G01 X73.8056 Y51.9293 F200.00
G01 X73.9272 Y52.1482 F200.00
G01 X74.0292 Y52.2836 F200.00
G01 X75.4814 Y53.7442 F200.00
G01 X75.4767 Y56.4381 F200.00
G01 X58.9466 Y56.4381 F200.00
G01 X59.0524 Y56.2109 F200.00
G01 X59.1116 Y56.0225 F200.00
G01 X59.1590 Y55.7436 F200.00
G01 X59.1665 Y55.5347 F200.00
G01 X59.4122 Y55.4577 F200.00
G01 X59.6503 Y55.3414 F200.00
G01 X59.8705 Y55.5525 F200.00
G01 X60.0384 Y55.6720 F200.00
G01 X60.2191 Y55.7710 F200.00
G01 X60.4101 Y55.8482 F200.00
G01 X60.6088 Y55.9026 F200.00
G01 X60.9739 Y55.9416 F200.00
G01 X72.7262 Y55.9416 F200.00
G01 X72.9659 Y55.9245 F200.00
G01 X73.2676 Y55.8557 F200.00
G01 X73.5290 Y55.7474 F200.00
G01 X73.7910 Y55.5827 F200.00
G01 X74.0019 Y55.3942 F200.00
G01 X74.1949 Y55.1522 F200.00
G01 X74.2946 Y54.9816 F200.00
G01 X74.4028 Y54.7203 F200.00
G01 X74.4529 Y54.5291 F200.00
G01 X74.4875 Y54.2215 F200.00
G01 X74.4716 Y53.9391 F200.00
G01 X74.4338 Y53.7452 F200.00
G01 X74.3298 Y53.4490 F200.00
G01 X74.1946 Y53.2055 F200.00
G01 X74.0763 Y53.0472 F200.00
G01 X73.6353 Y52.5789 F200.00
G01 X73.5179 Y52.4207 F200.00
G01 X73.3327 Y52.0739 F200.00
G01 X73.2188 Y51.6975 F200.00
G01 X73.1900 Y51.5028 F200.00
G01 X73.1711 Y50.9290 F200.00
G01 X73.1405 Y50.7196 F200.00
G01 X73.0671 Y50.4674 F200.00
G01 X72.9891 Y50.2886 F200.00
G01 X72.8918 Y50.1196 F200.00
G01 X72.7034 Y49.8791 F200.00
G01 X72.4972 Y49.6908 F200.00
G01 X72.2406 Y49.5249 F200.00
G01 X71.9843 Y49.4142 F200.00
G01 X71.7965 Y49.3616 F200.00
G01 X71.6040 Y49.3300 F200.00
G01 X71.4093 Y49.3200 F200.00
G01 X71.2146 Y49.3315 F200.00
G01 X70.9152 Y49.3926 F200.00
G01 X70.4238 Y49.5955 F200.00
G01 X70.0173 Y49.7132 F200.00
G01 X69.8076 Y49.7430 F200.00
G01 X69.5546 Y49.7549 F200.00
G01 X61.3737 Y49.7549 F200.00
G01 X61.2651 Y49.4537 F200.00
G01 X61.1632 Y49.2605 F200.00
G01 X69.5960 Y49.2605 F200.00
G01 X69.8357 Y49.2434 F200.00
G01 X70.1374 Y49.1746 F200.00
G01 X70.3258 Y49.1017 F200.00
G01 X70.4969 Y49.0121 F200.00
G01 X70.6607 Y48.9017 F200.00
G01 X70.8112 Y48.7736 F200.00
G01 X70.9464 Y48.6296 F200.00
G01 X71.0707 Y48.4625 F200.00
G01 X71.1643 Y48.3007 F200.00
G01 X71.2444 Y48.1200 F200.00
G01 X71.3226 Y47.8483 F200.00
G01 X71.3573 Y47.5407 F200.00
G01 X71.3585 Y45.9421 F200.00
G01 X71.4861 Y45.8145 F200.00
G01 X72.1360 Y45.8145 F200.00
G01 X72.3757 Y45.7974 F200.00
G01 X72.6774 Y45.7286 F200.00
G01 X72.8658 Y45.6557 F200.00
G01 X73.1092 Y45.5206 F200.00
G01 X73.3512 Y45.3276 F200.00
G01 X73.5397 Y45.1167 F200.00
G01 X73.6716 Y44.9139 F200.00
G00 Z1.0000
G00 X73.1636 Y46.0750
G01 F100.00
G01 Z-0.1000
G01 F200.00
G01 X73.1636 Y49.6343 F200.00
G01 X72.9869 Y49.4437 F200.00
G01 X72.7962 Y49.2801 F200.00
G01 X72.5886 Y49.1386 F200.00
G01 X72.3666 Y49.0209 F200.00
G01 X72.1330 Y48.9284 F200.00
G01 X71.8906 Y48.8624 F200.00
G01 X71.6424 Y48.8235 F200.00
G01 X71.4458 Y48.8119 F200.00
G01 X71.6090 Y48.5464 F200.00
G01 X71.7137 Y48.3145 F200.00
G01 X71.7918 Y48.0722 F200.00
G01 X71.8423 Y47.8228 F200.00
G01 X71.8665 Y47.4980 F200.00
G01 X71.8665 Y46.3225 F200.00
G01 X72.3192 Y46.3142 F200.00
G01 X72.5995 Y46.2744 F200.00
G01 X72.9525 Y46.1697 F200.00
G01 X73.1636 Y46.0750 F200.00
G00 Z1.0000
G00 X72.6556 Y48.5983
G01 F100.00
G01 Z-0.1000
G01 F200.00
G01 X72.4665 Y48.5106 F200.00
G01 X72.2129 Y48.4216 F200.00
G01 X72.3243 Y48.0185 F200.00
G01 X72.3654 Y47.7097 F200.00
G01 X72.3745 Y46.8154 F200.00
G01 X72.6556 Y46.7804 F200.00
G01 X72.6556 Y48.5983 F200.00
G00 Z1.0000
G00 X77.6559 Y48.7662
G01 F100.00
G01 Z-0.1000
G01 F200.00
G01 X77.4603 Y48.9628 F200.00
G01 X77.3418 Y49.1216 F200.00
G01 X77.2160 Y49.3515 F200.00
G01 X77.1205 Y49.6245 F200.00
G01 X77.0844 Y49.8085 F200.00
G01 X77.0691 Y49.9953 F200.00
G01 X77.0844 Y50.2675 F200.00
G01 X77.1205 Y50.4515 F200.00
G01 X77.1770 Y50.6302 F200.00
G01 X77.3164 Y50.9129 F200.00
G01 X77.0647 Y51.0499 F200.00
G01 X76.6964 Y50.6816 F200.00
G01 X76.6964 Y48.0830 F200.00
G01 X76.8173 Y48.2111 F200.00
G01 X77.0514 Y48.4139 F200.00
G01 X77.3068 Y48.5892 F200.00
G01 X77.6559 Y48.7662 F200.00
G00 Z1.0000
G00 X81.2056 Y50.9989
G01 F100.00
G01 Z-0.1000
G01 F200.00
G01 X80.8154 Y50.7013 F200.00
G01 X80.8964 Y50.3526 F200.00
G01 X80.9181 Y49.9668 F200.00
G01 X80.8742 Y49.5947 F200.00
G01 X80.7697 Y49.2450 F200.00
G01 X82.0357 Y49.2450 F200.00
G01 X81.8977 Y49.3665 F200.00
G01 X81.7218 Y49.5571 F200.00
G01 X81.5602 Y49.7794 F200.00
G01 X81.4408 Y49.9922 F200.00
G01 X81.3393 Y50.2309 F200.00
G01 X81.2657 Y50.4796 F200.00
G01 X81.2209 Y50.7351 F200.00
G01 X81.2056 Y50.9989 F200.00
G00 Z1.0000
G00 X74.9687 Y54.5257
G01 F100.00
G01 Z-0.1000
G01 F200.00
G01 X74.9687 Y55.9301 F200.00
G01 X74.1688 Y55.9301 F200.00
G01 X74.4555 Y55.6490 F200.00
G01 X74.6850 Y55.3255 F200.00
G01 X74.8440 Y54.9953 F200.00
G01 X74.9221 Y54.7530 F200.00
G01 X74.9687 Y54.5257 F200.00
G00 Z1.0000
G00 X79.2596 Y41.8264
G01 F100.00
G01 Z-0.1000
G01 F200.00
G01 X79.0642 Y41.6324 F200.00
G01 X78.8402 Y41.4735 F200.00
G01 X78.5760 Y41.3463 F200.00
G01 X78.3121 Y41.2702 F200.00
G01 X78.0207 Y41.2374 F200.00
G01 X77.8314 Y41.2432 F200.00
G01 X77.5606 Y41.2892 F200.00
G01 X77.2265 Y41.4136 F200.00
G01 X76.8514 Y41.4136 F200.00
G01 X76.8738 Y41.1480 F200.00
G01 X76.8367 Y40.7970 F200.00
G01 X76.7222 Y40.4498 F200.00
G01 X76.5910 Y40.2134 F200.00
G01 X76.4776 Y40.0618 F200.00
G01 X76.3478 Y39.9238 F200.00
G01 X76.1098 Y39.7349 F200.00
G01 X75.7820 Y39.5683 F200.00
G01 X75.5181 Y39.4922 F200.00
G01 X75.2267 Y39.4594 F200.00
G01 X74.9525 Y39.4748 F200.00
G01 X74.6666 Y39.5400 F200.00
G01 X74.4325 Y39.6356 F200.00
G01 X68.9756 Y39.6356 F200.00
G01 X68.6940 Y39.4996 F200.00
G01 X68.4223 Y39.4214 F200.00
G01 X68.1147 Y39.3867 F200.00
G01 X67.8323 Y39.4026 F200.00
G01 X67.5306 Y39.4714 F200.00
G01 X67.3422 Y39.5443 F200.00
G01 X67.0988 Y39.6794 F200.00
G01 X66.9404 Y39.7976 F200.00
G01 X65.8097 Y40.9177 F200.00
G01 X65.5813 Y41.1995 F200.00
G01 X65.4877 Y41.3613 F200.00
G01 X65.4076 Y41.5420 F200.00
G01 X65.3484 Y41.7304 F200.00
G01 X65.3106 Y41.9243 F200.00
G01 X65.2935 Y42.1640 F200.00
G01 X65.2935 Y43.4969 F200.00
G01 X64.3735 Y42.5769 F200.00
G01 X64.3735 Y39.1044 F200.00
G01 X79.5068 Y39.1044 F200.00
G01 X79.4192 Y39.2341 F200.00
G01 X79.3337 Y39.4115 F200.00
G01 X79.2710 Y39.6291 F200.00
G01 X79.2521 Y39.7690 F200.00
G01 X79.2596 Y41.8264 F200.00
G00 Z1.0000
G00 X78.7516 Y40.8710
G01 F100.00
G01 Z-0.1000
G01 F200.00
G01 X78.3972 Y40.7694 F200.00
G01 X78.0492 Y40.7302 F200.00
G01 X77.6614 Y40.7520 F200.00
G01 X77.3560 Y40.8195 F200.00
G01 X77.2801 Y40.4900 F200.00
G01 X77.1315 Y40.1311 F200.00
G01 X76.9451 Y39.8346 F200.00
G01 X76.7537 Y39.6124 F200.00
G01 X78.7594 Y39.6124 F200.00
G01 X78.7398 Y39.8675 F200.00
G01 X78.7516 Y40.8710 F200.00
G00 Z1.0000
G00 X77.7288 Y40.2366
G01 F100.00
G01 Z-0.1000
G01 F200.00
G01 X77.6855 Y40.1204 F200.00
G01 X78.2318 Y40.1204 F200.00
G01 X78.2318 Y40.2345 F200.00
G01 X77.9780 Y40.2202 F200.00
G01 X77.7288 Y40.2366 F200.00
G00 Z1.0000
G00 X74.6166 Y34.6342
G01 F100.00
G01 Z-0.1000
G01 F200.00
G01 X74.8674 Y34.6860 F200.00
G01 X75.1840 Y34.7098 F200.00
G01 X75.5006 Y34.6860 F200.00
G01 X75.7493 Y34.6348 F200.00
G01 X75.7103 Y34.8968 F200.00
G01 X75.7036 Y35.0520 F200.00
G01 X75.7263 Y35.3487 F200.00
G01 X75.7724 Y35.5716 F200.00
G01 X74.5540 Y35.5716 F200.00
G01 X74.6068 Y35.2332 F200.00
G01 X74.6166 Y34.6342 F200.00
G00 Z1.0000
G00 X74.1086 Y33.8123
G01 F100.00
G01 Z-0.1000
G01 F200.00
G01 X74.3218 Y33.9645 F200.00
G01 X74.5860 Y34.0917 F200.00
G01 X74.7666 Y34.1488 F200.00
G01 X75.0374 Y34.1948 F200.00
G01 X75.3306 Y34.1948 F200.00
G01 X75.5350 Y34.1647 F200.00
G01 X75.7820 Y34.0917 F200.00
G01 X75.9355 Y34.0244 F200.00
G01 X76.6156 Y34.0244 F200.00
G01 X76.4611 Y34.2205 F200.00
G01 X76.3117 Y34.5126 F200.00
G01 X76.2412 Y34.7574 F200.00
G01 X76.2116 Y35.0520 F200.00
G01 X76.2443 Y35.3635 F200.00
G01 X76.3117 Y35.5914 F200.00
G01 X76.4217 Y35.8198 F200.00
G01 X76.6156 Y36.0796 F200.00
G01 X73.8072 Y36.0796 F200.00
G01 X73.9804 Y35.7267 F200.00
G01 X74.0475 Y35.5112 F200.00
G01 X74.0900 Y35.2897 F200.00
G01 X74.1086 Y35.0220 F200.00
G01 X74.1086 Y33.8123 F200.00
G00 Z1.0000
G00 X70.0834 Y33.4844
G01 F100.00
G01 Z-0.1000
G01 F200.00
G01 X70.0394 Y33.1052 F200.00
G01 X69.9564 Y32.8233 F200.00
G01 X69.7979 Y32.4940 F200.00
G01 X69.6180 Y32.2405 F200.00
G01 X66.5286 Y29.1383 F200.00
G01 X66.5274 Y27.8873 F200.00
G01 X66.5100 Y27.6623 F200.00
G01 X66.4421 Y27.3525 F200.00
G01 X69.4487 Y27.3513 F200.00
G01 X69.7731 Y27.3136 F200.00
G01 X70.0834 Y27.2154 F200.00
G01 X70.0834 Y27.7387 F200.00
G01 X69.5851 Y27.8679 F200.00
G01 X69.3239 Y27.9762 F200.00
G01 X69.1535 Y28.0760 F200.00
G01 X68.9953 Y28.1943 F200.00
G01 X68.8513 Y28.3295 F200.00
G01 X68.7234 Y28.4800 F200.00
G01 X68.5589 Y28.7420 F200.00
G01 X68.4507 Y29.0033 F200.00
G01 X68.3820 Y29.3049 F200.00
G01 X68.3650 Y29.5443 F200.00
G01 X68.3821 Y29.7841 F200.00
G01 X68.4510 Y30.0857 F200.00
G01 X68.5239 Y30.2740 F200.00
G01 X68.6590 Y30.5174 F200.00
G01 X68.8519 Y30.7593 F200.00
G01 X69.8200 Y31.7291 F200.00
G01 X70.0834 Y32.0346 F200.00
G01 X70.0834 Y33.4844 F200.00
G00 Z1.0000
G00 X69.6371 Y35.5716
G01 F100.00
G01 Z-0.1000
G01 F200.00
G01 X69.5443 Y35.5716 F200.00
G01 X69.6244 Y35.5114 F200.00
G01 X69.6371 Y35.5716 F200.00
G00 Z1.0000
G00 X70.3850 Y36.0796
G01 F100.00
G01 Z-0.1000
G01 F200.00
G01 X63.7182 Y36.0796 F200.00
G01 X61.1985 Y33.5599 F200.00
G01 X61.1985 Y27.3525 F200.00
G01 X62.5899 Y27.3525 F200.00
G01 X62.5220 Y27.6623 F200.00
G01 X62.5046 Y27.8873 F200.00
G01 X62.5046 Y30.0147 F200.00
G01 X62.5220 Y30.2397 F200.00
G01 X62.5645 Y30.4612 F200.00
G01 X62.6316 Y30.6767 F200.00
G01 X62.7223 Y30.8832 F200.00
G01 X62.9168 Y31.1927 F200.00
G01 X63.0929 Y31.3951 F200.00
G01 X66.6489 Y34.9511 F200.00
G01 X66.8513 Y35.1272 F200.00
G01 X67.1608 Y35.3217 F200.00
G01 X67.4480 Y35.4407 F200.00
G01 X67.6661 Y35.4985 F200.00
G01 X68.0293 Y35.5394 F200.00
G01 X68.2548 Y35.5316 F200.00
G01 X68.4948 Y35.4954 F200.00
G01 X68.7767 Y35.4124 F200.00
G01 X68.9832 Y35.3217 F200.00
G01 X69.2927 Y35.1272 F200.00
G01 X69.5245 Y34.9201 F200.00
G01 X69.6712 Y34.7487 F200.00
G01 X69.8657 Y34.4392 F200.00
G01 X69.9564 Y34.2327 F200.00
G01 X70.0425 Y33.9339 F200.00
G01 X70.0834 Y33.5716 F200.00
G01 X70.0834 Y35.0220 F200.00
G01 X70.1020 Y35.2897 F200.00
G01 X70.1445 Y35.5112 F200.00
G01 X70.2116 Y35.7267 F200.00
G01 X70.3850 Y36.0796 F200.00
G00 Z1.0000
G00 X67.8711 Y29.7624
G01 F100.00
G01 Z-0.1000
G01 F200.00
G01 X67.0366 Y28.9279 F200.00
G01 X67.0347 Y27.8605 F200.00
G01 X68.6064 Y27.8605 F200.00
G01 X68.3976 Y28.0748 F200.00
G01 X68.2340 Y28.2921 F200.00
G01 X68.1141 Y28.4964 F200.00
G01 X68.0095 Y28.7284 F200.00
G01 X67.9315 Y28.9706 F200.00
G01 X67.8811 Y29.2200 F200.00
G01 X67.8570 Y29.5443 F200.00
G01 X67.8711 Y29.7624 F200.00
G00 Z1.0000
G00 X67.6129 Y28.3685
G01 F100.00
G01 Z-0.1000
G01 F200.00
G01 X67.5830 Y28.4305 F200.00
G01 X67.5446 Y28.5233 F200.00
G01 X67.5446 Y28.3685 F200.00
G01 X67.6129 Y28.3685 F200.00
G00 Z1.0000
G00 X71.3852 Y20.7330
G01 F100.00
G01 Z-0.1000
G01 F200.00
G01 X71.7143 Y20.7330 F200.00
G01 X71.5606 Y20.8695 F200.00
G01 X71.3852 Y20.7330 F200.00
G00 Z1.0000
G00 X76.4695 Y13.8795
G01 F100.00
G01 Z-0.1000
G01 F200.00
G01 X76.4695 Y14.1910 F200.00
G01 X76.1606 Y14.1910 F200.00
G01 X76.3750 Y13.9915 F200.00
G01 X76.4695 Y13.8795 F200.00
G00 Z1.0000
G00 X81.5650 Y28.6220
G01 F100.00
G01 Z-0.1000
G01 F200.00
G01 X81.3293 Y28.5087 F200.00
G01 X81.0539 Y28.4323 F200.00
G01 X81.0274 Y28.2558 F200.00
G01 X80.9522 Y28.0009 F200.00
G01 X80.8179 Y27.7220 F200.00
G01 X80.6954 Y27.5430 F200.00
G01 X80.8706 Y27.2680 F200.00
G01 X80.9665 Y27.0469 F200.00
G01 X81.0304 Y26.8126 F200.00
G01 X81.0650 Y26.5083 F200.00
G01 X81.0588 Y24.7864 F200.00
G01 X81.0114 Y24.5075 F200.00
G01 X80.9522 Y24.3191 F200.00
G01 X80.8721 Y24.1384 F200.00
G01 X80.7075 Y23.8764 F200.00
G01 X80.5501 Y23.6948 F200.00
G01 X78.0952 Y21.2399 F200.00
G01 X77.9136 Y21.0825 F200.00
G01 X77.7498 Y20.9721 F200.00
G01 X77.5746 Y20.8808 F200.00
G01 X77.3903 Y20.8096 F200.00
G01 X77.0886 Y20.7408 F200.00
G01 X76.8489 Y20.7237 F200.00
G01 X73.1543 Y20.7237 F200.00
G01 X72.9146 Y20.7408 F200.00
G01 X72.7207 Y20.7786 F200.00
G01 X72.5323 Y20.8378 F200.00
G01 X72.2534 Y20.9721 F200.00
G01 X72.0227 Y21.1358 F200.00
G01 X71.5693 Y21.5787 F200.00
G01 X71.2356 Y21.2556 F200.00
G01 X71.0685 Y21.1313 F200.00
G01 X70.9067 Y21.0377 F200.00
G01 X70.7260 Y20.9576 F200.00
G01 X70.5376 Y20.8984 F200.00
G01 X70.3437 Y20.8606 F200.00
G01 X70.1467 Y20.8447 F200.00
G01 X51.0132 Y20.8435 F200.00
G01 X51.1704 Y20.5167 F200.00
G01 X51.2375 Y20.3012 F200.00
G01 X51.2800 Y20.0797 F200.00
G01 X51.2974 Y19.8547 F200.00
G01 X51.2896 Y19.6292 F200.00
G01 X51.2534 Y19.3892 F200.00
G01 X51.1704 Y19.1073 F200.00
G01 X51.0797 Y18.9008 F200.00
G01 X50.8852 Y18.5913 F200.00
G01 X50.7385 Y18.4199 F200.00
G01 X50.5735 Y18.2660 F200.00
G01 X50.3836 Y18.1255 F200.00
G01 X50.1202 Y17.9812 F200.00
G01 X49.9100 Y17.8993 F200.00
G01 X49.6919 Y17.8415 F200.00
G01 X49.4688 Y17.8084 F200.00
G01 X44.2672 Y17.8084 F200.00
G01 X44.0272 Y17.8446 F200.00
G01 X43.7453 Y17.9276 F200.00
G01 X43.4160 Y18.0861 F200.00
G01 X43.1625 Y18.2660 F200.00
G01 X40.4869 Y20.9289 F200.00
G01 X40.3640 Y21.0645 F200.00
G01 X40.2235 Y21.2544 F200.00
G01 X40.0792 Y21.5178 F200.00
G01 X39.9585 Y21.8628 F200.00
G01 X39.9160 Y22.0843 F200.00
G01 X39.8986 Y22.3093 F200.00
G01 X39.8974 Y25.6695 F200.00
G01 X39.3381 Y25.6695 F200.00
G01 X38.3303 Y24.6617 F200.00
G01 X38.1487 Y24.5043 F200.00
G01 X37.9849 Y24.3939 F200.00
G01 X37.8097 Y24.3026 F200.00
G01 X37.6254 Y24.2314 F200.00
G01 X37.4343 Y24.1814 F200.00
G01 X37.0840 Y24.1455 F200.00
G01 X32.5120 Y24.1455 F200.00
G01 X32.1646 Y24.1809 F200.00
G01 X36.7197 Y19.6258 F200.00
G01 X37.0145 Y19.5157 F200.00
G01 X37.2346 Y19.3990 F200.00
G01 X37.4442 Y19.2562 F200.00
G01 X37.6364 Y19.0908 F200.00
G01 X37.8622 Y18.8382 F200.00
G01 X38.0050 Y18.6286 F200.00
G01 X38.1234 Y18.4044 F200.00
G01 X38.2318 Y18.1137 F200.00
G01 X42.7705 Y13.5750 F200.00
G01 X54.6895 Y13.5750 F200.00
G01 X60.5613 Y19.4451 F200.00
G01 X60.7954 Y19.6479 F200.00
G01 X61.0508 Y19.8232 F200.00
G01 X61.3242 Y19.9688 F200.00
G01 X61.6122 Y20.0829 F200.00
G01 X61.8278 Y20.1451 F200.00
G01 X62.1323 Y20.2017 F200.00
G01 X62.4840 Y20.2250 F200.00
G01 X77.7855 Y20.2250 F200.00
G01 X81.5650 Y24.0045 F200.00
G01 X81.5650 Y28.6220 F200.00
G00 Z1.0000
G00 X61.1985 Y44.3593
G01 F100.00
G01 Z-0.1000
G01 F200.00
G01 X61.3647 Y44.5533 F200.00
G01 X62.5469 Y45.7355 F200.00
G01 X61.1177 Y45.7355 F200.00
G01 X61.1626 Y45.5623 F200.00
G01 X61.1910 Y45.3667 F200.00
G01 X61.1985 Y44.3593 F200.00
G00 Z1.0000
G00 X47.6568 Y36.0564
G01 F100.00
G01 Z-0.1000
G01 F200.00
G01 X43.4099 Y40.3033 F200.00
G01 X43.1612 Y40.2225 F200.00
G01 X42.9397 Y40.1800 F200.00
G01 X42.4858 Y40.1614 F200.00
G01 X42.7207 Y40.0117 F200.00
G01 X42.9023 Y39.8543 F200.00
G01 X45.5464 Y37.1996 F200.00
G01 X45.7101 Y36.9689 F200.00
G01 X45.8444 Y36.6900 F200.00
G01 X45.9226 Y36.4183 F200.00
G01 X45.9585 Y36.0564 F200.00
G01 X47.6568 Y36.0564 F200.00
G00 Z1.0000
G00 X46.4304 Y36.5644
G01 F100.00
G01 Z-0.1000
G01 F200.00
G01 X46.4034 Y36.5914 F200.00
G01 X46.4095 Y36.5644 F200.00
G01 X46.4304 Y36.5644 F200.00
G00 Z1.0000
G00 X43.5749 Y32.8697
G01 F100.00
G01 Z-0.1000
G01 F200.00
G01 X43.4188 Y32.9206 F200.00
G01 X43.4753 Y32.6312 F200.00
G01 X43.4931 Y32.3906 F200.00
G01 X43.7050 Y32.4433 F200.00
G01 X43.9848 Y32.4828 F200.00
G01 X45.3680 Y32.4926 F200.00
G01 X45.6216 Y32.4763 F200.00
G01 X45.6805 Y32.5236 F200.00
G01 X44.7040 Y32.5236 F200.00
G01 X44.4073 Y32.5463 F200.00
G01 X44.1854 Y32.5921 F200.00
G01 X43.9702 Y32.6624 F200.00
G01 X43.7641 Y32.7564 F200.00
G01 X43.5749 Y32.8697 F200.00
G00 Z1.0000
G00 X47.5135 Y27.3051
G01 F100.00
G01 Z-0.1000
G01 F200.00
G01 X47.5135 Y28.0297 F200.00
G01 X47.3604 Y28.1592 F200.00
G01 X47.0921 Y28.4255 F200.00
G01 X46.6520 Y28.4255 F200.00
G01 X46.5051 Y28.3134 F200.00
G01 X47.5135 Y27.3051 F200.00
G00 Z1.0000
G00 X51.0385 Y27.1705
G01 F100.00
G01 Z-0.1000
G01 F200.00
G01 X51.3824 Y27.2976 F200.00
G01 X51.6613 Y27.3450 F200.00
G01 X53.8558 Y27.3525 F200.00
G01 X53.7706 Y27.7003 F200.00
G01 X53.7547 Y27.9827 F200.00
G01 X53.7924 Y28.3071 F200.00
G01 X53.8394 Y28.4814 F200.00
G01 X53.9123 Y28.6698 F200.00
G01 X54.0474 Y28.9132 F200.00
G01 X54.1656 Y29.0716 F200.00
G01 X54.9059 Y29.8225 F200.00
G01 X54.7063 Y29.7694 F200.00
G01 X54.3987 Y29.7347 F200.00
G01 X54.1163 Y29.7506 F200.00
G01 X53.9224 Y29.7884 F200.00
G01 X53.6303 Y29.8906 F200.00
G01 X53.4551 Y29.9819 F200.00
G01 X53.2913 Y30.0923 F200.00
G01 X53.0860 Y30.2751 F200.00
G01 X52.8807 Y30.0923 F200.00
G01 X52.5813 Y29.9097 F200.00
G01 X52.6125 Y29.7515 F200.00
G01 X52.6319 Y29.4963 F200.00
G01 X52.5979 Y29.1551 F200.00
G01 X52.5236 Y28.8898 F200.00
G01 X52.4476 Y28.7131 F200.00
G01 X52.3528 Y28.5456 F200.00
G01 X52.2403 Y28.3896 F200.00
G01 X52.1114 Y28.2467 F200.00
G01 X51.9677 Y28.1187 F200.00
G01 X51.8109 Y28.0071 F200.00
G01 X51.6429 Y27.9133 F200.00
G01 X51.4657 Y27.8384 F200.00
G01 X51.0385 Y27.7111 F200.00
G01 X51.0385 Y27.1705 F200.00
G00 Z1.0000
G00 X52.4422 Y27.8605
G01 F100.00
G01 Z-0.1000
G01 F200.00
G01 X53.2480 Y27.8605 F200.00
G01 X53.2697 Y28.2648 F200.00
G01 X53.3513 Y28.6220 F200.00
G01 X53.5030 Y28.9884 F200.00
G01 X53.7146 Y29.3196 F200.00
G01 X53.4291 Y29.4241 F200.00
G01 X53.1370 Y29.5828 F200.00
G01 X53.1320 Y29.3179 F200.00
G01 X53.0944 Y29.0457 F200.00
G01 X53.0395 Y28.8316 F200.00
G01 X52.9541 Y28.5989 F200.00
G01 X52.8438 Y28.3769 F200.00
G01 X52.7100 Y28.1683 F200.00
G01 X52.4422 Y27.8605 F200.00
G00 Z1.0000
G00 X7.7474 Y42.7814
G01 F100.00
G01 Z-0.1000
G01 F200.00
G01 X7.5069 Y42.4828 F200.00
G01 X9.3212 Y42.4828 F200.00
G01 X9.3212 Y42.5601 F200.00
G01 X8.8900 Y42.5239 F200.00
G01 X8.6884 Y42.5324 F200.00
G01 X8.3503 Y42.5790 F200.00
G01 X8.0972 Y42.6445 F200.00
G01 X7.7474 Y42.7814 F200.00
G00 Z1.0000
G00 X3.9352 Y41.4172
G01 F100.00
G01 Z-0.1000
G01 F200.00
G01 X3.8026 Y41.4172 F200.00
G01 X3.3625 Y40.9772 F200.00
G01 X3.3625 Y40.8346 F200.00
G01 X3.5918 Y41.1115 F200.00
G01 X3.9352 Y41.4172 F200.00
G00 Z1.0000
G00 X-1.2723 Y69.4713
G01 F100.00
G01 Z-0.1000
G01 F200.00
G01 X-1.2737 Y47.9984 F200.00
G01 X-1.2263 Y47.7195 F200.00
G01 X-1.1241 Y47.4274 F200.00
G01 X-0.9934 Y47.1886 F200.00
G01 X-0.8691 Y47.0215 F200.00
G01 X-0.6503 Y46.8027 F200.00
G01 X-0.4196 Y46.6390 F200.00
G01 X-0.1407 Y46.5047 F200.00
G01 X0.1142 Y46.4295 F200.00
G01 X0.4813 Y46.3906 F200.00
G01 X0.8339 Y46.4269 F200.00
G01 X1.1073 Y46.5063 F200.00
G01 X1.5758 Y46.7252 F200.00
G01 X1.8327 Y46.8197 F200.00
G01 X2.0978 Y46.8882 F200.00
G01 X2.5004 Y46.9521 F200.00
G01 X2.7085 Y47.0033 F200.00
G01 X2.9088 Y47.0793 F200.00
G01 X3.0897 Y47.1735 F200.00
G01 X3.5547 Y47.5082 F200.00
G01 X3.8124 Y47.6600 F200.00
G01 X4.0851 Y47.7829 F200.00
G01 X4.3695 Y47.8755 F200.00
G01 X4.6622 Y47.9368 F200.00
G01 X4.9599 Y47.9661 F200.00
G01 X5.2590 Y47.9629 F200.00
G01 X5.5559 Y47.9273 F200.00
G01 X5.8473 Y47.8598 F200.00
G01 X6.1296 Y47.7610 F200.00
G01 X6.3996 Y47.6323 F200.00
G01 X6.7720 Y47.4036 F200.00
G01 X7.0479 Y47.2728 F200.00
G01 X7.2999 Y47.1995 F200.00
G01 X7.6619 Y47.1617 F200.00
G01 X7.9548 Y47.1872 F200.00
G01 X8.4009 Y47.3013 F200.00
G01 X9.0154 Y47.3853 F200.00
G01 X9.2928 Y47.4611 F200.00
G01 X9.4775 Y47.5403 F200.00
G01 X9.6519 Y47.6401 F200.00
G01 X9.8993 Y47.8346 F200.00
G01 X10.0375 Y47.9805 F200.00
G01 X10.1581 Y48.1411 F200.00
G01 X10.2952 Y48.3877 F200.00
G01 X10.3694 Y48.5804 F200.00
G01 X10.4381 Y48.8875 F200.00
G01 X10.4538 Y49.1251 F200.00
G01 X10.4341 Y49.3749 F200.00
G01 X10.3934 Y49.5716 F200.00
G01 X10.2854 Y49.8672 F200.00
G01 X10.1896 Y50.0439 F200.00
G01 X10.0743 Y50.2084 F200.00
G01 X9.9222 Y50.3783 F200.00
G01 X9.7915 Y50.4930 F200.00
G01 X9.5530 Y50.6537 F200.00
G01 X9.0995 Y50.8656 F200.00
G01 X8.8868 Y50.9905 F200.00
G01 X8.6891 Y51.1378 F200.00
G01 X8.5087 Y51.3059 F200.00
G01 X8.3477 Y51.4927 F200.00
G01 X8.2080 Y51.6960 F200.00
G01 X8.0914 Y51.9132 F200.00
G01 X7.9993 Y52.1420 F200.00
G01 X7.9326 Y52.3794 F200.00
G01 X7.8923 Y52.6227 F200.00
G01 X7.8762 Y52.9171 F200.00
G01 X7.8762 Y55.5433 F200.00
G01 X7.8906 Y55.8216 F200.00
G01 X7.9266 Y56.0518 F200.00
G01 X8.1177 Y56.8461 F200.00
G01 X8.1688 Y56.9687 F200.00
G01 X8.3085 Y57.1942 F200.00
G01 X8.4927 Y57.3852 F200.00
G01 X8.5989 Y57.4649 F200.00
G01 X9.0507 Y57.6959 F200.00
G01 X9.2753 Y57.8470 F200.00
G01 X9.4055 Y57.9603 F200.00
G01 X9.5447 Y58.1118 F200.00
G01 X9.7126 Y58.3559 F200.00
G01 X9.8272 Y58.5975 F200.00
G01 X9.8862 Y58.7808 F200.00
G01 X9.9884 Y59.3262 F200.00
G01 X10.0750 Y59.6219 F200.00
G01 X10.1940 Y59.9061 F200.00
G01 X10.3440 Y60.1752 F200.00
G01 X10.5230 Y60.4260 F200.00
G01 X10.7290 Y60.6551 F200.00
G01 X10.9592 Y60.8599 F200.00
G01 X11.2108 Y61.0377 F200.00
G01 X11.4808 Y61.1862 F200.00
G01 X11.7656 Y61.3038 F200.00
G01 X12.0617 Y61.3888 F200.00
G01 X12.3654 Y61.4402 F200.00
G01 X12.7224 Y61.4602 F200.00
G01 X76.0054 Y61.4602 F200.00
G01 X76.2524 Y61.4783 F200.00
G01 X76.5629 Y61.5515 F200.00
G01 X76.7920 Y61.6455 F200.00
G01 X77.2486 Y61.8732 F200.00
G01 X77.6364 Y62.0160 F200.00
G01 X78.0375 Y62.1153 F200.00
G01 X78.4471 Y62.1701 F200.00
G01 X78.8602 Y62.1796 F200.00
G01 X79.2719 Y62.1437 F200.00
G01 X79.6772 Y62.0629 F200.00
G01 X80.0711 Y61.9381 F200.00
G01 X80.4490 Y61.7708 F200.00
G01 X80.8063 Y61.5631 F200.00
G01 X81.1386 Y61.3175 F200.00
G01 X81.4420 Y61.0369 F200.00
G01 X81.7127 Y60.7247 F200.00
G01 X81.9476 Y60.3847 F200.00
G01 X82.1438 Y60.0210 F200.00
G01 X82.2988 Y59.6380 F200.00
G01 X82.4110 Y59.2403 F200.00
G01 X82.4788 Y58.8327 F200.00
G01 X82.5041 Y58.3716 F200.00
G01 X82.5041 Y53.8958 F200.00
G01 X82.4795 Y53.4412 F200.00
G01 X82.4135 Y53.0392 F200.00
G01 X82.3045 Y52.6467 F200.00
G01 X82.1537 Y52.2683 F200.00
G01 X81.9181 Y51.8239 F200.00
G01 X81.8193 Y51.5998 F200.00
G01 X81.7386 Y51.2949 F200.00
G01 X81.7132 Y51.0284 F200.00
G01 X81.7238 Y50.8067 F200.00
G01 X81.7861 Y50.4975 F200.00
G01 X81.8903 Y50.2287 F200.00
G01 X82.0529 Y49.9585 F200.00
G01 X82.2415 Y49.7405 F200.00
G01 X82.4855 Y49.5406 F200.00
G01 X82.7316 Y49.4009 F200.00
G01 X83.0335 Y49.2927 F200.00
G01 X83.2310 Y49.2534 F200.00
G01 X83.4317 Y49.2369 F200.00
G01 X84.2881 Y49.2357 F200.00
G01 X84.6224 Y49.2206 F200.00
G01 X84.9144 Y49.1807 F200.00
G01 X85.2016 Y49.1147 F200.00
G01 X85.7389 Y48.9495 F200.00
G01 X85.9513 Y48.9181 F200.00
G01 X86.1842 Y48.9130 F200.00
G01 X86.4910 Y48.9539 F200.00
G01 X86.7611 Y49.0376 F200.00
G01 X87.0069 Y49.1590 F200.00
G01 X87.2376 Y49.3227 F200.00
G01 X87.4564 Y49.5415 F200.00
G01 X87.6201 Y49.7722 F200.00
G01 X87.7544 Y50.0511 F200.00
G01 X87.8296 Y50.3060 F200.00
G01 X87.8685 Y50.6731 F200.00
G01 X87.8610 Y69.4713 F200.00
G01 X87.8136 Y69.7502 F200.00
G01 X87.7114 Y70.0423 F200.00
G01 X87.5807 Y70.2811 F200.00
G01 X87.4564 Y70.4482 F200.00
G01 X87.2376 Y70.6670 F200.00
G01 X87.0069 Y70.8307 F200.00
G01 X86.7280 Y70.9650 F200.00
G01 X86.4731 Y71.0402 F200.00
G01 X86.1060 Y71.0791 F200.00
G01 X0.4813 Y71.0791 F200.00
G01 X0.1310 Y71.0432 F200.00
G01 X-0.1407 Y70.9650 F200.00
G01 X-0.3214 Y70.8849 F200.00
G01 X-0.4832 Y70.7913 F200.00
G01 X-0.7339 Y70.5922 F200.00
G01 X-0.9224 Y70.3813 F200.00
G01 X-1.0328 Y70.2175 F200.00
G01 X-1.1224 Y70.0464 F200.00
G01 X-1.2263 Y69.7502 F200.00
G01 X-1.2723 Y69.4713 F200.00
G00 Z1.0000
M05
G00 Z1.0000
G00 Z5.0000
G00 X0.0 Y0.0

M02