(G-CODE GENERATED BY FLATCAM v8.918 - www.flatcam.org - Version Date: 2019/06/11)

(Name: Copper Bottom_iso_cnc)
(Type: G-code from Geometry)
(Units: MM)

(Created on Friday, 14 June 2019 at 19:18)

(TOOL DIAMETER: 0.45 mm)

(Feedrate: 200.0 mm/min)
(Feedrate_Z: 100.0 mm/min)
(Feedrate rapids 76.2 mm/min)

(Z_Cut: -0.1 mm)
(Z_Move: 1.0 mm)
(Z Toolchange: 25.4 mm)
(X,Y Toolchange: 0.0000, 0.0000 mm)
(Z Start: None mm)
(Z End: 50.8 mm)
(Steps per circle: 128)
(Postprocessor Geometry: grbl_11)

(X range:   -1.0360 ...   87.2335  mm)
(Y range:   -2.4310 ...   70.4441  mm)

(Spindle Speed: 500 RPM)


G21
G90
G94
G17

G01 F200.00
G00 Z1.0000

M03 S500
G00 X-0.6459 Y9.9953
G01 F100.00
G01 Z-0.1000
G01 F200.00
G01 X-0.6397 Y-1.4226 F200.00
G01 X-0.6162 Y-1.5613 F200.00
G01 X-0.5375 Y-1.7862 F200.00
G01 X-0.4694 Y-1.9093 F200.00
G01 X-0.3209 Y-2.0956 F200.00
G01 X-0.2160 Y-2.1893 F200.00
G01 X-0.0142 Y-2.3161 F200.00
G01 X0.1157 Y-2.3699 F200.00
G01 X0.3480 Y-2.4229 F200.00
G01 X13.7748 Y-2.4310 F200.00
G01 X14.0147 Y-2.4050 F200.00
G01 X14.2229 Y-2.3368 F200.00
G01 X14.4306 Y-2.4045 F200.00
G01 X14.6732 Y-2.4310 F200.00
G01 X17.8388 Y-2.4310 F200.00
G01 X18.0787 Y-2.4050 F200.00
G01 X18.2880 Y-2.3364 F200.00
G01 X18.4946 Y-2.4045 F200.00
G01 X18.7372 Y-2.4310 F200.00
G01 X77.2500 Y-2.4310 F200.00
G01 X77.3833 Y-2.4229 F200.00
G01 X77.6156 Y-2.3699 F200.00
G01 X77.8543 Y-2.2552 F200.00
G01 X78.0473 Y-2.1008 F200.00
G01 X78.7300 Y-1.4180 F200.00
G01 X79.5127 Y-2.1893 F200.00
G01 X79.7273 Y-2.3223 F200.00
G01 X79.8444 Y-2.3699 F200.00
G01 X80.0767 Y-2.4229 F200.00
G01 X86.1060 Y-2.4310 F200.00
G01 X86.3499 Y-2.4041 F200.00
G01 X86.4850 Y-2.3652 F200.00
G01 X86.6997 Y-2.2618 F200.00
G01 X86.8144 Y-2.1804 F200.00
G01 X86.9918 Y-2.0008 F200.00
G01 X87.1186 Y-1.7990 F200.00
G01 X87.1724 Y-1.6691 F200.00
G01 X87.2254 Y-1.4368 F200.00
G01 X87.2333 Y17.5398 F200.00
G01 X87.2254 Y17.6660 F200.00
G01 X87.1724 Y17.8983 F200.00
G01 X87.1186 Y18.0282 F200.00
G01 X86.9918 Y18.2300 F200.00
G01 X86.8033 Y18.4185 F200.00
G01 X86.6015 Y18.5453 F200.00
G01 X86.4850 Y18.5944 F200.00
G01 X86.2393 Y18.6521 F200.00
G01 X85.9727 Y18.6521 F200.00
G01 X85.7404 Y18.5991 F200.00
G01 X85.6233 Y18.5515 F200.00
G01 X85.3976 Y18.4096 F200.00
G01 X81.9621 Y14.9834 F200.00
G01 X81.8087 Y14.7919 F200.00
G01 X81.6977 Y14.5651 F200.00
G01 X81.6384 Y14.3052 F200.00
G01 X81.6319 Y11.0636 F200.00
G01 X81.6120 Y10.7084 F200.00
G01 X81.5577 Y10.3889 F200.00
G01 X81.4679 Y10.0775 F200.00
G01 X81.3439 Y9.7780 F200.00
G01 X81.1871 Y9.4944 F200.00
G01 X80.9996 Y9.2300 F200.00
G01 X80.7836 Y8.9884 F200.00
G01 X80.5420 Y8.7724 F200.00
G01 X80.2776 Y8.5849 F200.00
G01 X79.9940 Y8.4281 F200.00
G01 X79.6945 Y8.3041 F200.00
G01 X79.3831 Y8.2143 F200.00
G01 X79.0636 Y8.1600 F200.00
G01 X78.7400 Y8.1419 F200.00
G01 X78.4164 Y8.1600 F200.00
G01 X78.0969 Y8.2143 F200.00
G01 X77.7855 Y8.3041 F200.00
G01 X77.4860 Y8.4281 F200.00
G01 X77.2024 Y8.5849 F200.00
G01 X76.9380 Y8.7724 F200.00
G01 X76.6964 Y8.9884 F200.00
G01 X76.4804 Y9.2300 F200.00
G01 X76.2929 Y9.4944 F200.00
G01 X76.1361 Y9.7780 F200.00
G01 X76.0121 Y10.0775 F200.00
G01 X75.9223 Y10.3889 F200.00
G01 X75.8680 Y10.7084 F200.00
G01 X75.8481 Y11.0636 F200.00
G01 X75.8479 Y12.4449 F200.00
G01 X75.8400 Y12.5711 F200.00
G01 X75.7870 Y12.8034 F200.00
G01 X75.6723 Y13.0421 F200.00
G01 X75.5228 Y13.2299 F200.00
G01 X75.3264 Y13.3885 F200.00
G01 X75.0996 Y13.4995 F200.00
G01 X74.9645 Y13.5384 F200.00
G01 X74.7206 Y13.5653 F200.00
G01 X64.5580 Y13.5651 F200.00
G01 X64.3212 Y13.5384 F200.00
G01 X64.0824 Y13.4566 F200.00
G01 X63.9593 Y13.3885 F200.00
G01 X63.7678 Y13.2351 F200.00
G01 X63.0731 Y12.5404 F200.00
G01 X62.9124 Y12.3373 F200.00
G01 X62.8090 Y12.1230 F200.00
G01 X62.7706 Y11.9910 F200.00
G01 X62.7431 Y11.7519 F200.00
G01 X62.7553 Y11.5846 F200.00
G01 X62.3236 Y11.1528 F200.00
G01 X62.0459 Y11.1587 F200.00
G01 X61.7994 Y11.1041 F200.00
G01 X61.5607 Y10.9894 F200.00
G01 X61.3729 Y10.8399 F200.00
G01 X59.1061 Y8.5731 F200.00
G01 X59.0225 Y8.4783 F200.00
G01 X58.8957 Y8.2765 F200.00
G01 X58.8419 Y8.1466 F200.00
G01 X58.7963 Y7.9577 F200.00
G01 X58.2941 Y7.4556 F200.00
G01 X58.0365 Y7.4648 F200.00
G01 X57.7859 Y7.4158 F200.00
G01 X57.2751 Y7.1929 F200.00
G01 X56.9263 Y7.0728 F200.00
G01 X56.5677 Y6.9863 F200.00
G01 X56.2025 Y6.9340 F200.00
G01 X55.8073 Y6.9153 F200.00
G01 X41.6508 Y6.9153 F200.00
G01 X41.2836 Y6.9315 F200.00
G01 X40.9441 Y6.9765 F200.00
G01 X40.4423 Y7.0827 F200.00
G01 X40.2861 Y7.0893 F200.00
G01 X40.1582 Y7.1860 F200.00
G01 X39.7046 Y7.4233 F200.00
G01 X39.4082 Y7.6095 F200.00
G01 X39.1297 Y7.8214 F200.00
G01 X38.8527 Y8.0746 F200.00
G01 X26.9493 Y19.9780 F200.00
G01 X26.7256 Y20.1512 F200.00
G01 X26.1671 Y20.4079 F200.00
G01 X25.7120 Y20.6866 F200.00
G01 X25.7120 Y23.1880 F200.00
G01 X25.6992 Y23.4192 F200.00
G01 X25.6600 Y23.6545 F200.00
G01 X25.5900 Y23.8975 F200.00
G01 X25.5042 Y24.1048 F200.00
G01 X25.3894 Y24.3140 F200.00
G01 X25.2431 Y24.5202 F200.00
G01 X24.9880 Y24.7830 F200.00
G01 X24.9880 Y35.5521 F200.00
G01 X25.1556 Y35.7435 F200.00
G01 X25.4732 Y36.0342 F200.00
G01 X25.8211 Y36.2881 F200.00
G01 X26.1360 Y36.4684 F200.00
G01 X29.4014 Y36.4684 F200.00
G01 X31.1344 Y34.7354 F200.00
G01 X31.1344 Y32.2600 F200.00
G01 X31.1440 Y32.0987 F200.00
G01 X31.2095 Y31.8118 F200.00
G01 X31.2741 Y31.6559 F200.00
G01 X31.4395 Y31.3956 F200.00
G01 X31.6150 Y31.2090 F200.00
G01 X31.8465 Y31.0246 F200.00
G01 X31.8978 Y30.8023 F200.00
G01 X31.9454 Y30.6852 F200.00
G01 X32.0784 Y30.4706 F200.00
G01 X32.6130 Y29.9246 F200.00
G01 X32.6429 Y29.6696 F200.00
G01 X32.7278 Y29.4319 F200.00
G01 X32.8635 Y29.2190 F200.00
G01 X33.0320 Y29.0505 F200.00
G01 X33.1346 Y28.9767 F200.00
G01 X33.3614 Y28.8657 F200.00
G01 X33.6213 Y28.8064 F200.00
G01 X34.9080 Y28.7999 F200.00
G01 X35.1574 Y28.8280 F200.00
G01 X35.3883 Y28.9075 F200.00
G01 X35.5966 Y29.0348 F200.00
G01 X35.7726 Y29.2040 F200.00
G01 X35.8458 Y29.3018 F200.00
G01 X35.9349 Y29.4653 F200.00
G01 X36.1384 Y29.4510 F200.00
G01 X36.2661 Y29.4621 F200.00
G01 X36.5201 Y29.5293 F200.00
G01 X36.6517 Y29.5913 F200.00
G01 X37.0734 Y29.8810 F200.00
G01 X37.2304 Y29.9676 F200.00
G01 X37.2400 Y29.7707 F200.00
G01 X37.3102 Y29.4703 F200.00
G01 X37.4445 Y29.1946 F200.00
G01 X37.6290 Y28.9630 F200.00
G01 X37.7548 Y28.8506 F200.00
G01 X38.0161 Y28.6882 F200.00
G01 X38.2946 Y28.5907 F200.00
G01 X38.5588 Y28.5569 F200.00
G01 X38.3641 Y28.5326 F200.00
G01 X38.2290 Y28.4937 F200.00
G01 X38.1125 Y28.4446 F200.00
G01 X37.9107 Y28.3178 F200.00
G01 X36.6170 Y27.0355 F200.00
G01 X32.5120 Y27.0355 F200.00
G01 X32.2542 Y27.0055 F200.00
G01 X32.0165 Y26.9206 F200.00
G01 X31.8036 Y26.7849 F200.00
G01 X31.6351 Y26.6164 F200.00
G01 X31.5613 Y26.5138 F200.00
G01 X31.4503 Y26.2870 F200.00
G01 X31.3926 Y26.0413 F200.00
G01 X31.3910 Y25.7889 F200.00
G01 X31.4456 Y25.5424 F200.00
G01 X31.5603 Y25.3037 F200.00
G01 X31.7098 Y25.1159 F200.00
G01 X31.8147 Y25.0222 F200.00
G01 X32.0286 Y24.8895 F200.00
G01 X32.2542 Y24.8105 F200.00
G01 X32.3929 Y24.7870 F200.00
G01 X37.2173 Y24.7886 F200.00
G01 X37.4496 Y24.8416 F200.00
G01 X37.5667 Y24.8892 F200.00
G01 X37.7924 Y25.0311 F200.00
G01 X39.0750 Y26.3045 F200.00
G01 X40.5324 Y26.3045 F200.00
G01 X40.5326 Y22.3449 F200.00
G01 X40.5687 Y22.0386 F200.00
G01 X40.6659 Y21.7608 F200.00
G01 X40.7475 Y21.6131 F200.00
G01 X40.9359 Y21.3779 F200.00
G01 X43.4759 Y18.8379 F200.00
G01 X43.7232 Y18.6419 F200.00
G01 X44.0018 Y18.5095 F200.00
G01 X44.2887 Y18.4440 F200.00
G01 X44.4500 Y18.4344 F200.00
G01 X49.4331 Y18.4424 F200.00
G01 X49.7342 Y18.5095 F200.00
G01 X50.0249 Y18.6495 F200.00
G01 X50.2650 Y18.8430 F200.00
G01 X50.3674 Y18.9588 F200.00
G01 X50.5239 Y19.2079 F200.00
G01 X50.6273 Y19.4986 F200.00
G01 X50.6556 Y19.6649 F200.00
G01 X50.6556 Y19.9591 F200.00
G01 X50.5885 Y20.2602 F200.00
G01 X50.5239 Y20.4161 F200.00
G01 X50.3585 Y20.6764 F200.00
G01 X50.1504 Y20.8845 F200.00
G01 X49.8901 Y21.0499 F200.00
G01 X49.5884 Y21.1560 F200.00
G01 X49.2931 Y21.1894 F200.00
G01 X45.0206 Y21.1896 F200.00
G01 X43.2876 Y22.9226 F200.00
G01 X43.2876 Y26.3045 F200.00
G01 X44.4270 Y26.3045 F200.00
G01 X46.0276 Y24.7131 F200.00
G01 X46.1423 Y24.6317 F200.00
G01 X46.3570 Y24.5283 F200.00
G01 X46.4921 Y24.4894 F200.00
G01 X46.7289 Y24.4627 F200.00
G01 X46.9799 Y24.4894 F200.00
G01 X47.2315 Y24.5774 F200.00
G01 X47.4333 Y24.7042 F200.00
G01 X47.5281 Y24.7878 F200.00
G01 X47.6943 Y24.9963 F200.00
G01 X47.7548 Y25.1073 F200.00
G01 X47.8335 Y25.3322 F200.00
G01 X47.8633 Y25.5829 F200.00
G01 X47.8366 Y25.8339 F200.00
G01 X47.7486 Y26.0855 F200.00
G01 X47.6218 Y26.2873 F200.00
G01 X47.5333 Y26.3873 F200.00
G01 X45.6861 Y28.2342 F200.00
G01 X45.5913 Y28.3178 F200.00
G01 X45.3895 Y28.4446 F200.00
G01 X45.1518 Y28.5295 F200.00
G01 X44.8940 Y28.5595 F200.00
G01 X38.7028 Y28.5595 F200.00
G01 X38.9076 Y28.5875 F200.00
G01 X39.0697 Y28.6342 F200.00
G01 X39.2121 Y28.6941 F200.00
G01 X39.3962 Y28.8045 F200.00
G01 X43.4651 Y28.8045 F200.00
G01 X43.7478 Y28.6695 F200.00
G01 X44.0489 Y28.6024 F200.00
G01 X45.5151 Y28.6024 F200.00
G01 X45.6814 Y28.6307 F200.00
G01 X45.9721 Y28.7341 F200.00
G01 X46.2212 Y28.8906 F200.00
G01 X46.3984 Y29.0605 F200.00
G01 X47.3552 Y29.0605 F200.00
G01 X47.8708 Y28.5552 F200.00
G01 X47.9931 Y28.4702 F200.00
G01 X48.1485 Y28.3940 F200.00
G01 X48.1485 Y22.6060 F200.00
G01 X48.1754 Y22.3621 F200.00
G01 X48.2634 Y22.1105 F200.00
G01 X48.3902 Y21.9087 F200.00
G01 X48.4839 Y21.8038 F200.00
G01 X48.5787 Y21.7202 F200.00
G01 X48.7805 Y21.5934 F200.00
G01 X49.0321 Y21.5054 F200.00
G01 X49.2760 Y21.4785 F200.00
G01 X70.1111 Y21.4787 F200.00
G01 X70.2373 Y21.4866 F200.00
G01 X70.4696 Y21.5396 F200.00
G01 X70.7083 Y21.6543 F200.00
G01 X70.9013 Y21.8087 F200.00
G01 X71.5946 Y22.5021 F200.00
G01 X71.7659 Y22.2800 F200.00
G01 X72.4570 Y21.6004 F200.00
G01 X72.6716 Y21.4674 F200.00
G01 X72.7887 Y21.4198 F200.00
G01 X73.0210 Y21.3668 F200.00
G01 X76.8560 Y21.3589 F200.00
G01 X76.9822 Y21.3668 F200.00
G01 X77.2145 Y21.4198 F200.00
G01 X77.3444 Y21.4736 F200.00
G01 X77.5462 Y21.6004 F200.00
G01 X80.1011 Y24.1438 F200.00
G01 X80.2545 Y24.3353 F200.00
G01 X80.3223 Y24.4577 F200.00
G01 X80.4039 Y24.6944 F200.00
G01 X80.4311 Y24.9340 F200.00
G01 X80.4313 Y26.4643 F200.00
G01 X80.4030 Y26.7133 F200.00
G01 X80.3154 Y26.9597 F200.00
G01 X80.1896 Y27.1596 F200.00
G01 X80.1060 Y27.2544 F200.00
G01 X79.9036 Y27.4170 F200.00
G01 X79.6445 Y27.5493 F200.00
G01 X79.7993 Y27.6103 F200.00
G01 X80.0122 Y27.7460 F200.00
G01 X80.1896 Y27.9256 F200.00
G01 X80.3223 Y28.1395 F200.00
G01 X80.4039 Y28.3762 F200.00
G01 X80.4311 Y28.6158 F200.00
G01 X80.4232 Y28.8772 F200.00
G01 X80.3745 Y29.0946 F200.00
G01 X80.4600 Y29.0946 F200.00
G01 X80.5717 Y29.0626 F200.00
G01 X80.7649 Y29.0408 F200.00
G01 X80.9862 Y29.0657 F200.00
G01 X81.1696 Y29.1299 F200.00
G01 X81.2720 Y29.1863 F200.00
G01 X81.4254 Y29.3085 F200.00
G01 X81.5045 Y29.3970 F200.00
G01 X81.6138 Y29.5737 F200.00
G01 X81.6814 Y29.7717 F200.00
G01 X81.6981 Y29.8748 F200.00
G01 X81.6981 Y30.0692 F200.00
G01 X81.6533 Y30.2728 F200.00
G01 X81.5577 Y30.4720 F200.00
G01 X81.4956 Y30.5582 F200.00
G01 X81.3582 Y30.6956 F200.00
G01 X81.2614 Y30.7643 F200.00
G01 X81.0863 Y30.8486 F200.00
G01 X80.8692 Y30.8981 F200.00
G01 X80.6607 Y30.8965 F200.00
G01 X80.4601 Y30.8494 F200.00
G01 X73.4736 Y30.8494 F200.00
G01 X73.4640 Y35.1833 F200.00
G01 X73.4373 Y35.3354 F200.00
G01 X73.3401 Y35.6132 F200.00
G01 X73.1774 Y35.8752 F200.00
G01 X72.9604 Y36.0945 F200.00
G01 X72.6879 Y36.2658 F200.00
G01 X72.4094 Y36.3633 F200.00
G01 X72.2431 Y36.3916 F200.00
G01 X71.9489 Y36.3916 F200.00
G01 X71.6478 Y36.3245 F200.00
G01 X71.4919 Y36.2599 F200.00
G01 X71.2428 Y36.1034 F200.00
G01 X71.1170 Y35.9910 F200.00
G01 X70.9259 Y35.7488 F200.00
G01 X70.7982 Y35.4837 F200.00
G01 X70.7547 Y35.3354 F200.00
G01 X70.7186 Y35.0291 F200.00
G01 X70.7184 Y31.8074 F200.00
G01 X70.4676 Y31.4949 F200.00
G01 X70.2782 Y31.2893 F200.00
G01 X69.2506 Y30.2526 F200.00
G01 X69.1150 Y30.0397 F200.00
G01 X69.0301 Y29.8021 F200.00
G01 X69.0000 Y29.5443 F200.00
G01 X69.0300 Y29.2866 F200.00
G01 X69.1086 Y29.0618 F200.00
G01 X69.1690 Y28.9508 F200.00
G01 X69.3350 Y28.7423 F200.00
G01 X69.5212 Y28.5937 F200.00
G01 X69.6435 Y28.5259 F200.00
G01 X69.7612 Y28.4779 F200.00
G01 X70.1755 Y28.3764 F200.00
G01 X70.4201 Y28.2970 F200.00
G01 X70.7184 Y28.1631 F200.00
G01 X70.7184 Y24.8149 F200.00
G01 X69.6370 Y23.7335 F200.00
G01 X50.4035 Y23.7335 F200.00
G01 X50.4035 Y28.2787 F200.00
G01 X50.6133 Y28.2742 F200.00
G01 X50.7754 Y28.2980 F200.00
G01 X51.1655 Y28.4086 F200.00
G01 X51.3820 Y28.4922 F200.00
G01 X51.4999 Y28.5618 F200.00
G01 X51.6779 Y28.7107 F200.00
G01 X51.7672 Y28.8146 F200.00
G01 X51.8878 Y29.0129 F200.00
G01 X51.9389 Y29.1399 F200.00
G01 X51.9892 Y29.3665 F200.00
G01 X51.9877 Y29.6382 F200.00
G01 X51.9223 Y29.8990 F200.00
G01 X51.6969 Y30.3685 F200.00
G01 X51.9493 Y30.3766 F200.00
G01 X52.1816 Y30.4296 F200.00
G01 X52.3115 Y30.4834 F200.00
G01 X52.5133 Y30.6102 F200.00
G01 X52.6182 Y30.7039 F200.00
G01 X52.7667 Y30.8902 F200.00
G01 X52.8348 Y31.0133 F200.00
G01 X52.9161 Y31.2493 F200.00
G01 X52.9433 Y31.5031 F200.00
G01 X52.9354 Y31.6293 F200.00
G01 X52.8824 Y31.8616 F200.00
G01 X52.7667 Y32.1018 F200.00
G01 X52.6929 Y32.2044 F200.00
G01 X52.5244 Y32.3729 F200.00
G01 X52.2987 Y32.5148 F200.00
G01 X52.0738 Y32.5935 F200.00
G01 X51.9351 Y32.6170 F200.00
G01 X49.1427 Y32.6154 F200.00
G01 X48.9104 Y32.5624 F200.00
G01 X48.7933 Y32.5148 F200.00
G01 X48.5787 Y32.3818 F200.00
G01 X48.3902 Y32.1933 F200.00
G01 X48.3177 Y32.0897 F200.00
G01 X48.2261 Y31.9034 F200.00
G01 X47.1242 Y31.9034 F200.00
G01 X46.8628 Y31.8725 F200.00
G01 X46.6221 Y31.7852 F200.00
G01 X46.4185 Y31.6550 F200.00
G01 X46.2383 Y31.4730 F200.00
G01 X46.1360 Y31.3155 F200.00
G01 X45.6723 Y31.3155 F200.00
G01 X45.3680 Y31.3496 F200.00
G01 X44.0489 Y31.3416 F200.00
G01 X43.7343 Y31.2698 F200.00
G01 X43.5919 Y31.2099 F200.00
G01 X43.3514 Y31.0595 F200.00
G01 X41.7533 Y31.0595 F200.00
G01 X41.9615 Y31.4439 F200.00
G01 X42.1799 Y31.7496 F200.00
G01 X42.2626 Y31.9090 F200.00
G01 X42.3053 Y32.0292 F200.00
G01 X42.3442 Y32.2236 F200.00
G01 X42.3381 Y32.5159 F200.00
G01 X42.2865 Y32.7220 F200.00
G01 X42.2129 Y32.8870 F200.00
G01 X42.1029 Y33.0520 F200.00
G01 X41.8546 Y33.3578 F200.00
G01 X41.6798 Y33.6302 F200.00
G01 X41.5366 Y33.9204 F200.00
G01 X41.4268 Y34.2249 F200.00
G01 X41.2990 Y34.7268 F200.00
G01 X41.2500 Y34.8409 F200.00
G01 X41.1247 Y35.0386 F200.00
G01 X40.9760 Y35.1981 F200.00
G01 X40.7968 Y35.3421 F200.00
G01 X40.6790 Y35.4088 F200.00
G01 X40.4630 Y35.4883 F200.00
G01 X40.2115 Y35.5232 F200.00
G01 X39.7128 Y35.4893 F200.00
G01 X39.3897 Y35.4969 F200.00
G01 X39.0691 Y35.5378 F200.00
G01 X38.7545 Y35.6117 F200.00
G01 X38.4492 Y35.7177 F200.00
G01 X38.1565 Y35.8547 F200.00
G01 X37.8795 Y36.0213 F200.00
G01 X37.6213 Y36.2157 F200.00
G01 X37.3845 Y36.4357 F200.00
G01 X37.1718 Y36.6790 F200.00
G01 X36.9854 Y36.9431 F200.00
G01 X36.8273 Y37.2250 F200.00
G01 X36.6730 Y37.5821 F200.00
G01 X36.5494 Y37.7960 F200.00
G01 X36.3711 Y37.9875 F200.00
G01 X36.1533 Y38.1327 F200.00
G01 X35.8967 Y38.2266 F200.00
G01 X35.6483 Y38.2559 F200.00
G01 X33.7404 Y38.2561 F200.00
G01 X33.4840 Y38.2264 F200.00
G01 X33.2601 Y38.1485 F200.00
G01 X33.1389 Y38.0821 F200.00
G01 X33.0352 Y38.0081 F200.00
G01 X32.8669 Y37.8413 F200.00
G01 X32.7854 Y37.7276 F200.00
G01 X32.6813 Y37.5147 F200.00
G01 X32.6416 Y37.3806 F200.00
G01 X32.6137 Y37.1526 F200.00
G01 X32.3814 Y37.3849 F200.00
G01 X32.3403 Y37.5214 F200.00
G01 X32.2419 Y37.7223 F200.00
G01 X32.0652 Y37.9410 F200.00
G01 X31.8894 Y38.0793 F200.00
G01 X31.7791 Y38.1412 F200.00
G01 X31.5398 Y38.2264 F200.00
G01 X30.8364 Y38.9185 F200.00
G01 X30.6988 Y39.0161 F200.00
G01 X30.4337 Y39.1438 F200.00
G01 X30.2716 Y39.1905 F200.00
G01 X29.9720 Y39.2236 F200.00
G01 X27.0087 Y39.2236 F200.00
G01 X26.8184 Y39.4944 F200.00
G01 X26.6606 Y39.7789 F200.00
G01 X26.5333 Y40.0783 F200.00
G01 X26.4378 Y40.3893 F200.00
G01 X26.3753 Y40.7085 F200.00
G01 X26.3463 Y41.0325 F200.00
G01 X26.3512 Y41.3578 F200.00
G01 X26.3900 Y41.6808 F200.00
G01 X26.4622 Y41.9980 F200.00
G01 X26.5670 Y42.3059 F200.00
G01 X26.7033 Y42.6013 F200.00
G01 X26.9557 Y43.0385 F200.00
G01 X27.0351 Y43.2814 F200.00
G01 X27.0573 Y43.5503 F200.00
G01 X27.0225 Y43.7890 F200.00
G01 X26.9837 Y43.9109 F200.00
G01 X26.9245 Y44.0403 F200.00
G01 X26.7885 Y44.2395 F200.00
G01 X26.6018 Y44.4139 F200.00
G01 X26.4822 Y44.4912 F200.00
G01 X26.2466 Y44.5902 F200.00
G01 X25.7503 Y44.6856 F200.00
G01 X25.4416 Y44.7771 F200.00
G01 X25.1451 Y44.9023 F200.00
G01 X24.9880 Y44.9904 F200.00
G01 X24.9880 Y48.5140 F200.00
G01 X24.9752 Y48.7452 F200.00
G01 X24.9473 Y48.9144 F200.00
G01 X59.4360 Y48.9144 F200.00
G01 X59.7356 Y48.9475 F200.00
G01 X60.0272 Y49.0479 F200.00
G01 X60.2892 Y49.2106 F200.00
G01 X60.4150 Y49.3230 F200.00
G01 X60.6061 Y49.5652 F200.00
G01 X60.7338 Y49.8303 F200.00
G01 X60.8040 Y50.1307 F200.00
G01 X60.8083 Y50.3899 F200.00
G01 X69.5695 Y50.3899 F200.00
G01 X69.8673 Y50.3759 F200.00
G01 X70.1361 Y50.3377 F200.00
G01 X70.4002 Y50.2745 F200.00
G01 X70.6572 Y50.1868 F200.00
G01 X71.0631 Y50.0111 F200.00
G01 X71.1965 Y49.9760 F200.00
G01 X71.4361 Y49.9545 F200.00
G01 X71.6789 Y49.9856 F200.00
G01 X71.9133 Y50.0701 F200.00
G01 X72.1234 Y50.2042 F200.00
G01 X72.2990 Y50.3810 F200.00
G01 X72.4314 Y50.5922 F200.00
G01 X72.4838 Y50.7207 F200.00
G01 X72.5355 Y50.9502 F200.00
G01 X72.5573 Y51.5646 F200.00
G01 X72.5951 Y51.8211 F200.00
G01 X72.6580 Y52.0727 F200.00
G01 X72.7452 Y52.3169 F200.00
G01 X72.8560 Y52.5513 F200.00
G01 X72.9892 Y52.7738 F200.00
G01 X73.1437 Y52.9822 F200.00
G01 X73.5282 Y53.3868 F200.00
G01 X73.6768 Y53.5731 F200.00
G01 X73.7449 Y53.6962 F200.00
G01 X73.8263 Y53.9322 F200.00
G01 X73.8537 Y54.1789 F200.00
G01 X73.8269 Y54.4229 F200.00
G01 X73.7450 Y54.6617 F200.00
G01 X73.6770 Y54.7848 F200.00
G01 X73.5184 Y54.9812 F200.00
G01 X73.3200 Y55.1374 F200.00
G01 X73.0918 Y55.2455 F200.00
G01 X72.8595 Y55.2985 F200.00
G01 X60.8497 Y55.2995 F200.00
G01 X60.7053 Y55.2739 F200.00
G01 X60.4719 Y55.1885 F200.00
G01 X60.2402 Y55.0350 F200.00
G01 X60.1453 Y54.9435 F200.00
G01 X59.9980 Y54.7434 F200.00
G01 X59.7855 Y54.2982 F200.00
G01 X59.6567 Y54.5088 F200.00
G01 X59.5652 Y54.6132 F200.00
G01 X59.3829 Y54.7620 F200.00
G01 X59.2627 Y54.8306 F200.00
G01 X59.0414 Y54.9119 F200.00
G01 X58.9049 Y54.9376 F200.00
G01 X58.6697 Y54.9423 F200.00
G01 X58.5315 Y54.9218 F200.00
G01 X58.5234 Y55.7222 F200.00
G01 X58.4657 Y55.9679 F200.00
G01 X58.3557 Y56.1932 F200.00
G01 X58.2809 Y56.2973 F200.00
G01 X58.1124 Y56.4658 F200.00
G01 X57.8874 Y56.6074 F200.00
G01 X57.6479 Y56.6895 F200.00
G01 X57.5231 Y56.7099 F200.00
G01 X57.2849 Y56.7099 F200.00
G01 X57.1462 Y56.6864 F200.00
G01 X56.9213 Y56.6077 F200.00
G01 X56.6956 Y56.4658 F200.00
G01 X56.5271 Y56.2973 F200.00
G01 X56.4457 Y56.1826 F200.00
G01 X56.3852 Y56.0716 F200.00
G01 X56.3065 Y55.8467 F200.00
G01 X56.2765 Y55.5889 F200.00
G01 X56.2765 Y52.7532 F200.00
G01 X56.0686 Y52.7009 F200.00
G01 X55.6659 Y52.5563 F200.00
G01 X55.4308 Y52.4134 F200.00
G01 X55.2556 Y52.2408 F200.00
G01 X55.1713 Y52.1226 F200.00
G01 X55.0628 Y51.8938 F200.00
G01 X55.0097 Y51.6696 F200.00
G01 X49.6384 Y51.6700 F200.00
G01 X49.5037 Y52.1903 F200.00
G01 X49.4513 Y52.5042 F200.00
G01 X49.4321 Y52.8531 F200.00
G01 X49.4240 Y54.3124 F200.00
G01 X49.3663 Y54.5581 F200.00
G01 X49.2563 Y54.7834 F200.00
G01 X49.1068 Y54.9712 F200.00
G01 X49.0019 Y55.0649 F200.00
G01 X48.7880 Y55.1976 F200.00
G01 X48.5624 Y55.2766 F200.00
G01 X48.3046 Y55.3066 F200.00
G01 X47.3094 Y55.3066 F200.00
G01 X47.1761 Y55.2985 F200.00
G01 X46.9438 Y55.2455 F200.00
G01 X46.7036 Y55.1298 F200.00
G01 X46.5173 Y54.9813 F200.00
G01 X46.4236 Y54.8764 F200.00
G01 X46.2968 Y54.6746 F200.00
G01 X46.2477 Y54.5581 F200.00
G01 X46.2088 Y54.4230 F200.00
G01 X46.1821 Y54.1862 F200.00
G01 X46.1702 Y52.6192 F200.00
G01 X46.1386 Y52.3738 F200.00
G01 X46.0861 Y52.1323 F200.00
G01 X45.9971 Y51.8432 F200.00
G01 X45.9606 Y51.6696 F200.00
G01 X36.7974 Y51.6696 F200.00
G01 X36.6875 Y52.0868 F200.00
G01 X36.6875 Y55.5889 F200.00
G01 X36.6575 Y55.8467 F200.00
G01 X36.5788 Y56.0716 F200.00
G01 X36.5117 Y56.1932 F200.00
G01 X36.3622 Y56.3810 F200.00
G01 X36.2573 Y56.4747 F200.00
G01 X36.0434 Y56.6074 F200.00
G01 X35.8178 Y56.6864 F200.00
G01 X35.6791 Y56.7099 F200.00
G01 X35.4409 Y56.7099 F200.00
G01 X35.3022 Y56.6864 F200.00
G01 X35.0773 Y56.6077 F200.00
G01 X34.8516 Y56.4658 F200.00
G01 X34.6831 Y56.2973 F200.00
G01 X34.6017 Y56.1826 F200.00
G01 X34.5412 Y56.0716 F200.00
G01 X34.4625 Y55.8467 F200.00
G01 X34.4325 Y55.5889 F200.00
G01 X34.4325 Y52.8017 F200.00
G01 X34.2730 Y52.7236 F200.00
G01 X33.7863 Y52.5410 F200.00
G01 X33.5646 Y52.3994 F200.00
G01 X33.3990 Y52.2323 F200.00
G01 X33.3189 Y52.1190 F200.00
G01 X33.2143 Y51.9003 F200.00
G01 X33.1584 Y51.6696 F200.00
G01 X16.5173 Y51.6696 F200.00
G01 X16.3816 Y52.0356 F200.00
G01 X16.3406 Y52.2146 F200.00
G01 X16.3406 Y55.5889 F200.00
G01 X16.3137 Y55.8328 F200.00
G01 X16.2748 Y55.9679 F200.00
G01 X16.1648 Y56.1932 F200.00
G01 X16.0052 Y56.3911 F200.00
G01 X15.8068 Y56.5472 F200.00
G01 X15.5921 Y56.6506 F200.00
G01 X15.3464 Y56.7083 F200.00
G01 X15.0940 Y56.7099 F200.00
G01 X14.8475 Y56.6553 F200.00
G01 X14.6194 Y56.5472 F200.00
G01 X14.4210 Y56.3911 F200.00
G01 X14.2624 Y56.1947 F200.00
G01 X14.1514 Y55.9679 F200.00
G01 X14.0937 Y55.7222 F200.00
G01 X14.0856 Y52.7826 F200.00
G01 X13.8362 Y52.6701 F200.00
G01 X13.4100 Y52.5112 F200.00
G01 X13.1981 Y52.3740 F200.00
G01 X13.0129 Y52.1810 F200.00
G01 X12.9313 Y52.0564 F200.00
G01 X12.7273 Y51.5949 F200.00
G01 X12.5725 Y51.3189 F200.00
G01 X12.3883 Y51.0614 F200.00
G01 X12.1772 Y50.8256 F200.00
G01 X11.8114 Y50.4892 F200.00
G01 X11.6649 Y50.2852 F200.00
G01 X11.6041 Y50.1591 F200.00
G01 X11.5362 Y49.9208 F200.00
G01 X11.5222 Y49.7923 F200.00
G01 X11.5348 Y49.5555 F200.00
G01 X11.6072 Y49.3003 F200.00
G01 X11.7290 Y49.0806 F200.00
G01 X11.8964 Y48.8933 F200.00
G01 X12.1011 Y48.7477 F200.00
G01 X12.3194 Y48.6551 F200.00
G01 X12.4415 Y48.6252 F200.00
G01 X13.0131 Y48.5793 F200.00
G01 X13.3850 Y48.5125 F200.00
G01 X13.7472 Y48.4047 F200.00
G01 X14.0951 Y48.2573 F200.00
G01 X14.4245 Y48.0722 F200.00
G01 X14.7313 Y47.8515 F200.00
G01 X15.0116 Y47.5981 F200.00
G01 X15.2620 Y47.3151 F200.00
G01 X15.4794 Y47.0060 F200.00
G01 X15.6610 Y46.6747 F200.00
G01 X15.8047 Y46.3252 F200.00
G01 X15.9086 Y45.9619 F200.00
G01 X15.9715 Y45.5893 F200.00
G01 X15.9943 Y45.1806 F200.00
G01 X15.9943 Y40.2317 F200.00
G01 X15.9765 Y39.8709 F200.00
G01 X15.9275 Y39.5410 F200.00
G01 X15.8463 Y39.2175 F200.00
G01 X15.7338 Y38.9036 F200.00
G01 X15.5910 Y38.6022 F200.00
G01 X15.3363 Y38.1662 F200.00
G01 X15.2546 Y37.9231 F200.00
G01 X15.2300 Y37.6899 F200.00
G01 X15.2381 Y37.5534 F200.00
G01 X15.2893 Y37.3274 F200.00
G01 X15.3927 Y37.1048 F200.00
G01 X15.5515 Y36.8998 F200.00
G01 X15.7297 Y36.7517 F200.00
G01 X15.8474 Y36.6827 F200.00
G01 X16.0753 Y36.5966 F200.00
G01 X16.5832 Y36.5146 F200.00
G01 X16.9126 Y36.4312 F200.00
G01 X17.2320 Y36.3152 F200.00
G01 X17.5382 Y36.1679 F200.00
G01 X17.8282 Y35.9907 F200.00
G01 X18.0989 Y35.7853 F200.00
G01 X18.3478 Y35.5540 F200.00
G01 X18.5722 Y35.2989 F200.00
G01 X18.8030 Y34.9766 F200.00
G01 X18.9225 Y34.8357 F200.00
G01 X20.7320 Y33.0190 F200.00
G01 X20.7320 Y28.2289 F200.00
G01 X20.6574 Y27.9828 F200.00
G01 X20.6406 Y27.8374 F200.00
G01 X20.6581 Y27.5755 F200.00
G01 X20.7320 Y27.3331 F200.00
G01 X20.7320 Y23.8760 F200.00
G01 X20.7448 Y23.6448 F200.00
G01 X20.7840 Y23.4095 F200.00
G01 X20.8493 Y23.1800 F200.00
G01 X20.9460 Y22.9464 F200.00
G01 X21.0611 Y22.7394 F200.00
G01 X21.1920 Y22.5549 F200.00
G01 X21.4560 Y22.2810 F200.00
G01 X21.4560 Y11.6888 F200.00
G01 X21.3735 Y11.4794 F200.00
G01 X21.2048 Y11.1573 F200.00
G01 X21.0027 Y10.8552 F200.00
G01 X20.7694 Y10.5764 F200.00
G01 X20.5076 Y10.3241 F200.00
G01 X20.2203 Y10.1014 F200.00
G01 X19.9108 Y9.9106 F200.00
G01 X19.5827 Y9.7541 F200.00
G01 X19.2398 Y9.6336 F200.00
G01 X18.8859 Y9.5504 F200.00
G01 X18.5251 Y9.5056 F200.00
G01 X18.1616 Y9.4997 F200.00
G01 X17.7996 Y9.5327 F200.00
G01 X17.4432 Y9.6042 F200.00
G01 X17.0964 Y9.7135 F200.00
G01 X16.5903 Y9.9271 F200.00
G01 X16.3144 Y9.9763 F200.00
G01 X16.1814 Y9.9753 F200.00
G01 X15.9347 Y9.9310 F200.00
G01 X15.4233 Y9.7163 F200.00
G01 X15.0848 Y9.6083 F200.00
G01 X14.7369 Y9.5362 F200.00
G01 X14.3833 Y9.5010 F200.00
G01 X14.0280 Y9.5029 F200.00
G01 X13.6748 Y9.5420 F200.00
G01 X13.3277 Y9.6178 F200.00
G01 X12.9904 Y9.7295 F200.00
G01 X12.6666 Y9.8758 F200.00
G01 X12.3599 Y10.0552 F200.00
G01 X11.9145 Y10.3728 F200.00
G01 X11.6837 Y10.4717 F200.00
G01 X11.4367 Y10.5170 F200.00
G01 X11.1858 Y10.5065 F200.00
G01 X10.9435 Y10.4407 F200.00
G01 X10.7236 Y10.3243 F200.00
G01 X10.6221 Y10.2463 F200.00
G01 X10.4961 Y10.1167 F200.00
G01 X10.3945 Y10.3298 F200.00
G01 X10.2494 Y10.5175 F200.00
G01 X10.1471 Y10.6120 F200.00
G01 X9.9376 Y10.7472 F200.00
G01 X9.7161 Y10.8299 F200.00
G01 X9.5794 Y10.8562 F200.00
G01 X8.7862 Y10.8815 F200.00
G01 X8.4331 Y11.2142 F200.00
G01 X8.2380 Y11.3516 F200.00
G01 X8.0295 Y11.4661 F200.00
G01 X7.8080 Y11.5569 F200.00
G01 X7.5813 Y11.6217 F200.00
G01 X7.3432 Y11.6614 F200.00
G01 X7.1120 Y11.6742 F200.00
G01 X6.8808 Y11.6614 F200.00
G01 X6.6455 Y11.6222 F200.00
G01 X6.4160 Y11.5569 F200.00
G01 X6.1952 Y11.4664 F200.00
G01 X5.9754 Y11.3451 F200.00
G01 X5.7909 Y11.2142 F200.00
G01 X5.5249 Y10.9591 F200.00
G01 X4.6956 Y10.9786 F200.00
G01 X4.4558 Y10.9571 F200.00
G01 X4.3185 Y10.9207 F200.00
G01 X4.1999 Y10.8734 F200.00
G01 X3.9938 Y10.7491 F200.00
G01 X3.7927 Y10.5511 F200.00
G01 X3.6913 Y10.6743 F200.00
G01 X3.4963 Y10.8365 F200.00
G01 X3.2700 Y10.9511 F200.00
G01 X3.0379 Y11.0101 F200.00
G01 X0.9929 Y11.0670 F200.00
G01 X0.5070 Y11.1145 F200.00
G01 X0.2396 Y11.0884 F200.00
G01 X0.0175 Y11.0148 F200.00
G01 X-0.1075 Y10.9487 F200.00
G01 X-0.3003 Y10.7996 F200.00
G01 X-0.3968 Y10.6942 F200.00
G01 X-0.5262 Y10.4931 F200.00
G01 X-0.5809 Y10.3649 F200.00
G01 X-0.6363 Y10.1353 F200.00
G01 X-0.6459 Y9.9953 F200.00
G00 Z1.0000
G00 X-1.0230 Y18.9820
G01 F100.00
G01 Z-0.1000
G01 F200.00
G01 X-1.0360 Y18.7509 F200.00
G01 X-1.0232 Y18.5197 F200.00
G01 X-0.9809 Y18.2705 F200.00
G01 X-0.9140 Y18.0414 F200.00
G01 X-0.8220 Y17.8213 F200.00
G01 X-0.7069 Y17.6143 F200.00
G01 X-0.5760 Y17.4298 F200.00
G01 X-0.4127 Y17.2462 F200.00
G01 X1.1502 Y15.6833 F200.00
G01 X1.3227 Y15.5289 F200.00
G01 X1.5289 Y15.3826 F200.00
G01 X1.7374 Y15.2681 F200.00
G01 X1.9454 Y15.1820 F200.00
G01 X2.1884 Y15.1120 F200.00
G01 X2.4096 Y15.0744 F200.00
G01 X2.6478 Y15.0602 F200.00
G01 X4.9585 Y15.0600 F200.00
G01 X5.2524 Y14.9663 F200.00
G01 X5.5016 Y14.9240 F200.00
G01 X5.7328 Y14.9112 F200.00
G01 X6.9539 Y14.9112 F200.00
G01 X7.1033 Y14.8061 F200.00
G01 X7.4189 Y14.6541 F200.00
G01 X7.6052 Y14.6002 F200.00
G01 X7.7880 Y14.5699 F200.00
G01 X12.5962 Y14.5602 F200.00
G01 X12.5962 Y12.8900 F200.00
G01 X12.6075 Y12.7007 F200.00
G01 X12.6388 Y12.5209 F200.00
G01 X12.6901 Y12.3457 F200.00
G01 X12.7607 Y12.1774 F200.00
G01 X12.9471 Y11.8808 F200.00
G01 X13.0782 Y11.7341 F200.00
G01 X13.3521 Y11.5157 F200.00
G01 X13.5114 Y11.4267 F200.00
G01 X13.6797 Y11.3561 F200.00
G01 X13.8660 Y11.3022 F200.00
G01 X14.0347 Y11.2735 F200.00
G01 X14.2240 Y11.2622 F200.00
G01 X14.3992 Y11.2719 F200.00
G01 X14.5792 Y11.3017 F200.00
G01 X14.7548 Y11.3514 F200.00
G01 X14.9238 Y11.4205 F200.00
G01 X15.0945 Y11.5147 F200.00
G01 X15.3698 Y11.7341 F200.00
G01 X15.4920 Y11.8697 F200.00
G01 X15.5983 Y12.0181 F200.00
G01 X15.6873 Y12.1774 F200.00
G01 X15.7579 Y12.3457 F200.00
G01 X15.8123 Y12.5348 F200.00
G01 X15.8518 Y12.8900 F200.00
G01 X15.8421 Y20.6852 F200.00
G01 X15.8123 Y20.8652 F200.00
G01 X15.7626 Y21.0408 F200.00
G01 X15.6935 Y21.2098 F200.00
G01 X15.5993 Y21.3805 F200.00
G01 X15.4920 Y21.5303 F200.00
G01 X15.3698 Y21.6659 F200.00
G01 X15.2332 Y21.7869 F200.00
G01 X15.0839 Y21.8919 F200.00
G01 X14.7683 Y22.0439 F200.00
G01 X14.5820 Y22.0978 F200.00
G01 X14.4133 Y22.1265 F200.00
G01 X14.2240 Y22.1378 F200.00
G01 X14.0488 Y22.1281 F200.00
G01 X13.8549 Y22.0952 F200.00
G01 X13.6797 Y22.0439 F200.00
G01 X13.5114 Y21.9733 F200.00
G01 X13.2148 Y21.7869 F200.00
G01 X13.0782 Y21.6659 F200.00
G01 X12.9560 Y21.5303 F200.00
G01 X12.8421 Y21.3699 F200.00
G01 X12.7548 Y21.2104 F200.00
G01 X12.6854 Y21.0408 F200.00
G01 X12.6362 Y20.8680 F200.00
G01 X12.6059 Y20.6852 F200.00
G01 X12.5962 Y17.8158 F200.00
G01 X9.0903 Y17.8158 F200.00
G01 X9.0260 Y17.9688 F200.00
G01 X8.9109 Y18.1758 F200.00
G01 X8.7711 Y18.3714 F200.00
G01 X8.6115 Y18.5488 F200.00
G01 X8.4442 Y18.6983 F200.00
G01 X8.2501 Y18.8371 F200.00
G01 X8.0416 Y18.9532 F200.00
G01 X7.8215 Y19.0452 F200.00
G01 X7.5813 Y19.1147 F200.00
G01 X7.3432 Y19.1544 F200.00
G01 X6.3583 Y19.1672 F200.00
G01 X6.0644 Y19.2609 F200.00
G01 X5.8152 Y19.3032 F200.00
G01 X5.5840 Y19.3160 F200.00
G01 X3.5363 Y19.3160 F200.00
G01 X2.5915 Y20.2605 F200.00
G01 X2.4131 Y20.4189 F200.00
G01 X2.2195 Y20.5554 F200.00
G01 X2.2195 Y41.4528 F200.00
G01 X3.3291 Y42.5602 F200.00
G01 X4.5911 Y42.5604 F200.00
G01 X4.9392 Y42.5997 F200.00
G01 X5.1283 Y42.6541 F200.00
G01 X5.4439 Y42.8061 F200.00
G01 X5.6043 Y42.9200 F200.00
G01 X5.7399 Y43.0422 F200.00
G01 X5.9557 Y43.3123 F200.00
G01 X6.1003 Y43.4160 F200.00
G01 X6.2359 Y43.5382 F200.00
G01 X6.3569 Y43.6748 F200.00
G01 X6.4619 Y43.8241 F200.00
G01 X6.5492 Y43.9836 F200.00
G01 X6.6186 Y44.1532 F200.00
G01 X6.6678 Y44.3260 F200.00
G01 X6.6981 Y44.5088 F200.00
G01 X6.6981 Y45.3872 F200.00
G01 X6.6683 Y45.5672 F200.00
G01 X6.6186 Y45.7428 F200.00
G01 X6.5495 Y45.9118 F200.00
G01 X6.4553 Y46.0825 F200.00
G01 X6.3480 Y46.2323 F200.00
G01 X6.2258 Y46.3679 F200.00
G01 X6.0892 Y46.4889 F200.00
G01 X5.7926 Y46.6753 F200.00
G01 X5.6243 Y46.7459 F200.00
G01 X5.4380 Y46.7998 F200.00
G01 X5.0871 Y46.8396 F200.00
G01 X4.8907 Y46.8285 F200.00
G01 X4.5492 Y46.7506 F200.00
G01 X4.3674 Y46.6753 F200.00
G01 X4.0708 Y46.4889 F200.00
G01 X3.9241 Y46.3578 F200.00
G01 X3.7057 Y46.0839 F200.00
G01 X3.5708 Y45.8158 F200.00
G01 X2.4656 Y45.8045 F200.00
G01 X2.2858 Y45.7732 F200.00
G01 X2.1106 Y45.7219 F200.00
G01 X1.9423 Y45.6513 F200.00
G01 X1.7844 Y45.5633 F200.00
G01 X1.5039 Y45.3390 F200.00
G01 X-0.1760 Y43.6454 F200.00
G01 X-0.2823 Y43.4970 F200.00
G01 X-0.3772 Y43.3255 F200.00
G01 X-0.4466 Y43.1559 F200.00
G01 X-0.4958 Y42.9831 F200.00
G01 X-0.5261 Y42.8003 F200.00
G01 X-0.5356 Y42.6180 F200.00
G01 X-0.5245 Y42.4358 F200.00
G01 X-0.4466 Y42.0943 F200.00
G01 X-0.3775 Y41.9253 F200.00
G01 X-0.2833 Y41.7546 F200.00
G01 X-0.1760 Y41.6048 F200.00
G01 X-0.0355 Y41.4528 F200.00
G01 X-0.0355 Y20.5554 F200.00
G01 X-0.2402 Y20.4100 F200.00
G01 X-0.4176 Y20.2504 F200.00
G01 X-0.5760 Y20.0720 F200.00
G01 X-0.7134 Y19.8769 F200.00
G01 X-0.8279 Y19.6684 F200.00
G01 X-0.9187 Y19.4469 F200.00
G01 X-0.9835 Y19.2202 F200.00
G01 X-1.0230 Y18.9820 F200.00
G00 Z1.0000
G00 X2.4567 Y26.1809
G01 F100.00
G01 Z-0.1000
G01 F200.00
G01 X2.4646 Y26.0547 F200.00
G01 X2.5176 Y25.8224 F200.00
G01 X2.5714 Y25.6925 F200.00
G01 X2.6982 Y25.4907 F200.00
G01 X3.7919 Y24.3858 F200.00
G01 X3.9782 Y24.2373 F200.00
G01 X4.1496 Y24.1493 F200.00
G01 X4.2291 Y23.8362 F200.00
G01 X4.3258 Y23.6026 F200.00
G01 X4.4409 Y23.3956 F200.00
G01 X4.5718 Y23.2111 F200.00
G01 X4.7302 Y23.0327 F200.00
G01 X4.9187 Y22.8642 F200.00
G01 X5.1017 Y22.7343 F200.00
G01 X5.3102 Y22.6182 F200.00
G01 X5.5438 Y22.5215 F200.00
G01 X5.7705 Y22.4567 F200.00
G01 X5.9945 Y22.4186 F200.00
G01 X6.2398 Y22.4042 F200.00
G01 X7.1120 Y22.4042 F200.00
G01 X7.3432 Y22.4170 F200.00
G01 X7.5785 Y22.4562 F200.00
G01 X7.8080 Y22.5215 F200.00
G01 X8.0416 Y22.6182 F200.00
G01 X8.2486 Y22.7333 F200.00
G01 X8.4331 Y22.8642 F200.00
G01 X8.6115 Y23.0226 F200.00
G01 X8.7711 Y23.2000 F200.00
G01 X8.9099 Y23.3941 F200.00
G01 X9.0260 Y23.6026 F200.00
G01 X9.1180 Y23.8227 F200.00
G01 X9.1775 Y24.0262 F200.00
G01 X16.6602 Y24.0262 F200.00
G01 X16.6602 Y12.8900 F200.00
G01 X16.6715 Y12.7007 F200.00
G01 X16.7028 Y12.5209 F200.00
G01 X16.8185 Y12.1902 F200.00
G01 X16.9061 Y12.0301 F200.00
G01 X17.0111 Y11.8808 F200.00
G01 X17.1422 Y11.7341 F200.00
G01 X17.2788 Y11.6131 F200.00
G01 X17.5754 Y11.4267 F200.00
G01 X17.7437 Y11.3561 F200.00
G01 X17.9300 Y11.3022 F200.00
G01 X18.1128 Y11.2719 F200.00
G01 X18.2951 Y11.2624 F200.00
G01 X18.4773 Y11.2735 F200.00
G01 X18.8188 Y11.3514 F200.00
G01 X19.0006 Y11.4267 F200.00
G01 X19.1599 Y11.5157 F200.00
G01 X19.3083 Y11.6220 F200.00
G01 X19.5560 Y11.8697 F200.00
G01 X19.6699 Y12.0301 F200.00
G01 X19.8219 Y12.3457 F200.00
G01 X19.8763 Y12.5348 F200.00
G01 X19.9158 Y12.8900 F200.00
G01 X19.9061 Y25.0672 F200.00
G01 X19.8763 Y25.2472 F200.00
G01 X19.8266 Y25.4228 F200.00
G01 X19.7513 Y25.6046 F200.00
G01 X19.6623 Y25.7639 F200.00
G01 X19.4390 Y26.0430 F200.00
G01 X18.6770 Y26.8050 F200.00
G01 X18.3979 Y27.0283 F200.00
G01 X18.2258 Y27.1235 F200.00
G01 X18.0568 Y27.1926 F200.00
G01 X17.8840 Y27.2418 F200.00
G01 X17.5331 Y27.2816 F200.00
G01 X8.2338 Y27.2818 F200.00
G01 X7.8786 Y27.2423 F200.00
G01 X7.7030 Y27.1926 F200.00
G01 X7.5340 Y27.1235 F200.00
G01 X7.3633 Y27.0293 F200.00
G01 X7.2246 Y26.9309 F200.00
G01 X6.9380 Y26.6602 F200.00
G01 X6.2327 Y26.6600 F200.00
G01 X6.0086 Y26.6474 F200.00
G01 X5.7733 Y26.6082 F200.00
G01 X5.5438 Y26.5429 F200.00
G01 X5.3230 Y26.4524 F200.00
G01 X5.0635 Y26.3030 F200.00
G01 X4.7115 Y26.6550 F200.00
G01 X4.7115 Y36.7210 F200.00
G01 X5.5684 Y37.5778 F200.00
G01 X11.6000 Y37.5762 F200.00
G01 X11.7893 Y37.5875 F200.00
G01 X11.9691 Y37.6188 F200.00
G01 X12.1443 Y37.6701 F200.00
G01 X12.3126 Y37.7407 F200.00
G01 X12.4705 Y37.8287 F200.00
G01 X12.6203 Y37.9360 F200.00
G01 X13.8680 Y39.1837 F200.00
G01 X13.9819 Y39.3441 F200.00
G01 X14.0695 Y39.5042 F200.00
G01 X14.1852 Y39.8349 F200.00
G01 X14.2181 Y40.0288 F200.00
G01 X14.2181 Y45.3872 F200.00
G01 X14.1883 Y45.5672 F200.00
G01 X14.1386 Y45.7428 F200.00
G01 X14.0633 Y45.9246 F200.00
G01 X13.9743 Y46.0839 F200.00
G01 X13.8680 Y46.2323 F200.00
G01 X13.6203 Y46.4800 F200.00
G01 X13.4719 Y46.5863 F200.00
G01 X13.3126 Y46.6753 F200.00
G01 X13.1443 Y46.7459 F200.00
G01 X12.9691 Y46.7972 F200.00
G01 X12.7752 Y46.8301 F200.00
G01 X12.6000 Y46.8398 F200.00
G01 X12.4107 Y46.8285 F200.00
G01 X12.2309 Y46.7972 F200.00
G01 X12.0557 Y46.7459 F200.00
G01 X11.8874 Y46.6753 F200.00
G01 X11.7295 Y46.5873 F200.00
G01 X11.5797 Y46.4800 F200.00
G01 X11.4441 Y46.3578 F200.00
G01 X11.3231 Y46.2212 F200.00
G01 X11.2181 Y46.0719 F200.00
G01 X11.0661 Y45.7563 F200.00
G01 X11.0117 Y45.5672 F200.00
G01 X10.9724 Y45.2191 F200.00
G01 X10.9722 Y40.8782 F200.00
G01 X10.9258 Y40.8318 F200.00
G01 X5.6000 Y40.8318 F200.00
G01 X5.2448 Y40.7923 F200.00
G01 X5.0557 Y40.7379 F200.00
G01 X4.8874 Y40.6673 F200.00
G01 X4.5908 Y40.4809 F200.00
G01 X4.4542 Y40.3599 F200.00
G01 X4.3320 Y40.2243 F200.00
G01 X4.2257 Y40.0759 F200.00
G01 X4.1367 Y39.9166 F200.00
G01 X4.0614 Y39.7348 F200.00
G01 X3.9835 Y39.3933 F200.00
G01 X3.9738 Y39.1724 F200.00
G01 X2.7818 Y37.9801 F200.00
G01 X2.6982 Y37.8853 F200.00
G01 X2.5714 Y37.6835 F200.00
G01 X2.4839 Y37.4347 F200.00
G01 X2.4565 Y37.1880 F200.00
G01 X2.4567 Y26.1809 F200.00
G00 Z1.0000
G00 X5.4842 Y34.5440
G01 F100.00
G01 Z-0.1000
G01 F200.00
G01 X5.4939 Y33.4848 F200.00
G01 X5.5268 Y33.2909 F200.00
G01 X5.6425 Y32.9602 F200.00
G01 X5.7377 Y32.7881 F200.00
G01 X5.9561 Y32.5142 F200.00
G01 X6.2223 Y32.2983 F200.00
G01 X6.4382 Y32.0321 F200.00
G01 X6.7121 Y31.8137 F200.00
G01 X6.8836 Y31.7188 F200.00
G01 X7.0532 Y31.6494 F200.00
G01 X7.3947 Y31.5715 F200.00
G01 X7.5769 Y31.5604 F200.00
G01 X12.5967 Y31.5602 F200.00
G01 X12.6059 Y30.4948 F200.00
G01 X12.6388 Y30.3009 F200.00
G01 X12.7545 Y29.9702 F200.00
G01 X12.8487 Y29.7995 F200.00
G01 X12.9471 Y29.6608 F200.00
G01 X13.0681 Y29.5242 F200.00
G01 X13.2037 Y29.4020 F200.00
G01 X13.3521 Y29.2957 F200.00
G01 X13.5114 Y29.2067 F200.00
G01 X13.6932 Y29.1314 F200.00
G01 X14.0347 Y29.0535 F200.00
G01 X14.2169 Y29.0424 F200.00
G01 X14.3992 Y29.0519 F200.00
G01 X14.5931 Y29.0848 F200.00
G01 X14.9238 Y29.2005 F200.00
G01 X15.0839 Y29.2881 F200.00
G01 X15.2443 Y29.4020 F200.00
G01 X15.3963 Y29.5425 F200.00
G01 X17.1135 Y29.5425 F200.00
G01 X17.2677 Y29.4020 F200.00
G01 X17.4161 Y29.2957 F200.00
G01 X17.5754 Y29.2067 F200.00
G01 X17.7437 Y29.1361 F200.00
G01 X17.9300 Y29.0822 F200.00
G01 X18.0987 Y29.0535 F200.00
G01 X18.2880 Y29.0422 F200.00
G01 X18.4773 Y29.0535 F200.00
G01 X18.8188 Y29.1314 F200.00
G01 X18.9878 Y29.2005 F200.00
G01 X19.1585 Y29.2947 F200.00
G01 X19.3083 Y29.4020 F200.00
G01 X19.5560 Y29.6497 F200.00
G01 X19.6623 Y29.7981 F200.00
G01 X19.7572 Y29.9696 F200.00
G01 X19.8266 Y30.1392 F200.00
G01 X19.8758 Y30.3120 F200.00
G01 X19.9061 Y30.4948 F200.00
G01 X19.9158 Y30.6700 F200.00
G01 X19.9045 Y30.8593 F200.00
G01 X19.8266 Y31.2008 F200.00
G01 X19.7575 Y31.3698 F200.00
G01 X19.6633 Y31.5405 F200.00
G01 X19.5649 Y31.6792 F200.00
G01 X19.4390 Y31.8210 F200.00
G01 X17.3955 Y33.8635 F200.00
G01 X17.2913 Y34.0585 F200.00
G01 X17.1840 Y34.2083 F200.00
G01 X17.0618 Y34.3439 F200.00
G01 X16.9252 Y34.4649 F200.00
G01 X16.7759 Y34.5699 F200.00
G01 X16.6164 Y34.6572 F200.00
G01 X16.4468 Y34.7266 F200.00
G01 X16.1053 Y34.8045 F200.00
G01 X15.9160 Y34.8158 F200.00
G01 X8.7145 Y34.8158 F200.00
G01 X8.6459 Y35.0883 F200.00
G01 X8.4939 Y35.4039 F200.00
G01 X8.3800 Y35.5643 F200.00
G01 X8.1323 Y35.8120 F200.00
G01 X7.9719 Y35.9259 F200.00
G01 X7.6563 Y36.0779 F200.00
G01 X7.4672 Y36.1323 F200.00
G01 X7.1120 Y36.1718 F200.00
G01 X6.7568 Y36.1323 F200.00
G01 X6.5812 Y36.0826 F200.00
G01 X6.4122 Y36.0135 F200.00
G01 X6.2415 Y35.9193 F200.00
G01 X6.1028 Y35.8209 F200.00
G01 X5.9561 Y35.6898 F200.00
G01 X5.8351 Y35.5532 F200.00
G01 X5.7301 Y35.4039 F200.00
G01 X5.5781 Y35.0883 F200.00
G01 X5.5237 Y34.8992 F200.00
G01 X5.4842 Y34.5440 F200.00
G00 Z1.0000
G00 X7.8591 Y45.3210
G01 F100.00
G01 Z-0.1000
G01 F200.00
G01 X7.8588 Y45.1030 F200.00
G01 X7.9089 Y44.8763 F200.00
G01 X8.0082 Y44.6664 F200.00
G01 X8.0838 Y44.5599 F200.00
G01 X8.2379 Y44.4058 F200.00
G01 X8.4337 Y44.2809 F200.00
G01 X8.6523 Y44.2027 F200.00
G01 X8.7810 Y44.1808 F200.00
G01 X8.9990 Y44.1808 F200.00
G01 X9.2257 Y44.2309 F200.00
G01 X9.4356 Y44.3302 F200.00
G01 X9.5421 Y44.4058 F200.00
G01 X9.6962 Y44.5599 F200.00
G01 X9.8211 Y44.7557 F200.00
G01 X9.8993 Y44.9743 F200.00
G01 X9.9212 Y45.1030 F200.00
G01 X9.9212 Y45.3210 F200.00
G01 X9.8711 Y45.5477 F200.00
G01 X9.7718 Y45.7576 F200.00
G01 X9.6962 Y45.8641 F200.00
G01 X9.5421 Y46.0182 F200.00
G01 X9.3463 Y46.1431 F200.00
G01 X9.1277 Y46.2213 F200.00
G01 X8.9990 Y46.2432 F200.00
G01 X8.7810 Y46.2432 F200.00
G01 X8.5543 Y46.1931 F200.00
G01 X8.3444 Y46.0938 F200.00
G01 X8.2379 Y46.0182 F200.00
G01 X8.0838 Y45.8641 F200.00
G01 X7.9589 Y45.6683 F200.00
G01 X7.8807 Y45.4497 F200.00
G01 X7.8591 Y45.3210 F200.00
G00 Z1.0000
G00 X9.0123 Y55.7080
G01 F100.00
G01 Z-0.1000
G01 F200.00
G01 X9.0056 Y52.8689 F200.00
G01 X9.0325 Y52.6250 F200.00
G01 X9.0714 Y52.4899 F200.00
G01 X9.1814 Y52.2646 F200.00
G01 X9.3309 Y52.0768 F200.00
G01 X9.4358 Y51.9831 F200.00
G01 X9.6497 Y51.8504 F200.00
G01 X9.8864 Y51.7688 F200.00
G01 X10.1260 Y51.7416 F200.00
G01 X10.2664 Y51.7495 F200.00
G01 X10.5121 Y51.8072 F200.00
G01 X10.6286 Y51.8563 F200.00
G01 X10.8304 Y51.9831 F200.00
G01 X11.0189 Y52.1716 F200.00
G01 X11.1519 Y52.3862 F200.00
G01 X11.1995 Y52.5033 F200.00
G01 X11.2525 Y52.7356 F200.00
G01 X11.2604 Y55.5960 F200.00
G01 X11.2306 Y55.8467 F200.00
G01 X11.1948 Y55.9679 F200.00
G01 X11.0983 Y56.1701 F200.00
G01 X11.0914 Y56.4684 F200.00
G01 X11.0611 Y56.5169 F200.00
G01 X10.9991 Y56.5510 F200.00
G01 X10.7143 Y56.5541 F200.00
G01 X10.5121 Y56.6506 F200.00
G01 X10.3909 Y56.6864 F200.00
G01 X10.1402 Y56.7162 F200.00
G01 X9.8753 Y56.6864 F200.00
G01 X9.7541 Y56.6506 F200.00
G01 X9.5519 Y56.5541 F200.00
G01 X9.2536 Y56.5472 F200.00
G01 X9.2051 Y56.5169 F200.00
G01 X9.1748 Y56.4684 F200.00
G01 X9.1679 Y56.1701 F200.00
G01 X9.0667 Y55.9545 F200.00
G01 X9.0123 Y55.7080 F200.00
G00 Z1.0000
G00 X11.0552 Y58.8760
G01 F100.00
G01 Z-0.1000
G01 F200.00
G01 X11.0550 Y58.5257 F200.00
G01 X11.0879 Y58.3318 F200.00
G01 X11.2036 Y58.0011 F200.00
G01 X11.2955 Y57.8342 F200.00
G01 X11.2955 Y55.5889 F200.00
G01 X11.3051 Y55.4276 F200.00
G01 X11.3706 Y55.1407 F200.00
G01 X11.5106 Y54.8500 F200.00
G01 X11.6941 Y54.6199 F200.00
G01 X11.8199 Y54.5075 F200.00
G01 X12.0690 Y54.3510 F200.00
G01 X12.2249 Y54.2864 F200.00
G01 X12.5118 Y54.2209 F200.00
G01 X12.6731 Y54.2113 F200.00
G01 X12.8344 Y54.2209 F200.00
G01 X13.1213 Y54.2864 F200.00
G01 X13.4105 Y54.4254 F200.00
G01 X13.5375 Y54.5164 F200.00
G01 X13.7456 Y54.7245 F200.00
G01 X13.9169 Y54.9970 F200.00
G01 X14.0144 Y55.2755 F200.00
G01 X14.0427 Y55.4418 F200.00
G01 X14.0507 Y57.0731 F200.00
G01 X31.6693 Y57.0731 F200.00
G01 X31.6773 Y55.4687 F200.00
G01 X31.7056 Y55.3024 F200.00
G01 X31.8090 Y55.0117 F200.00
G01 X31.9655 Y54.7626 F200.00
G01 X32.0679 Y54.6468 F200.00
G01 X32.3201 Y54.4457 F200.00
G01 X32.5852 Y54.3180 F200.00
G01 X32.7335 Y54.2745 F200.00
G01 X33.0469 Y54.2382 F200.00
G01 X33.2082 Y54.2478 F200.00
G01 X33.4951 Y54.3133 F200.00
G01 X33.7843 Y54.4523 F200.00
G01 X34.0259 Y54.6468 F200.00
G01 X34.1283 Y54.7626 F200.00
G01 X34.2848 Y55.0117 F200.00
G01 X34.3882 Y55.3024 F200.00
G01 X34.4165 Y55.4687 F200.00
G01 X34.4245 Y57.0731 F200.00
G01 X53.5133 Y57.0731 F200.00
G01 X53.5213 Y55.4687 F200.00
G01 X53.5496 Y55.3024 F200.00
G01 X53.6530 Y55.0117 F200.00
G01 X53.8095 Y54.7626 F200.00
G01 X53.9119 Y54.6468 F200.00
G01 X54.1641 Y54.4457 F200.00
G01 X54.4292 Y54.3180 F200.00
G01 X54.5775 Y54.2745 F200.00
G01 X54.8909 Y54.2382 F200.00
G01 X55.0522 Y54.2478 F200.00
G01 X55.3391 Y54.3133 F200.00
G01 X55.6283 Y54.4523 F200.00
G01 X55.8699 Y54.6468 F200.00
G01 X55.9723 Y54.7626 F200.00
G01 X56.1288 Y55.0117 F200.00
G01 X56.2322 Y55.3024 F200.00
G01 X56.2605 Y55.4687 F200.00
G01 X56.2685 Y57.0731 F200.00
G01 X76.1117 Y57.0731 F200.00
G01 X76.1117 Y53.8480 F200.00
G01 X76.1369 Y53.5017 F200.00
G01 X74.5026 Y51.8605 F200.00
G01 X74.3909 Y51.6829 F200.00
G01 X74.3537 Y51.5910 F200.00
G01 X74.3131 Y51.4133 F200.00
G01 X74.3131 Y44.3447 F200.00
G01 X74.3537 Y44.1670 F200.00
G01 X74.3906 Y44.0758 F200.00
G01 X74.5026 Y43.8975 F200.00
G01 X76.0876 Y42.3056 F200.00
G01 X76.2353 Y42.1871 F200.00
G01 X76.4116 Y42.1004 F200.00
G01 X76.6027 Y42.0551 F200.00
G01 X77.3943 Y42.0486 F200.00
G01 X77.6230 Y41.9329 F200.00
G01 X77.8670 Y41.8772 F200.00
G01 X78.1032 Y41.8788 F200.00
G01 X78.3330 Y41.9329 F200.00
G01 X78.5437 Y42.0358 F200.00
G01 X78.7288 Y42.1853 F200.00
G01 X78.8672 Y42.3589 F200.00
G01 X78.9251 Y42.4620 F200.00
G01 X79.0046 Y42.6844 F200.00
G01 X79.0328 Y42.9260 F200.00
G01 X79.0077 Y43.1537 F200.00
G01 X78.9251 Y43.3900 F200.00
G01 X78.8672 Y43.4931 F200.00
G01 X78.7288 Y43.6667 F200.00
G01 X78.5331 Y43.8227 F200.00
G01 X78.3196 Y43.9238 F200.00
G01 X78.1032 Y43.9732 F200.00
G01 X77.8670 Y43.9748 F200.00
G01 X77.6230 Y43.9191 F200.00
G01 X77.3943 Y43.8034 F200.00
G01 X77.0714 Y43.8034 F200.00
G01 X76.0614 Y44.8134 F200.00
G01 X76.0614 Y50.9446 F200.00
G01 X77.0001 Y51.8833 F200.00
G01 X77.1070 Y51.7889 F200.00
G01 X77.3358 Y51.6266 F200.00
G01 X77.6055 Y51.4774 F200.00
G01 X77.8787 Y51.3651 F200.00
G01 X78.1593 Y51.2848 F200.00
G01 X78.4387 Y51.2373 F200.00
G01 X78.7471 Y51.2199 F200.00
G01 X79.0272 Y51.2357 F200.00
G01 X79.3179 Y51.2843 F200.00
G01 X79.6013 Y51.3651 F200.00
G01 X79.8867 Y51.4833 F200.00
G01 X80.1442 Y51.6266 F200.00
G01 X80.3730 Y51.7889 F200.00
G01 X80.5933 Y51.9847 F200.00
G01 X80.7903 Y52.2039 F200.00
G01 X80.9614 Y52.4438 F200.00
G01 X81.1106 Y52.7135 F200.00
G01 X81.2229 Y52.9867 F200.00
G01 X81.3032 Y53.2673 F200.00
G01 X81.3523 Y53.5608 F200.00
G01 X81.3683 Y53.8480 F200.00
G01 X81.3683 Y58.4200 F200.00
G01 X81.3507 Y58.7213 F200.00
G01 X81.3037 Y58.9979 F200.00
G01 X81.2229 Y59.2813 F200.00
G01 X81.1047 Y59.5667 F200.00
G01 X80.9614 Y59.8242 F200.00
G01 X80.7991 Y60.0530 F200.00
G01 X80.6033 Y60.2733 F200.00
G01 X80.3841 Y60.4703 F200.00
G01 X80.1322 Y60.6490 F200.00
G01 X79.8745 Y60.7906 F200.00
G01 X79.6147 Y60.8982 F200.00
G01 X79.3207 Y60.9832 F200.00
G01 X79.0272 Y61.0323 F200.00
G01 X78.7400 Y61.0483 F200.00
G01 X78.4528 Y61.0323 F200.00
G01 X78.1621 Y60.9837 F200.00
G01 X77.8787 Y60.9029 F200.00
G01 X77.6061 Y60.7909 F200.00
G01 X77.3478 Y60.6490 F200.00
G01 X77.1070 Y60.4791 F200.00
G01 X76.9374 Y60.3287 F200.00
G01 X12.6660 Y60.3285 F200.00
G01 X12.3179 Y60.2892 F200.00
G01 X12.1423 Y60.2395 F200.00
G01 X11.9733 Y60.1704 F200.00
G01 X11.8012 Y60.0752 F200.00
G01 X11.5273 Y59.8568 F200.00
G01 X11.3962 Y59.7101 F200.00
G01 X11.2912 Y59.5608 F200.00
G01 X11.2039 Y59.4013 F200.00
G01 X11.0879 Y59.0700 F200.00
G01 X11.0552 Y58.8760 F200.00
G00 Z1.0000
G00 X18.0392 Y52.9511
G01 F100.00
G01 Z-0.1000
G01 F200.00
G01 X18.0390 Y52.7129 F200.00
G01 X18.0936 Y52.4664 F200.00
G01 X18.2083 Y52.2277 F200.00
G01 X18.3578 Y52.0399 F200.00
G01 X18.4627 Y51.9462 F200.00
G01 X18.6766 Y51.8135 F200.00
G01 X18.9133 Y51.7319 F200.00
G01 X19.1600 Y51.7045 F200.00
G01 X26.8033 Y51.7126 F200.00
G01 X27.0356 Y51.7656 F200.00
G01 X27.1655 Y51.8194 F200.00
G01 X27.3673 Y51.9462 F200.00
G01 X27.5469 Y52.1236 F200.00
G01 X27.6283 Y52.2383 F200.00
G01 X27.7317 Y52.4530 F200.00
G01 X27.7706 Y52.5881 F200.00
G01 X27.7975 Y52.8320 F200.00
G01 X27.7706 Y53.0759 F200.00
G01 X27.6888 Y53.3147 F200.00
G01 X27.5558 Y53.5293 F200.00
G01 X27.4621 Y53.6342 F200.00
G01 X27.2637 Y53.7903 F200.00
G01 X27.0490 Y53.8937 F200.00
G01 X26.9139 Y53.9326 F200.00
G01 X26.6700 Y53.9595 F200.00
G01 X19.0267 Y53.9514 F200.00
G01 X18.7944 Y53.8984 F200.00
G01 X18.6645 Y53.8446 F200.00
G01 X18.4627 Y53.7178 F200.00
G01 X18.3578 Y53.6241 F200.00
G01 X18.2093 Y53.4378 F200.00
G01 X18.1415 Y53.3154 F200.00
G01 X18.0625 Y53.0898 F200.00
G01 X18.0392 Y52.9511 F200.00
G00 Z1.0000
G00 X25.2952 Y47.6171
G01 F100.00
G01 Z-0.1000
G01 F200.00
G01 X25.2950 Y47.3789 F200.00
G01 X25.3496 Y47.1324 F200.00
G01 X25.4034 Y47.0025 F200.00
G01 X25.5391 Y46.7896 F200.00
G01 X25.7187 Y46.6122 F200.00
G01 X25.9326 Y46.4795 F200.00
G01 X26.1693 Y46.3979 F200.00
G01 X26.4089 Y46.3707 F200.00
G01 X68.4685 Y46.3705 F200.00
G01 X68.4750 Y45.0929 F200.00
G01 X68.5296 Y44.8464 F200.00
G01 X68.5834 Y44.7165 F200.00
G01 X68.7102 Y44.5147 F200.00
G01 X68.7987 Y44.4147 F200.00
G01 X69.9639 Y43.2498 F200.00
G01 X70.0587 Y43.1662 F200.00
G01 X70.2605 Y43.0394 F200.00
G01 X70.5093 Y42.9519 F200.00
G01 X70.7560 Y42.9245 F200.00
G01 X72.1431 Y42.9247 F200.00
G01 X72.2693 Y42.9326 F200.00
G01 X72.5016 Y42.9856 F200.00
G01 X72.6315 Y43.0394 F200.00
G01 X72.8333 Y43.1662 F200.00
G01 X73.0218 Y43.3547 F200.00
G01 X73.1486 Y43.5565 F200.00
G01 X73.1977 Y43.6730 F200.00
G01 X73.2570 Y43.9329 F200.00
G01 X73.2570 Y44.1711 F200.00
G01 X73.2366 Y44.2959 F200.00
G01 X73.1486 Y44.5475 F200.00
G01 X73.0129 Y44.7604 F200.00
G01 X72.8444 Y44.9289 F200.00
G01 X72.7418 Y45.0027 F200.00
G01 X72.5150 Y45.1137 F200.00
G01 X72.2693 Y45.1714 F200.00
G01 X71.2230 Y45.1795 F200.00
G01 X70.7235 Y45.6790 F200.00
G01 X70.7235 Y47.4980 F200.00
G01 X70.7154 Y47.6313 F200.00
G01 X70.6624 Y47.8636 F200.00
G01 X70.6086 Y47.9935 F200.00
G01 X70.4818 Y48.1953 F200.00
G01 X70.2933 Y48.3838 F200.00
G01 X70.0915 Y48.5106 F200.00
G01 X69.9750 Y48.5597 F200.00
G01 X69.7151 Y48.6190 F200.00
G01 X26.4160 Y48.6255 F200.00
G01 X26.1721 Y48.5986 F200.00
G01 X26.0370 Y48.5597 F200.00
G01 X25.8117 Y48.4497 F200.00
G01 X25.6239 Y48.3002 F200.00
G01 X25.5302 Y48.1953 F200.00
G01 X25.3975 Y47.9814 F200.00
G01 X25.3185 Y47.7558 F200.00
G01 X25.2952 Y47.6171 F200.00
G00 Z1.0000
G00 X28.0964 Y41.2949
G01 F100.00
G01 Z-0.1000
G01 F200.00
G01 X28.0962 Y41.0010 F200.00
G01 X28.1631 Y40.7004 F200.00
G01 X28.3019 Y40.4115 F200.00
G01 X28.4862 Y40.1803 F200.00
G01 X28.6118 Y40.0680 F200.00
G01 X28.8735 Y39.9054 F200.00
G01 X29.1620 Y39.8057 F200.00
G01 X29.4640 Y39.7721 F200.00
G01 X29.6251 Y39.7817 F200.00
G01 X29.9116 Y39.8471 F200.00
G01 X30.0673 Y39.9116 F200.00
G01 X30.2492 Y40.0205 F200.00
G01 X40.2511 Y40.0270 F200.00
G01 X40.3898 Y40.0505 F200.00
G01 X40.6147 Y40.1292 F200.00
G01 X40.8404 Y40.2711 F200.00
G01 X41.0089 Y40.4396 F200.00
G01 X41.0827 Y40.5422 F200.00
G01 X41.2024 Y40.7964 F200.00
G01 X42.8333 Y40.8060 F200.00
G01 X43.1337 Y40.8762 F200.00
G01 X43.2761 Y40.9361 F200.00
G01 X43.5213 Y41.0899 F200.00
G01 X48.4016 Y36.2096 F200.00
G01 X48.5493 Y36.0911 F200.00
G01 X48.7256 Y36.0044 F200.00
G01 X48.8338 Y35.9732 F200.00
G01 X49.0220 Y35.9526 F200.00
G01 X53.6481 Y35.9526 F200.00
G01 X53.8605 Y35.8174 F200.00
G01 X53.9904 Y35.7636 F200.00
G01 X54.2227 Y35.7106 F200.00
G01 X54.4751 Y35.7090 F200.00
G01 X54.6138 Y35.7325 F200.00
G01 X54.8387 Y35.8112 F200.00
G01 X55.0644 Y35.9531 F200.00
G01 X55.2329 Y36.1216 F200.00
G01 X55.3143 Y36.2363 F200.00
G01 X55.4177 Y36.4510 F200.00
G01 X55.4566 Y36.5861 F200.00
G01 X55.4835 Y36.8300 F200.00
G01 X55.4835 Y39.1160 F200.00
G01 X55.4566 Y39.3599 F200.00
G01 X55.3748 Y39.5987 F200.00
G01 X55.2418 Y39.8133 F200.00
G01 X55.0644 Y39.9929 F200.00
G01 X54.8515 Y40.1286 F200.00
G01 X54.7216 Y40.1824 F200.00
G01 X54.4893 Y40.2354 F200.00
G01 X54.2369 Y40.2370 F200.00
G01 X54.0982 Y40.2135 F200.00
G01 X53.8605 Y40.1286 F200.00
G01 X53.6587 Y40.0018 F200.00
G01 X53.5538 Y39.9081 F200.00
G01 X53.4053 Y39.7218 F200.00
G01 X53.2943 Y39.4950 F200.00
G01 X53.2350 Y39.2351 F200.00
G01 X53.2285 Y37.7074 F200.00
G01 X49.3854 Y37.7074 F200.00
G01 X44.2193 Y42.8642 F200.00
G01 X44.1387 Y42.9205 F200.00
G01 X43.9744 Y42.9996 F200.00
G01 X43.7356 Y43.0483 F200.00
G01 X43.5364 Y43.2465 F200.00
G01 X43.3988 Y43.3441 F200.00
G01 X43.1337 Y43.4718 F200.00
G01 X42.9854 Y43.5153 F200.00
G01 X42.6791 Y43.5514 F200.00
G01 X41.7086 Y43.5516 F200.00
G01 X40.4884 Y44.7605 F200.00
G01 X40.2159 Y44.9318 F200.00
G01 X39.9236 Y45.0325 F200.00
G01 X39.6311 Y45.0654 F200.00
G01 X39.4769 Y45.0576 F200.00
G01 X39.1623 Y44.9858 F200.00
G01 X39.0199 Y44.9259 F200.00
G01 X38.7708 Y44.7694 F200.00
G01 X38.5426 Y44.5412 F200.00
G01 X38.3861 Y44.2921 F200.00
G01 X38.3262 Y44.1497 F200.00
G01 X38.2544 Y43.8351 F200.00
G01 X38.2466 Y43.6809 F200.00
G01 X38.2795 Y43.3884 F200.00
G01 X38.3262 Y43.2263 F200.00
G01 X38.3963 Y43.0654 F200.00
G01 X30.5040 Y43.0654 F200.00
G01 X30.3158 Y43.0448 F200.00
G01 X30.1298 Y42.9814 F200.00
G01 X29.9627 Y42.8782 F200.00
G01 X29.5921 Y42.5169 F200.00
G01 X29.3029 Y42.5143 F200.00
G01 X29.0164 Y42.4489 F200.00
G01 X28.8607 Y42.3844 F200.00
G01 X28.6118 Y42.2280 F200.00
G01 X28.3929 Y42.0113 F200.00
G01 X28.2276 Y41.7513 F200.00
G01 X28.1244 Y41.4611 F200.00
G01 X28.0964 Y41.2949 F200.00
G00 Z1.0000
G00 X25.8120 Y33.0200
G01 F100.00
G01 Z-0.1000
G01 F200.00
G01 X25.8122 Y23.8689 F200.00
G01 X25.8264 Y23.6307 F200.00
G01 X25.8671 Y23.3956 F200.00
G01 X25.9293 Y23.1800 F200.00
G01 X26.0198 Y22.9592 F200.00
G01 X26.1346 Y22.7500 F200.00
G01 X26.2720 Y22.5549 F200.00
G01 X26.4304 Y22.3765 F200.00
G01 X26.6078 Y22.2169 F200.00
G01 X26.8019 Y22.0781 F200.00
G01 X27.0104 Y21.9620 F200.00
G01 X27.2305 Y21.8700 F200.00
G01 X27.4707 Y21.8005 F200.00
G01 X27.6707 Y21.7665 F200.00
G01 X40.1213 Y9.3073 F200.00
G01 X40.2938 Y9.1529 F200.00
G01 X40.4879 Y9.0141 F200.00
G01 X40.7085 Y8.8921 F200.00
G01 X40.9300 Y8.8013 F200.00
G01 X41.1567 Y8.7365 F200.00
G01 X41.3948 Y8.6968 F200.00
G01 X41.6260 Y8.6840 F200.00
G01 X55.8340 Y8.6840 F200.00
G01 X56.0793 Y8.6984 F200.00
G01 X56.3144 Y8.7391 F200.00
G01 X56.5300 Y8.8013 F200.00
G01 X56.7508 Y8.8918 F200.00
G01 X56.9600 Y9.0066 F200.00
G01 X57.1551 Y9.1440 F200.00
G01 X57.3335 Y9.3024 F200.00
G01 X63.3654 Y15.3340 F200.00
G01 X77.7869 Y15.3340 F200.00
G01 X77.6736 Y15.0976 F200.00
G01 X77.6206 Y14.8653 F200.00
G01 X77.6127 Y14.7391 F200.00
G01 X77.6125 Y11.0320 F200.00
G01 X77.6394 Y10.7881 F200.00
G01 X77.7212 Y10.5493 F200.00
G01 X77.7893 Y10.4262 F200.00
G01 X77.9479 Y10.2298 F200.00
G01 X78.1342 Y10.0813 F200.00
G01 X78.2573 Y10.0132 F200.00
G01 X78.4961 Y9.9314 F200.00
G01 X78.7400 Y9.9045 F200.00
G01 X78.9839 Y9.9314 F200.00
G01 X79.2355 Y10.0194 F200.00
G01 X79.4373 Y10.1462 F200.00
G01 X79.5422 Y10.2399 F200.00
G01 X79.6907 Y10.4262 F200.00
G01 X79.7585 Y10.5486 F200.00
G01 X79.8064 Y10.6664 F200.00
G01 X79.8594 Y10.8987 F200.00
G01 X79.8673 Y14.7391 F200.00
G01 X79.8594 Y14.8653 F200.00
G01 X79.8064 Y15.0976 F200.00
G01 X79.7526 Y15.2275 F200.00
G01 X79.6745 Y15.3607 F200.00
G01 X79.8766 Y15.4731 F200.00
G01 X80.0611 Y15.6040 F200.00
G01 X80.2447 Y15.7673 F200.00
G01 X85.8327 Y21.3553 F200.00
G01 X85.9960 Y21.5389 F200.00
G01 X86.1259 Y21.7219 F200.00
G01 X86.2420 Y21.9304 F200.00
G01 X86.3340 Y22.1505 F200.00
G01 X86.4035 Y22.3907 F200.00
G01 X86.4432 Y22.6288 F200.00
G01 X86.4560 Y22.8600 F200.00
G01 X86.4560 Y45.9740 F200.00
G01 X86.4432 Y46.2052 F200.00
G01 X86.4040 Y46.4405 F200.00
G01 X86.3387 Y46.6700 F200.00
G01 X86.2420 Y46.9036 F200.00
G01 X86.1269 Y47.1106 F200.00
G01 X85.9960 Y47.2951 F200.00
G01 X85.8376 Y47.4735 F200.00
G01 X85.6602 Y47.6331 F200.00
G01 X85.4540 Y47.7794 F200.00
G01 X85.2455 Y47.8939 F200.00
G01 X85.0375 Y47.9800 F200.00
G01 X84.8084 Y48.0469 F200.00
G01 X84.5733 Y48.0876 F200.00
G01 X84.3280 Y48.1020 F200.00
G01 X79.9871 Y48.1020 F200.00
G01 X79.6946 Y48.2340 F200.00
G01 X79.4655 Y48.3009 F200.00
G01 X79.2304 Y48.3416 F200.00
G01 X78.9851 Y48.3560 F200.00
G01 X78.4947 Y48.3416 F200.00
G01 X78.2735 Y48.3040 F200.00
G01 X78.0440 Y48.2387 F200.00
G01 X77.8104 Y48.1420 F200.00
G01 X77.6034 Y48.0269 F200.00
G01 X77.4189 Y47.8960 F200.00
G01 X77.2304 Y47.7275 F200.00
G01 X77.0809 Y47.5602 F200.00
G01 X76.9421 Y47.3661 F200.00
G01 X76.8198 Y47.1448 F200.00
G01 X76.7293 Y46.9240 F200.00
G01 X76.6645 Y46.6973 F200.00
G01 X76.6248 Y46.4592 F200.00
G01 X76.6122 Y46.2209 F200.00
G01 X76.6264 Y45.9827 F200.00
G01 X76.6640 Y45.7615 F200.00
G01 X76.7293 Y45.5320 F200.00
G01 X76.8260 Y45.2984 F200.00
G01 X76.9421 Y45.0899 F200.00
G01 X77.0720 Y44.9069 F200.00
G01 X77.2304 Y44.7285 F200.00
G01 X77.4078 Y44.5689 F200.00
G01 X77.6019 Y44.4301 F200.00
G01 X77.8104 Y44.3140 F200.00
G01 X78.0422 Y44.2179 F200.00
G01 X78.3216 Y44.0541 F200.00
G01 X78.5431 Y43.9633 F200.00
G01 X78.7698 Y43.8985 F200.00
G01 X79.0079 Y43.8588 F200.00
G01 X79.8946 Y43.8460 F200.00
G01 X79.8861 Y39.8047 F200.00
G01 X79.9157 Y39.6680 F200.00
G01 X79.9825 Y39.5292 F200.00
G01 X80.1126 Y39.3837 F200.00
G01 X80.2423 Y39.3020 F200.00
G01 X80.3727 Y39.2576 F200.00
G01 X80.5004 Y39.2430 F200.00
G01 X81.0365 Y39.2428 F200.00
G01 X81.1685 Y39.2571 F200.00
G01 X81.3010 Y39.3018 F200.00
G01 X81.4203 Y39.3748 F200.00
G01 X81.5203 Y39.4726 F200.00
G01 X81.6020 Y39.6023 F200.00
G01 X81.6464 Y39.7327 F200.00
G01 X81.6612 Y39.8675 F200.00
G01 X81.6494 Y43.8460 F200.00
G01 X82.2000 Y43.8460 F200.00
G01 X82.2000 Y23.7414 F200.00
G01 X78.0486 Y19.5900 F200.00
G01 X62.4840 Y19.5900 F200.00
G01 X62.2528 Y19.5772 F200.00
G01 X62.0175 Y19.5380 F200.00
G01 X61.7745 Y19.4680 F200.00
G01 X61.5544 Y19.3760 F200.00
G01 X61.3474 Y19.2609 F200.00
G01 X61.1518 Y19.1211 F200.00
G01 X60.9793 Y18.9667 F200.00
G01 X54.9526 Y12.9400 F200.00
G01 X42.5074 Y12.9400 F200.00
G01 X37.6608 Y17.7867 F200.00
G01 X37.6059 Y17.9926 F200.00
G01 X37.5306 Y18.1743 F200.00
G01 X37.3443 Y18.4707 F200.00
G01 X37.2133 Y18.6174 F200.00
G01 X37.0767 Y18.7383 F200.00
G01 X36.7803 Y18.9246 F200.00
G01 X36.5986 Y18.9999 F200.00
G01 X36.3927 Y19.0548 F200.00
G01 X30.7547 Y24.6927 F200.00
G01 X30.5822 Y24.8471 F200.00
G01 X30.3881 Y24.9859 F200.00
G01 X30.0680 Y25.1491 F200.00
G01 X30.0678 Y33.0271 F200.00
G01 X30.0552 Y33.2512 F200.00
G01 X30.0160 Y33.4865 F200.00
G01 X29.9460 Y33.7295 F200.00
G01 X29.8602 Y33.9368 F200.00
G01 X29.7454 Y34.1460 F200.00
G01 X29.5991 Y34.3522 F200.00
G01 X29.4395 Y34.5296 F200.00
G01 X29.2722 Y34.6791 F200.00
G01 X29.0781 Y34.8179 F200.00
G01 X28.8575 Y34.9399 F200.00
G01 X28.6495 Y35.0260 F200.00
G01 X28.4204 Y35.0929 F200.00
G01 X28.1712 Y35.1352 F200.00
G01 X27.9400 Y35.1480 F200.00
G01 X27.7088 Y35.1352 F200.00
G01 X27.4596 Y35.0929 F200.00
G01 X27.2305 Y35.0260 F200.00
G01 X27.0104 Y34.9340 F200.00
G01 X26.8034 Y34.8189 F200.00
G01 X26.6189 Y34.6880 F200.00
G01 X26.4304 Y34.5195 F200.00
G01 X26.2809 Y34.3522 F200.00
G01 X26.1421 Y34.1581 F200.00
G01 X26.0201 Y33.9375 F200.00
G01 X25.9293 Y33.7160 F200.00
G01 X25.8645 Y33.4893 F200.00
G01 X25.8264 Y33.2653 F200.00
G01 X25.8120 Y33.0200 F200.00
G00 Z1.0000
G00 X38.2564 Y38.7549
G01 F100.00
G01 Z-0.1000
G01 F200.00
G01 X38.2483 Y38.6009 F200.00
G01 X38.2812 Y38.3088 F200.00
G01 X38.3279 Y38.1469 F200.00
G01 X38.4554 Y37.8821 F200.00
G01 X38.6563 Y37.6302 F200.00
G01 X38.8861 Y37.4469 F200.00
G01 X39.0328 Y37.3657 F200.00
G01 X39.3220 Y37.2657 F200.00
G01 X39.6311 Y37.2323 F200.00
G01 X39.9232 Y37.2652 F200.00
G01 X40.0716 Y37.3071 F200.00
G01 X40.2273 Y37.3716 F200.00
G01 X40.4092 Y37.4805 F200.00
G01 X41.1890 Y37.4805 F200.00
G01 X43.0685 Y35.6010 F200.00
G01 X43.0687 Y35.0449 F200.00
G01 X43.0954 Y34.8081 F200.00
G01 X43.1834 Y34.5565 F200.00
G01 X43.3191 Y34.3436 F200.00
G01 X43.4876 Y34.1751 F200.00
G01 X43.6023 Y34.0937 F200.00
G01 X43.8304 Y33.9856 F200.00
G01 X44.0765 Y33.9313 F200.00
G01 X44.2313 Y33.8051 F200.00
G01 X44.4210 Y33.7137 F200.00
G01 X44.5987 Y33.6731 F200.00
G01 X44.7040 Y33.6666 F200.00
G01 X53.2285 Y33.6666 F200.00
G01 X53.2285 Y31.4960 F200.00
G01 X53.2585 Y31.2382 F200.00
G01 X53.3372 Y31.0133 F200.00
G01 X53.3977 Y30.9023 F200.00
G01 X53.5639 Y30.6938 F200.00
G01 X53.6587 Y30.6102 F200.00
G01 X53.8605 Y30.4834 F200.00
G01 X54.1093 Y30.3959 F200.00
G01 X54.3489 Y30.3687 F200.00
G01 X54.4893 Y30.3766 F200.00
G01 X54.7216 Y30.4296 F200.00
G01 X54.8515 Y30.4834 F200.00
G01 X55.0533 Y30.6102 F200.00
G01 X55.1582 Y30.7039 F200.00
G01 X55.3067 Y30.8902 F200.00
G01 X55.3745 Y31.0126 F200.00
G01 X55.4561 Y31.2493 F200.00
G01 X55.4833 Y31.4889 F200.00
G01 X55.4835 Y33.6666 F200.00
G01 X56.1881 Y33.6666 F200.00
G01 X56.4126 Y33.5255 F200.00
G01 X56.6493 Y33.4439 F200.00
G01 X56.8960 Y33.4165 F200.00
G01 X57.1538 Y33.4465 F200.00
G01 X57.3787 Y33.5252 F200.00
G01 X57.4897 Y33.5857 F200.00
G01 X57.6982 Y33.7519 F200.00
G01 X57.7818 Y33.8467 F200.00
G01 X57.9086 Y34.0485 F200.00
G01 X57.9961 Y34.2973 F200.00
G01 X58.0235 Y34.5440 F200.00
G01 X58.0154 Y39.2493 F200.00
G01 X57.9624 Y39.4816 F200.00
G01 X57.9086 Y39.6115 F200.00
G01 X57.7818 Y39.8133 F200.00
G01 X57.6982 Y39.9081 F200.00
G01 X57.4897 Y40.0743 F200.00
G01 X57.2750 Y40.1777 F200.00
G01 X57.1427 Y40.2161 F200.00
G01 X56.8960 Y40.2435 F200.00
G01 X56.6521 Y40.2166 F200.00
G01 X56.5170 Y40.1777 F200.00
G01 X56.2917 Y40.0677 F200.00
G01 X56.1039 Y39.9182 F200.00
G01 X56.0102 Y39.8133 F200.00
G01 X55.8775 Y39.5994 F200.00
G01 X55.7985 Y39.3738 F200.00
G01 X55.7685 Y39.1160 F200.00
G01 X55.7685 Y35.4214 F200.00
G01 X55.0639 Y35.4214 F200.00
G01 X54.9497 Y35.5023 F200.00
G01 X54.7350 Y35.6057 F200.00
G01 X54.5999 Y35.6446 F200.00
G01 X54.3560 Y35.6715 F200.00
G01 X54.1121 Y35.6446 F200.00
G01 X53.9770 Y35.6057 F200.00
G01 X53.7623 Y35.5023 F200.00
G01 X53.6486 Y35.4214 F200.00
G01 X45.3235 Y35.4214 F200.00
G01 X45.3233 Y36.0751 F200.00
G01 X45.2966 Y36.3119 F200.00
G01 X45.2148 Y36.5507 F200.00
G01 X45.0818 Y36.7653 F200.00
G01 X42.4533 Y39.4053 F200.00
G01 X42.2618 Y39.5587 F200.00
G01 X42.1394 Y39.6265 F200.00
G01 X41.9138 Y39.7055 F200.00
G01 X41.7751 Y39.7290 F200.00
G01 X40.4092 Y39.7355 F200.00
G01 X40.2152 Y39.8503 F200.00
G01 X39.9260 Y39.9503 F200.00
G01 X39.6240 Y39.9839 F200.00
G01 X39.3248 Y39.9508 F200.00
G01 X39.1629 Y39.9041 F200.00
G01 X38.8875 Y39.7701 F200.00
G01 X38.7607 Y39.6791 F200.00
G01 X38.5529 Y39.4713 F200.00
G01 X38.4554 Y39.3339 F200.00
G01 X38.3279 Y39.0691 F200.00
G01 X38.2564 Y38.7549 F200.00
G00 Z1.0000
G00 X50.6885 Y42.0200
G01 F100.00
G01 Z-0.1000
G01 F200.00
G01 X50.6885 Y39.1160 F200.00
G01 X50.7185 Y38.8582 F200.00
G01 X50.7972 Y38.6333 F200.00
G01 X50.8643 Y38.5117 F200.00
G01 X51.0138 Y38.3239 F200.00
G01 X51.1187 Y38.2302 F200.00
G01 X51.3205 Y38.1034 F200.00
G01 X51.4504 Y38.0496 F200.00
G01 X51.6827 Y37.9966 F200.00
G01 X51.8160 Y37.9885 F200.00
G01 X51.9493 Y37.9966 F200.00
G01 X52.1816 Y38.0496 F200.00
G01 X52.4218 Y38.1653 F200.00
G01 X52.6081 Y38.3138 F200.00
G01 X52.7018 Y38.4187 F200.00
G01 X52.8286 Y38.6205 F200.00
G01 X52.8777 Y38.7370 F200.00
G01 X52.9166 Y38.8721 F200.00
G01 X52.9433 Y39.1089 F200.00
G01 X52.9435 Y40.8925 F200.00
G01 X56.6229 Y40.8925 F200.00
G01 X56.8960 Y40.8552 F200.00
G01 X57.1237 Y40.8803 F200.00
G01 X57.3850 Y40.9583 F200.00
G01 X57.5997 Y41.0617 F200.00
G01 X57.7144 Y41.1431 F200.00
G01 X57.8829 Y41.3116 F200.00
G01 X57.9643 Y41.4263 F200.00
G01 X58.0677 Y41.6410 F200.00
G01 X58.1066 Y41.7761 F200.00
G01 X58.1335 Y42.0200 F200.00
G01 X58.1066 Y42.2639 F200.00
G01 X58.0248 Y42.5027 F200.00
G01 X57.8918 Y42.7173 F200.00
G01 X57.7981 Y42.8222 F200.00
G01 X57.5997 Y42.9783 F200.00
G01 X57.3850 Y43.0817 F200.00
G01 X57.2499 Y43.1206 F200.00
G01 X57.0060 Y43.1475 F200.00
G01 X51.8160 Y43.1475 F200.00
G01 X51.5721 Y43.1206 F200.00
G01 X51.4370 Y43.0817 F200.00
G01 X51.2117 Y42.9717 F200.00
G01 X51.1076 Y42.8969 F200.00
G01 X50.9391 Y42.7284 F200.00
G01 X50.8577 Y42.6137 F200.00
G01 X50.7543 Y42.3990 F200.00
G01 X50.7154 Y42.2639 F200.00
G01 X50.6885 Y42.0200 F200.00
G00 Z1.0000
G00 X58.3085 Y45.2120
G01 F100.00
G01 Z-0.1000
G01 F200.00
G01 X58.3085 Y39.1160 F200.00
G01 X58.3354 Y38.8721 F200.00
G01 X58.4172 Y38.6333 F200.00
G01 X58.4853 Y38.5102 F200.00
G01 X58.6439 Y38.3138 F200.00
G01 X58.8302 Y38.1653 F200.00
G01 X58.9533 Y38.0972 F200.00
G01 X59.1921 Y38.0154 F200.00
G01 X59.4360 Y37.9885 F200.00
G01 X59.6799 Y38.0154 F200.00
G01 X59.9315 Y38.1034 F200.00
G01 X60.1333 Y38.2302 F200.00
G01 X60.2382 Y38.3239 F200.00
G01 X60.3867 Y38.5102 F200.00
G01 X60.4545 Y38.6326 F200.00
G01 X60.5024 Y38.7504 F200.00
G01 X60.5554 Y38.9827 F200.00
G01 X60.5635 Y45.2120 F200.00
G01 X60.5366 Y45.4559 F200.00
G01 X60.4977 Y45.5910 F200.00
G01 X60.3877 Y45.8163 F200.00
G01 X60.2382 Y46.0041 F200.00
G01 X60.1333 Y46.0978 F200.00
G01 X59.9194 Y46.2305 F200.00
G01 X59.6938 Y46.3095 F200.00
G01 X59.5551 Y46.3330 F200.00
G01 X59.3169 Y46.3330 F200.00
G01 X59.0704 Y46.2784 F200.00
G01 X58.9405 Y46.2246 F200.00
G01 X58.7387 Y46.0978 F200.00
G01 X58.6338 Y46.0041 F200.00
G01 X58.4777 Y45.8057 F200.00
G01 X58.3743 Y45.5910 F200.00
G01 X58.3354 Y45.4559 F200.00
G01 X58.3085 Y45.2120 F200.00
G00 Z1.0000
G00 X65.9352 Y45.3311
G01 F100.00
G01 Z-0.1000
G01 F200.00
G01 X65.9285 Y42.1640 F200.00
G01 X65.9366 Y42.0307 F200.00
G01 X65.9896 Y41.7984 F200.00
G01 X66.1043 Y41.5597 F200.00
G01 X66.2587 Y41.3667 F200.00
G01 X67.2799 Y40.3458 F200.00
G01 X67.4662 Y40.1973 F200.00
G01 X67.5886 Y40.1295 F200.00
G01 X67.8253 Y40.0479 F200.00
G01 X68.0720 Y40.0205 F200.00
G01 X68.3159 Y40.0474 F200.00
G01 X68.4510 Y40.0863 F200.00
G01 X68.6657 Y40.1897 F200.00
G01 X68.7794 Y40.2706 F200.00
G01 X74.6003 Y40.2706 F200.00
G01 X74.7322 Y40.1950 F200.00
G01 X74.9424 Y40.1214 F200.00
G01 X75.0730 Y40.0992 F200.00
G01 X75.2950 Y40.0992 F200.00
G01 X75.5256 Y40.1502 F200.00
G01 X75.7511 Y40.2588 F200.00
G01 X75.9247 Y40.3972 F200.00
G01 X76.0041 Y40.4849 F200.00
G01 X76.1370 Y40.6962 F200.00
G01 X76.2132 Y40.9175 F200.00
G01 X76.2388 Y41.1480 F200.00
G01 X76.2106 Y41.3896 F200.00
G01 X76.1311 Y41.6120 F200.00
G01 X76.0041 Y41.8111 F200.00
G01 X75.8360 Y41.9770 F200.00
G01 X75.6358 Y42.1010 F200.00
G01 X75.4117 Y42.1777 F200.00
G01 X75.1840 Y42.2028 F200.00
G01 X74.9563 Y42.1777 F200.00
G01 X74.7328 Y42.1013 F200.00
G01 X74.6003 Y42.0254 F200.00
G01 X68.7892 Y42.0254 F200.00
G01 X68.1835 Y42.6310 F200.00
G01 X68.1770 Y45.3311 F200.00
G01 X68.1535 Y45.4698 F200.00
G01 X68.0748 Y45.6947 F200.00
G01 X67.9329 Y45.9204 F200.00
G01 X67.7644 Y46.0889 F200.00
G01 X67.6497 Y46.1703 F200.00
G01 X67.5387 Y46.2308 F200.00
G01 X67.3138 Y46.3095 F200.00
G01 X67.0489 Y46.3393 F200.00
G01 X66.9227 Y46.3314 F200.00
G01 X66.6904 Y46.2784 F200.00
G01 X66.5605 Y46.2246 F200.00
G01 X66.3587 Y46.0978 F200.00
G01 X66.1702 Y45.9093 F200.00
G01 X66.0434 Y45.7075 F200.00
G01 X65.9943 Y45.5910 F200.00
G01 X65.9352 Y45.3311 F200.00
G00 Z1.0000
G00 X77.7091 Y50.1470
G01 F100.00
G01 Z-0.1000
G01 F200.00
G01 X77.7088 Y49.9290 F200.00
G01 X77.7589 Y49.7023 F200.00
G01 X77.8582 Y49.4924 F200.00
G01 X77.9338 Y49.3859 F200.00
G01 X78.0879 Y49.2318 F200.00
G01 X78.2837 Y49.1069 F200.00
G01 X78.5023 Y49.0287 F200.00
G01 X78.6310 Y49.0068 F200.00
G01 X78.8490 Y49.0068 F200.00
G01 X79.0757 Y49.0569 F200.00
G01 X79.2856 Y49.1562 F200.00
G01 X79.3921 Y49.2318 F200.00
G01 X79.5462 Y49.3859 F200.00
G01 X79.6711 Y49.5817 F200.00
G01 X79.7493 Y49.8003 F200.00
G01 X79.7712 Y49.9290 F200.00
G01 X79.7712 Y50.1470 F200.00
G01 X79.7211 Y50.3737 F200.00
G01 X79.6218 Y50.5836 F200.00
G01 X79.5462 Y50.6901 F200.00
G01 X79.3921 Y50.8442 F200.00
G01 X79.1963 Y50.9691 F200.00
G01 X78.9777 Y51.0473 F200.00
G01 X78.8490 Y51.0692 F200.00
G01 X78.6310 Y51.0692 F200.00
G01 X78.4043 Y51.0191 F200.00
G01 X78.1944 Y50.9198 F200.00
G01 X78.0879 Y50.8442 F200.00
G01 X77.9338 Y50.6901 F200.00
G01 X77.8089 Y50.4943 F200.00
G01 X77.7307 Y50.2757 F200.00
G01 X77.7091 Y50.1470 F200.00
G00 Z1.0000
G00 X76.8518 Y35.1431
G01 F100.00
G01 Z-0.1000
G01 F200.00
G01 X76.8515 Y34.9609 F200.00
G01 X76.8937 Y34.7690 F200.00
G01 X76.9775 Y34.5913 F200.00
G01 X77.0987 Y34.4368 F200.00
G01 X77.3149 Y34.2319 F200.00
G01 X77.5140 Y34.1049 F200.00
G01 X77.7475 Y34.0228 F200.00
G01 X77.9780 Y33.9972 F200.00
G01 X78.1032 Y34.0048 F200.00
G01 X78.3196 Y34.0542 F200.00
G01 X78.5617 Y34.1746 F200.00
G01 X80.4600 Y34.1746 F200.00
G01 X80.5717 Y34.1426 F200.00
G01 X80.7720 Y34.1206 F200.00
G01 X80.9862 Y34.1457 F200.00
G01 X81.1696 Y34.2099 F200.00
G01 X81.2720 Y34.2663 F200.00
G01 X81.4254 Y34.3885 F200.00
G01 X81.5045 Y34.4770 F200.00
G01 X81.6079 Y34.6416 F200.00
G01 X81.6533 Y34.7512 F200.00
G01 X81.6965 Y34.9407 F200.00
G01 X81.7034 Y35.0520 F200.00
G01 X81.6965 Y35.1633 F200.00
G01 X81.6533 Y35.3528 F200.00
G01 X81.6079 Y35.4624 F200.00
G01 X81.5045 Y35.6270 F200.00
G01 X81.4254 Y35.7155 F200.00
G01 X81.2735 Y35.8367 F200.00
G01 X81.1703 Y35.8938 F200.00
G01 X80.9862 Y35.9583 F200.00
G01 X80.7720 Y35.9834 F200.00
G01 X80.5717 Y35.9614 F200.00
G01 X80.4601 Y35.9294 F200.00
G01 X78.5617 Y35.9294 F200.00
G01 X78.3196 Y36.0498 F200.00
G01 X78.1032 Y36.0992 F200.00
G01 X77.9780 Y36.1068 F200.00
G01 X77.7503 Y36.0817 F200.00
G01 X77.6230 Y36.0451 F200.00
G01 X77.4229 Y35.9487 F200.00
G01 X77.3149 Y35.8721 F200.00
G01 X77.0987 Y35.6672 F200.00
G01 X76.9851 Y35.5247 F200.00
G01 X76.8937 Y35.3350 F200.00
G01 X76.8518 Y35.1431 F200.00
G00 Z1.0000
G00 X74.1355 Y32.6230
G01 F100.00
G01 Z-0.1000
G01 F200.00
G01 X74.1352 Y32.4010 F200.00
G01 X74.1862 Y32.1704 F200.00
G01 X74.2938 Y31.9463 F200.00
G01 X74.4332 Y31.7713 F200.00
G01 X74.5320 Y31.6830 F200.00
G01 X74.7322 Y31.5590 F200.00
G01 X74.9535 Y31.4828 F200.00
G01 X75.1840 Y31.4572 F200.00
G01 X75.3092 Y31.4648 F200.00
G01 X75.5256 Y31.5142 F200.00
G01 X75.7677 Y31.6346 F200.00
G01 X80.4600 Y31.6346 F200.00
G01 X80.6748 Y31.5859 F200.00
G01 X80.8833 Y31.5875 F200.00
G01 X81.0728 Y31.6307 F200.00
G01 X81.2614 Y31.7197 F200.00
G01 X81.3582 Y31.7884 F200.00
G01 X81.4956 Y31.9258 F200.00
G01 X81.5643 Y32.0226 F200.00
G01 X81.6486 Y32.1977 F200.00
G01 X81.6814 Y32.3117 F200.00
G01 X81.7034 Y32.5120 F200.00
G01 X81.6814 Y32.7123 F200.00
G01 X81.6486 Y32.8263 F200.00
G01 X81.5643 Y33.0014 F200.00
G01 X81.4956 Y33.0982 F200.00
G01 X81.3582 Y33.2356 F200.00
G01 X81.2614 Y33.3043 F200.00
G01 X81.0728 Y33.3933 F200.00
G01 X80.8833 Y33.4365 F200.00
G01 X80.6748 Y33.4381 F200.00
G01 X80.4601 Y33.3894 F200.00
G01 X75.7677 Y33.3894 F200.00
G01 X75.5256 Y33.5098 F200.00
G01 X75.3092 Y33.5592 F200.00
G01 X75.1840 Y33.5668 F200.00
G01 X74.9563 Y33.5417 F200.00
G01 X74.8290 Y33.5051 F200.00
G01 X74.6183 Y33.4022 F200.00
G01 X74.4433 Y33.2628 F200.00
G01 X74.3550 Y33.1640 F200.00
G01 X74.2310 Y32.9638 F200.00
G01 X74.1574 Y32.7536 F200.00
G01 X74.1355 Y32.6230 F200.00
G00 Z1.0000
G00 X65.1654 Y26.7197
G01 F100.00
G01 Z-0.1000
G01 F200.00
G01 X64.9160 Y26.6153 F200.00
G01 X64.6510 Y26.5615 F200.00
G01 X64.5158 Y26.5542 F200.00
G01 X64.3806 Y26.5602 F200.00
G01 X64.1151 Y26.6116 F200.00
G01 X63.8647 Y26.7136 F200.00
G00 Z1.0000
G00 X54.3952 Y28.0591
G01 F100.00
G01 Z-0.1000
G01 F200.00
G01 X54.3966 Y27.8067 F200.00
G01 X54.4543 Y27.5610 F200.00
G01 X54.5643 Y27.3357 F200.00
G01 X54.7239 Y27.1378 F200.00
G01 X54.9223 Y26.9817 F200.00
G01 X55.1504 Y26.8736 F200.00
G01 X55.3969 Y26.8190 F200.00
G01 X55.6493 Y26.8206 F200.00
G01 X55.8816 Y26.8736 F200.00
G01 X55.9987 Y26.9212 F200.00
G01 X56.2244 Y27.0631 F200.00
G01 X57.7818 Y28.6227 F200.00
G01 X57.9086 Y28.8245 F200.00
G01 X57.9577 Y28.9410 F200.00
G01 X58.0170 Y29.2009 F200.00
G01 X58.0233 Y31.5031 F200.00
G01 X57.9935 Y31.7538 F200.00
G01 X57.9086 Y31.9915 F200.00
G01 X57.7729 Y32.2044 F200.00
G01 X57.5933 Y32.3818 F200.00
G01 X57.3794 Y32.5145 F200.00
G01 X57.1538 Y32.5935 F200.00
G01 X57.0151 Y32.6170 F200.00
G01 X56.7627 Y32.6154 F200.00
G01 X56.5304 Y32.5624 F200.00
G01 X56.3023 Y32.4543 F200.00
G01 X56.1876 Y32.3729 F200.00
G01 X56.0102 Y32.1933 F200.00
G01 X55.8834 Y31.9915 F200.00
G01 X55.8343 Y31.8750 F200.00
G01 X55.7750 Y31.6151 F200.00
G01 X55.7685 Y29.7870 F200.00
G01 X54.6302 Y28.6373 F200.00
G01 X54.5034 Y28.4355 F200.00
G01 X54.4543 Y28.3190 F200.00
G01 X54.3952 Y28.0591 F200.00
G00 Z1.0000
G00 X50.6952 Y25.7091
G01 F100.00
G01 Z-0.1000
G01 F200.00
G01 X50.6950 Y25.4709 F200.00
G01 X50.7496 Y25.2244 F200.00
G01 X50.8034 Y25.0945 F200.00
G01 X50.9391 Y24.8816 F200.00
G01 X51.1187 Y24.7042 F200.00
G01 X51.3205 Y24.5774 F200.00
G01 X51.5582 Y24.4925 F200.00
G01 X51.6969 Y24.4690 F200.00
G01 X69.4060 Y24.4625 F200.00
G01 X69.6499 Y24.4894 F200.00
G01 X69.7850 Y24.5283 F200.00
G01 X69.9830 Y24.6128 F200.00
G01 X70.1373 Y24.7098 F200.00
G01 X70.2213 Y24.7848 F200.00
G01 X70.3349 Y24.9273 F200.00
G01 X70.4724 Y25.2244 F200.00
G01 X70.5254 Y25.4567 F200.00
G01 X70.5333 Y25.5829 F200.00
G01 X70.5035 Y25.8478 F200.00
G01 X70.4248 Y26.0727 F200.00
G01 X70.3577 Y26.1943 F200.00
G01 X70.2829 Y26.2984 F200.00
G01 X70.1144 Y26.4669 F200.00
G01 X69.8894 Y26.6085 F200.00
G01 X69.6527 Y26.6901 F200.00
G01 X69.4060 Y26.7175 F200.00
G01 X65.1661 Y26.7175 F200.00
G01 X65.3804 Y26.8575 F200.00
G01 X65.5974 Y27.0768 F200.00
G01 X65.7598 Y27.3381 F200.00
G01 X65.8573 Y27.6166 F200.00
G01 X65.8936 Y27.9300 F200.00
G01 X65.8936 Y29.4014 F200.00
G01 X69.0461 Y32.5539 F200.00
G01 X69.1534 Y32.6748 F200.00
G01 X69.3099 Y32.9239 F200.00
G01 X69.4165 Y33.2284 F200.00
G01 X69.4494 Y33.5209 F200.00
G01 X69.4400 Y33.6893 F200.00
G01 X69.3745 Y33.9762 F200.00
G01 X69.3099 Y34.1321 F200.00
G01 X69.1534 Y34.3812 F200.00
G01 X69.0510 Y34.4970 F200.00
G01 X68.9252 Y34.6094 F200.00
G01 X68.6761 Y34.7659 F200.00
G01 X68.5202 Y34.8305 F200.00
G01 X68.2333 Y34.8960 F200.00
G01 X68.0649 Y34.9054 F200.00
G01 X67.7724 Y34.8725 F200.00
G01 X67.6103 Y34.8258 F200.00
G01 X67.3346 Y34.6915 F200.00
G01 X67.0979 Y34.5021 F200.00
G01 X63.5419 Y30.9461 F200.00
G01 X63.3535 Y30.7109 F200.00
G01 X63.2135 Y30.4202 F200.00
G01 X63.1464 Y30.1191 F200.00
G01 X63.1480 Y27.7687 F200.00
G01 X63.2182 Y27.4683 F200.00
G01 X63.3525 Y27.1926 F200.00
G01 X63.5470 Y26.9510 F200.00
G01 X63.6628 Y26.8486 F200.00
G01 X63.8659 Y26.7175 F200.00
G01 X60.5635 Y26.7175 F200.00
G01 X60.5635 Y33.8230 F200.00
G01 X63.4552 Y36.7146 F200.00
G01 X80.4600 Y36.7146 F200.00
G01 X80.6607 Y36.6675 F200.00
G01 X80.8692 Y36.6659 F200.00
G01 X81.0728 Y36.7107 F200.00
G01 X81.2720 Y36.8063 F200.00
G01 X81.4355 Y36.9386 F200.00
G01 X81.5643 Y37.1026 F200.00
G01 X81.6533 Y37.2912 F200.00
G01 X81.6981 Y37.4948 F200.00
G01 X81.6965 Y37.7033 F200.00
G01 X81.6486 Y37.9063 F200.00
G01 X81.5643 Y38.0814 F200.00
G01 X81.5045 Y38.1670 F200.00
G01 X81.4254 Y38.2555 F200.00
G01 X81.2735 Y38.3767 F200.00
G01 X81.0728 Y38.4733 F200.00
G01 X80.8833 Y38.5165 F200.00
G01 X80.7791 Y38.5232 F200.00
G01 X80.6607 Y38.5165 F200.00
G01 X80.4601 Y38.4694 F200.00
G01 X63.7385 Y38.4694 F200.00
G01 X63.7385 Y42.8400 F200.00
G01 X65.3929 Y44.5036 F200.00
G01 X65.4743 Y44.6183 F200.00
G01 X65.5777 Y44.8330 F200.00
G01 X65.6166 Y44.9681 F200.00
G01 X65.6433 Y45.2049 F200.00
G01 X65.6166 Y45.4559 F200.00
G01 X65.5286 Y45.7075 F200.00
G01 X65.3929 Y45.9204 F200.00
G01 X65.2133 Y46.0978 F200.00
G01 X64.9987 Y46.2308 F200.00
G01 X64.8816 Y46.2784 F200.00
G01 X64.6493 Y46.3314 F200.00
G01 X64.3827 Y46.3314 F200.00
G01 X64.1370 Y46.2737 F200.00
G01 X63.9117 Y46.1637 F200.00
G01 X63.7239 Y46.0142 F200.00
G01 X61.8137 Y44.1043 F200.00
G01 X61.6527 Y43.9007 F200.00
G01 X61.5446 Y43.6726 F200.00
G01 X61.4900 Y43.4261 F200.00
G01 X61.4835 Y42.2421 F200.00
G01 X61.4368 Y42.0352 F200.00
G01 X61.4292 Y41.9100 F200.00
G01 X61.4368 Y41.7848 F200.00
G01 X61.4835 Y41.5779 F200.00
G01 X61.4835 Y37.9320 F200.00
G01 X58.6387 Y35.0873 F200.00
G01 X58.4777 Y34.8837 F200.00
G01 X58.3696 Y34.6556 F200.00
G01 X58.3166 Y34.4233 F200.00
G01 X58.3085 Y34.2900 F200.00
G01 X58.3085 Y26.7175 F200.00
G01 X51.6827 Y26.7094 F200.00
G01 X51.4504 Y26.6564 F200.00
G01 X51.3205 Y26.6026 F200.00
G01 X51.1187 Y26.4758 F200.00
G01 X51.0138 Y26.3821 F200.00
G01 X50.8653 Y26.1958 F200.00
G01 X50.7975 Y26.0734 F200.00
G01 X50.7185 Y25.8478 F200.00
G01 X50.6952 Y25.7091 F200.00
G00 Z1.0000
G00 X77.7885 Y15.3335
G01 F100.00
G01 Z-0.1000
G01 F200.00
G01 X77.8535 Y15.4234 F200.00
G01 X78.0082 Y15.5821 F200.00
G01 X78.1909 Y15.7076 F200.00
G01 X78.3946 Y15.7952 F200.00
G01 X78.6114 Y15.8414 F200.00
G01 X78.7221 Y15.8484 F200.00
G01 X78.8330 Y15.8445 F200.00
G01 X79.0510 Y15.8044 F200.00
G01 X79.2570 Y15.7225 F200.00
G01 X79.3530 Y15.6669 F200.00
G01 X79.5265 Y15.5289 F200.00
G01 X79.6698 Y15.3598 F200.00
G00 Z1.0000
G00 X51.2032 Y55.7080
G01 F100.00
G01 Z-0.1000
G01 F200.00
G01 X51.1965 Y52.8220 F200.00
G01 X51.2234 Y52.5781 F200.00
G01 X51.2623 Y52.4430 F200.00
G01 X51.3723 Y52.2177 F200.00
G01 X51.5218 Y52.0299 F200.00
G01 X51.6267 Y51.9362 F200.00
G01 X51.8406 Y51.8035 F200.00
G01 X52.0773 Y51.7219 F200.00
G01 X52.3169 Y51.6947 F200.00
G01 X52.4573 Y51.7026 F200.00
G01 X52.7030 Y51.7603 F200.00
G01 X52.8195 Y51.8094 F200.00
G01 X53.0213 Y51.9362 F200.00
G01 X53.2098 Y52.1247 F200.00
G01 X53.3428 Y52.3393 F200.00
G01 X53.3904 Y52.4564 F200.00
G01 X53.4434 Y52.6887 F200.00
G01 X53.4513 Y55.5960 F200.00
G01 X53.4215 Y55.8467 F200.00
G01 X53.3857 Y55.9679 F200.00
G01 X53.2892 Y56.1701 F200.00
G01 X53.2823 Y56.4684 F200.00
G01 X53.2520 Y56.5169 F200.00
G01 X53.1900 Y56.5510 F200.00
G01 X52.9052 Y56.5541 F200.00
G01 X52.7030 Y56.6506 F200.00
G01 X52.5818 Y56.6864 F200.00
G01 X52.3311 Y56.7162 F200.00
G01 X52.0662 Y56.6864 F200.00
G01 X51.9450 Y56.6506 F200.00
G01 X51.7428 Y56.5541 F200.00
G01 X51.4445 Y56.5472 F200.00
G01 X51.3960 Y56.5169 F200.00
G01 X51.3657 Y56.4684 F200.00
G01 X51.3588 Y56.1701 F200.00
G01 X51.2576 Y55.9545 F200.00
G01 X51.2032 Y55.7080 F200.00
G00 Z1.0000
G00 X38.3525 Y54.2120
G01 F100.00
G01 Z-0.1000
G01 F200.00
G01 X38.3527 Y52.8249 F200.00
G01 X38.3794 Y52.5881 F200.00
G01 X38.4183 Y52.4530 F200.00
G01 X38.4674 Y52.3365 F200.00
G01 X38.5942 Y52.1347 F200.00
G01 X38.7716 Y51.9551 F200.00
G01 X38.9845 Y51.8194 F200.00
G01 X39.2222 Y51.7345 F200.00
G01 X39.4800 Y51.7045 F200.00
G01 X39.7378 Y51.7345 F200.00
G01 X39.9755 Y51.8194 F200.00
G01 X40.1773 Y51.9462 F200.00
G01 X40.2721 Y52.0298 F200.00
G01 X40.4383 Y52.2383 F200.00
G01 X40.5464 Y52.4664 F200.00
G01 X40.6010 Y52.7129 F200.00
G01 X40.6075 Y53.0845 F200.00
G01 X42.1625 Y53.0845 F200.00
G01 X42.1690 Y52.7469 F200.00
G01 X42.1925 Y52.6082 F200.00
G01 X42.2774 Y52.3705 F200.00
G01 X42.4042 Y52.1687 F200.00
G01 X42.5816 Y51.9891 F200.00
G01 X42.6963 Y51.9077 F200.00
G01 X42.9110 Y51.8043 F200.00
G01 X43.1567 Y51.7466 F200.00
G01 X43.2971 Y51.7387 F200.00
G01 X43.5339 Y51.7654 F200.00
G01 X43.7727 Y51.8472 F200.00
G01 X43.8958 Y51.9153 F200.00
G01 X44.0821 Y52.0638 F200.00
G01 X44.1758 Y52.1687 F200.00
G01 X44.3085 Y52.3826 F200.00
G01 X44.3875 Y52.6082 F200.00
G01 X44.4175 Y52.8660 F200.00
G01 X44.4175 Y54.2120 F200.00
G01 X44.4094 Y54.3453 F200.00
G01 X44.3564 Y54.5776 F200.00
G01 X44.2417 Y54.8163 F200.00
G01 X44.0821 Y55.0142 F200.00
G01 X43.9873 Y55.0978 F200.00
G01 X43.7855 Y55.2246 F200.00
G01 X43.5478 Y55.3095 F200.00
G01 X43.2900 Y55.3395 F200.00
G01 X41.7801 Y55.3395 F200.00
G01 X41.6325 Y55.3852 F200.00
G01 X41.4020 Y55.4108 F200.00
G01 X41.1743 Y55.3857 F200.00
G01 X41.0239 Y55.3395 F200.00
G01 X39.4800 Y55.3395 F200.00
G01 X39.2361 Y55.3126 F200.00
G01 X39.1010 Y55.2737 F200.00
G01 X38.8757 Y55.1637 F200.00
G01 X38.7716 Y55.0889 F200.00
G01 X38.6031 Y54.9204 F200.00
G01 X38.5217 Y54.8057 F200.00
G01 X38.4183 Y54.5910 F200.00
G01 X38.3794 Y54.4559 F200.00
G01 X38.3525 Y54.2120 F200.00
G00 Z1.0000
G00 X29.3592 Y55.7080
G01 F100.00
G01 Z-0.1000
G01 F200.00
G01 X29.3525 Y52.8420 F200.00
G01 X29.3794 Y52.5981 F200.00
G01 X29.4183 Y52.4630 F200.00
G01 X29.5283 Y52.2377 F200.00
G01 X29.6778 Y52.0499 F200.00
G01 X29.7827 Y51.9562 F200.00
G01 X29.9966 Y51.8235 F200.00
G01 X30.2333 Y51.7419 F200.00
G01 X30.4729 Y51.7147 F200.00
G01 X30.6133 Y51.7226 F200.00
G01 X30.8590 Y51.7803 F200.00
G01 X30.9755 Y51.8294 F200.00
G01 X31.1773 Y51.9562 F200.00
G01 X31.3658 Y52.1447 F200.00
G01 X31.4988 Y52.3593 F200.00
G01 X31.5464 Y52.4764 F200.00
G01 X31.5994 Y52.7087 F200.00
G01 X31.6073 Y55.5960 F200.00
G01 X31.5775 Y55.8467 F200.00
G01 X31.5417 Y55.9679 F200.00
G01 X31.4452 Y56.1701 F200.00
G01 X31.4383 Y56.4684 F200.00
G01 X31.4080 Y56.5169 F200.00
G01 X31.3460 Y56.5510 F200.00
G01 X31.0612 Y56.5541 F200.00
G01 X30.8590 Y56.6506 F200.00
G01 X30.7378 Y56.6864 F200.00
G01 X30.4871 Y56.7162 F200.00
G01 X30.2222 Y56.6864 F200.00
G01 X30.1010 Y56.6506 F200.00
G01 X29.8988 Y56.5541 F200.00
G01 X29.6005 Y56.5472 F200.00
G01 X29.5520 Y56.5169 F200.00
G01 X29.5217 Y56.4684 F200.00
G01 X29.5148 Y56.1701 F200.00
G01 X29.4136 Y55.9545 F200.00
G01 X29.3592 Y55.7080 F200.00
G00 Z1.0000
G00 X-0.6395 Y69.4357
G01 F100.00
G01 Z-0.1000
G01 F200.00
G01 X-0.6460 Y48.1460 F200.00
G01 X-0.6193 Y47.9092 F200.00
G01 X-0.5804 Y47.7741 F200.00
G01 X-0.4770 Y47.5594 F200.00
G01 X-0.3956 Y47.4447 F200.00
G01 X-0.2271 Y47.2762 F200.00
G01 X-0.1124 Y47.1948 F200.00
G01 X0.1023 Y47.0914 F200.00
G01 X0.2346 Y47.0530 F200.00
G01 X0.4813 Y47.0256 F200.00
G01 X0.7408 Y47.0560 F200.00
G01 X0.8628 Y47.0923 F200.00
G01 X1.3270 Y47.3102 F200.00
G01 X1.6431 Y47.4265 F200.00
G01 X1.9693 Y47.5109 F200.00
G01 X2.4989 Y47.6027 F200.00
G01 X2.7490 Y47.7093 F200.00
G01 X3.2028 Y48.0380 F200.00
G01 X3.5200 Y48.2247 F200.00
G01 X3.8556 Y48.3760 F200.00
G01 X4.2056 Y48.4900 F200.00
G01 X4.5658 Y48.5654 F200.00
G01 X4.9322 Y48.6014 F200.00
G01 X5.3002 Y48.5975 F200.00
G01 X5.6657 Y48.5537 F200.00
G01 X6.0243 Y48.4706 F200.00
G01 X6.3718 Y48.3491 F200.00
G01 X6.7040 Y48.1907 F200.00
G01 X7.1847 Y47.9028 F200.00
G01 X7.4185 Y47.8233 F200.00
G01 X7.6549 Y47.7969 F200.00
G01 X7.8249 Y47.8088 F200.00
G01 X8.2560 Y47.9202 F200.00
G01 X8.5008 Y47.9661 F200.00
G01 X8.9188 Y48.0129 F200.00
G01 X9.0431 Y48.0460 F200.00
G01 X9.2886 Y48.1609 F200.00
G01 X9.4791 Y48.3107 F200.00
G01 X9.5658 Y48.4056 F200.00
G01 X9.6488 Y48.5220 F200.00
G01 X9.7539 Y48.7404 F200.00
G01 X9.8130 Y49.0050 F200.00
G01 X9.8111 Y49.2473 F200.00
G01 X9.7890 Y49.3739 F200.00
G01 X9.7476 Y49.5108 F200.00
G01 X9.6390 Y49.7275 F200.00
G01 X9.4763 Y49.9260 F200.00
G01 X9.3676 Y50.0189 F200.00
G01 X9.1592 Y50.1426 F200.00
G01 X8.8079 Y50.3004 F200.00
G01 X8.5353 Y50.4605 F200.00
G01 X8.2818 Y50.6495 F200.00
G01 X8.0504 Y50.8650 F200.00
G01 X7.8440 Y51.1045 F200.00
G01 X7.6650 Y51.3651 F200.00
G01 X7.5155 Y51.6436 F200.00
G01 X7.3973 Y51.9369 F200.00
G01 X7.3119 Y52.2413 F200.00
G01 X7.2602 Y52.5532 F200.00
G01 X7.2412 Y52.8998 F200.00
G01 X7.2412 Y55.5598 F200.00
G01 X7.2581 Y55.8872 F200.00
G01 X7.3043 Y56.1823 F200.00
G01 X7.5186 Y57.0594 F200.00
G01 X7.5958 Y57.2443 F200.00
G01 X7.6921 Y57.4201 F200.00
G01 X7.8066 Y57.5846 F200.00
G01 X7.9378 Y57.7360 F200.00
G01 X8.0845 Y57.8727 F200.00
G01 X8.2447 Y57.9930 F200.00
G01 X8.4169 Y58.0957 F200.00
G01 X8.6596 Y58.2076 F200.00
G01 X8.8555 Y58.3246 F200.00
G01 X8.9585 Y58.4113 F200.00
G01 X9.1071 Y58.5843 F200.00
G01 X9.1774 Y58.6992 F200.00
G01 X9.2636 Y58.9104 F200.00
G01 X9.3690 Y59.4705 F200.00
G01 X9.4755 Y59.8344 F200.00
G01 X9.6220 Y60.1842 F200.00
G01 X9.8066 Y60.5154 F200.00
G01 X10.0270 Y60.8240 F200.00
G01 X10.2804 Y61.1060 F200.00
G01 X10.5638 Y61.3580 F200.00
G01 X10.8735 Y61.5768 F200.00
G01 X11.2057 Y61.7597 F200.00
G01 X11.5562 Y61.9043 F200.00
G01 X11.9206 Y62.0090 F200.00
G01 X12.2945 Y62.0723 F200.00
G01 X12.7046 Y62.0952 F200.00
G01 X76.0054 Y62.0952 F200.00
G01 X76.1428 Y62.1038 F200.00
G01 X76.3818 Y62.1601 F200.00
G01 X76.9965 Y62.4570 F200.00
G01 X77.4498 Y62.6239 F200.00
G01 X77.9188 Y62.7401 F200.00
G01 X78.3976 Y62.8041 F200.00
G01 X78.8806 Y62.8152 F200.00
G01 X79.3619 Y62.7733 F200.00
G01 X79.8356 Y62.6788 F200.00
G01 X80.2962 Y62.5329 F200.00
G01 X80.7380 Y62.3374 F200.00
G01 X81.1556 Y62.0946 F200.00
G01 X81.5441 Y61.8074 F200.00
G01 X81.8988 Y61.4794 F200.00
G01 X82.2153 Y61.1144 F200.00
G01 X82.4899 Y60.7169 F200.00
G01 X82.7192 Y60.2917 F200.00
G01 X82.9005 Y59.8439 F200.00
G01 X83.0316 Y59.3789 F200.00
G01 X83.1109 Y58.9024 F200.00
G01 X83.1391 Y58.3891 F200.00
G01 X83.1391 Y53.8785 F200.00
G01 X83.1117 Y53.3725 F200.00
G01 X83.0346 Y52.9025 F200.00
G01 X82.9072 Y52.4436 F200.00
G01 X82.7308 Y52.0012 F200.00
G01 X82.4282 Y51.4160 F200.00
G01 X82.3607 Y51.1677 F200.00
G01 X82.3482 Y51.0249 F200.00
G01 X82.3686 Y50.7830 F200.00
G01 X82.4049 Y50.6443 F200.00
G01 X82.5121 Y50.4121 F200.00
G01 X82.6611 Y50.2184 F200.00
G01 X82.8591 Y50.0541 F200.00
G01 X82.9839 Y49.9836 F200.00
G01 X83.2238 Y49.8992 F200.00
G01 X83.4679 Y49.8709 F200.00
G01 X84.3025 Y49.8707 F200.00
G01 X84.6798 Y49.8536 F200.00
G01 X85.0287 Y49.8060 F200.00
G01 X85.3719 Y49.7271 F200.00
G01 X85.8482 Y49.5756 F200.00
G01 X86.1060 Y49.5456 F200.00
G01 X86.2618 Y49.5566 F200.00
G01 X86.4850 Y49.6114 F200.00
G01 X86.6218 Y49.6707 F200.00
G01 X86.8144 Y49.7962 F200.00
G01 X86.9239 Y49.8973 F200.00
G01 X87.0643 Y50.0794 F200.00
G01 X87.1339 Y50.2102 F200.00
G01 X87.2061 Y50.4264 F200.00
G01 X87.2335 Y50.6731 F200.00
G01 X87.2333 Y69.3237 F200.00
G01 X87.2066 Y69.5605 F200.00
G01 X87.1677 Y69.6956 F200.00
G01 X87.0643 Y69.9103 F200.00
G01 X86.9829 Y70.0250 F200.00
G01 X86.8144 Y70.1935 F200.00
G01 X86.6997 Y70.2749 F200.00
G01 X86.4850 Y70.3783 F200.00
G01 X86.3527 Y70.4167 F200.00
G01 X86.1060 Y70.4441 F200.00
G01 X0.4813 Y70.4441 F200.00
G01 X0.2374 Y70.4172 F200.00
G01 X0.1023 Y70.3783 F200.00
G01 X-0.1230 Y70.2683 F200.00
G01 X-0.3108 Y70.1188 F200.00
G01 X-0.4045 Y70.0139 F200.00
G01 X-0.5372 Y69.8000 F200.00
G01 X-0.6162 Y69.5744 F200.00
G01 X-0.6395 Y69.4357 F200.00
G00 Z1.0000
M05
G00 Z1.0000
G00 Z5.0000
G00 X0.0 Y0.0

M02