(G-CODE GENERATED BY FLATCAM v8.918 - www.flatcam.org - Version Date: 2019/06/11)

(Name: Copper Bottom_iso_cutout_cnc)
(Type: G-code from Geometry)
(Units: MM)

(Created on Friday, 14 June 2019 at 22:27)

(TOOL DIAMETER: 1.0 mm)

(Feedrate: 50.0 mm/min)
(Feedrate_Z: 50.0 mm/min)
(Feedrate rapids 76.2 mm/min)

(Z_Cut: -1.0 mm)
(Z_Move: 1.0 mm)
(Z Toolchange: 25.4 mm)
(X,Y Toolchange: 0.0000, 0.0000 mm)
(Z Start: None mm)
(Z End: 50.8 mm)
(Steps per circle: 128)
(Postprocessor Geometry: grbl_11)

(X range:   -1.2158 ...   87.7108  mm)
(Y range:   -2.8763 ...   70.7952  mm)

(Spindle Speed: None RPM)


G21
G90
G94
G17

G01 F50.00
G00 Z1.0000

M03
G00 X87.7108 Y-2.8763
G01 F50.00
G01 Z-1.0000
G01 F50.00
G01 X-1.2158 Y-2.8763 F50.00
G01 X-1.2158 Y70.7952 F50.00
G01 X87.7108 Y70.7952 F50.00
G01 X87.7108 Y-2.8763 F50.00
G00 Z1.0000
M05
G00 Z1.0000
G00 Z5.0000
G00 X0.0 Y0.0

M02