(G-CODE GENERATED BY FLATCAM v8.918 - www.flatcam.org - Version Date: 2019/06/11)

(Name: Drill-Copper Bottom Small_cnc)
(Type: G-code from Excellon)
(Units: MM)

(Created on Friday, 14 June 2019 at 22:55)

(Feedrate: 100.0 mm/min)
(Feedrate rapids 76.2 mm/min)

(Z_Cut: -2.0 mm)
(Z_Move: 1.0 mm)
(Z Toolchange: 25.4 mm)
(X,Y Toolchange: 0.0000, 0.0000 mm)
(Z Start: None mm)
(Z End: 50.8 mm)
(Steps per circle: 128)
(Postprocessor Excellon: grbl_11)
(X range:    4.5297 ...   81.2695  mm)
(Y range:    1.6320 ...   56.2493  mm)

(Spindle Speed: 500.0 RPM)


G21
G90
G94
G17

G01 F100.00
G00 Z1.0000

M03 S500.0
G00 X38.6080 Y29.9320
G01 Z-2.0000
G01 Z0
G00 Z1.0000
G00 X38.6080 Y27.4320
G01 Z-2.0000
G01 Z0
G00 Z1.0000
G00 X55.5160 Y27.9400
G01 Z-2.0000
G01 Z0
G00 Z1.0000
G00 X49.2860 Y19.8120
G01 Z-2.0000
G01 Z0
G00 Z1.0000
G00 X49.2760 Y10.8120
G01 Z-2.0000
G01 Z0
G00 Z1.0000
G00 X78.7300 Y2.0320
G01 Z-2.0000
G01 Z0
G00 Z1.0000
G00 X78.7400 Y11.0320
G01 Z-2.0000
G01 Z0
G00 Z1.0000
G00 X72.0960 Y25.4000
G01 Z-2.0000
G01 Z0
G00 Z1.0000
G00 X69.5960 Y25.4000
G01 Z-2.0000
G01 Z0
G00 Z1.0000
G00 X64.5160 Y27.9300
G01 Z-2.0000
G01 Z0
G00 Z1.0000
G00 X72.1260 Y35.0520
G01 Z-2.0000
G01 Z0
G00 Z1.0000
G00 X72.1360 Y44.0520
G01 Z-2.0000
G01 Z0
G00 Z1.0000
G00 X51.6720 Y42.1640
G01 Z-2.0000
G01 Z0
G00 Z1.0000
G00 X52.3240 Y52.8220
G01 Z-2.0000
G01 Z0
G00 Z1.0000
G00 X43.3240 Y52.8320
G01 Z-2.0000
G01 Z0
G00 Z1.0000
G00 X39.4800 Y52.8320
G01 Z-2.0000
G01 Z0
G00 Z1.0000
G00 X30.4800 Y52.8420
G01 Z-2.0000
G01 Z0
G00 Z1.0000
G00 X19.1600 Y52.8320
G01 Z-2.0000
G01 Z0
G00 Z1.0000
G00 X10.1600 Y52.8420
G01 Z-2.0000
G01 Z0
G00 Z1.0000
G00 X42.6720 Y42.1740
G01 Z-2.0000
G01 Z0
G00 Z1.0000
M03 S500.0
G00 X27.9400 Y23.8760
G01 Z-2.0000
G01 Z0
G00 Z1.0000
G00 X32.5120 Y25.9080
G01 Z-2.0000
G01 Z0
G00 Z1.0000
G00 X44.1960 Y29.9720
G01 Z-2.0000
G01 Z0
G00 Z1.0000
G00 X46.7360 Y25.5900
G01 Z-2.0000
G01 Z0
G00 Z1.0000
G00 X49.2760 Y25.5900
G01 Z-2.0000
G01 Z0
G00 Z1.0000
G00 X51.8160 Y25.5900
G01 Z-2.0000
G01 Z0
G00 Z1.0000
G00 X51.8160 Y31.4960
G01 Z-2.0000
G01 Z0
G00 Z1.0000
G00 X54.3560 Y31.4960
G01 Z-2.0000
G01 Z0
G00 Z1.0000
G00 X56.8960 Y31.4960
G01 Z-2.0000
G01 Z0
G00 Z1.0000
G00 X59.4360 Y31.4960
G01 Z-2.0000
G01 Z0
G00 Z1.0000
G00 X59.4360 Y39.1160
G01 Z-2.0000
G01 Z0
G00 Z1.0000
G00 X64.5160 Y45.2120
G01 Z-2.0000
G01 Z0
G00 Z1.0000
G00 X67.0560 Y45.2120
G01 Z-2.0000
G01 Z0
G00 Z1.0000
G00 X69.5960 Y45.2120
G01 Z-2.0000
G01 Z0
G00 Z1.0000
G00 X68.0720 Y41.1480
G01 Z-2.0000
G01 Z0
G00 Z1.0000
G00 X68.0720 Y33.5280
G01 Z-2.0000
G01 Z0
G00 Z1.0000
G00 X78.7400 Y14.7320
G01 Z-2.0000
G01 Z0
G00 Z1.0000
G00 X78.7400 Y17.2720
G01 Z-2.0000
G01 Z0
G00 Z1.0000
G00 X80.7720 Y29.9720
G01 Z-2.0000
G01 Z0
G00 Z1.0000
G00 X80.7720 Y32.5120
G01 Z-2.0000
G01 Z0
G00 Z1.0000
G00 X80.7720 Y35.0520
G01 Z-2.0000
G01 Z0
G00 Z1.0000
G00 X80.7720 Y37.5920
G01 Z-2.0000
G01 Z0
G00 Z1.0000
G00 X78.7400 Y50.0380
G01 Z-2.0000
G01 Z0
G00 Z1.0000
G00 X78.7400 Y53.8480
G01 Z-2.0000
G01 Z0
G00 Z1.0000
G00 X59.4360 Y50.2920
G01 Z-2.0000
G01 Z0
G00 Z1.0000
G00 X59.4360 Y45.2120
G01 Z-2.0000
G01 Z0
G00 Z1.0000
G00 X56.8960 Y39.1160
G01 Z-2.0000
G01 Z0
G00 Z1.0000
G00 X54.3560 Y39.1160
G01 Z-2.0000
G01 Z0
G00 Z1.0000
G00 X51.8160 Y39.1160
G01 Z-2.0000
G01 Z0
G00 Z1.0000
G00 X44.1960 Y35.0520
G01 Z-2.0000
G01 Z0
G00 Z1.0000
G00 X32.5120 Y33.5280
G01 Z-2.0000
G01 Z0
G00 Z1.0000
G00 X12.7000 Y45.2120
G01 Z-2.0000
G01 Z0
G00 Z1.0000
G00 X8.8900 Y45.2120
G01 Z-2.0000
G01 Z0
G00 Z1.0000
G00 X22.8600 Y23.8760
G01 Z-2.0000
G01 Z0
G00 Z1.0000
M03 S500.0
G00 X80.7720 Y40.1320
G01 Z-2.0000
G01 Z0
G00 Z1.0000
M03 S500.0
G00 X14.2240 Y2.7300
G01 Z-2.0000
G01 Z0
G00 Z1.0000
G00 X18.2880 Y2.7300
G01 Z-2.0000
G01 Z0
G00 Z1.0000
G00 X78.7400 Y46.2280
G01 Z-2.0000
G01 Z0
G00 Z1.0000
G00 X5.0800 Y45.2120
G01 Z-2.0000
G01 Z0
G00 Z1.0000
G00 X14.2240 Y30.6700
G01 Z-2.0000
G01 Z0
G00 Z1.0000
G00 X18.2880 Y30.6700
G01 Z-2.0000
G01 Z0
G00 Z1.0000
G00 X18.2880 Y20.5100
G01 Z-2.0000
G01 Z0
G00 Z1.0000
G00 X14.2240 Y20.5100
G01 Z-2.0000
G01 Z0
G00 Z1.0000
G00 X14.2240 Y12.8900
G01 Z-2.0000
G01 Z0
G00 Z1.0000
G00 X18.2880 Y12.8900
G01 Z-2.0000
G01 Z0
G00 Z1.0000
M03 S500.0
G00 X7.1120 Y34.5440
G01 Z-2.0000
G01 Z0
G00 Z1.0000
G00 X7.1120 Y24.5322
G01 Z-2.0000
G01 Z0
G00 Z1.0000
G00 X7.1120 Y17.0392
G01 Z-2.0000
G01 Z0
G00 Z1.0000
G00 X7.1120 Y9.5462
G01 Z-2.0000
G01 Z0
G00 Z1.0000
G00 X39.6240 Y38.6080
G01 Z-2.0000
G01 Z0
G00 Z1.0000
G00 X39.6240 Y43.6880
G01 Z-2.0000
G01 Z0
G00 Z1.0000
G00 X29.4640 Y41.1480
G01 Z-2.0000
G01 Z0
G00 Z1.0000
M03 S500.0
G00 X15.2131 Y55.5889
G01 Z-2.0000
G01 Z0
G00 Z1.0000
G00 X12.6731 Y55.5889
G01 Z-2.0000
G01 Z0
G00 Z1.0000
G00 X10.1331 Y55.5889
G01 Z-2.0000
G01 Z0
G00 Z1.0000
G00 X30.4800 Y55.5889
G01 Z-2.0000
G01 Z0
G00 Z1.0000
G00 X57.4040 Y55.5889
G01 Z-2.0000
G01 Z0
G00 Z1.0000
G00 X54.8640 Y55.5889
G01 Z-2.0000
G01 Z0
G00 Z1.0000
G00 X52.3240 Y55.5889
G01 Z-2.0000
G01 Z0
G00 Z1.0000
G00 X35.5600 Y55.5889
G01 Z-2.0000
G01 Z0
G00 Z1.0000
G00 X33.0200 Y55.5889
G01 Z-2.0000
G01 Z0
G00 Z1.0000
M03 S500.0
G00 X77.9780 Y35.0520
G01 Z-2.0000
G01 Z0
G00 Z1.0000
G00 X75.1840 Y32.5120
G01 Z-2.0000
G01 Z0
G00 Z1.0000
G00 X27.6860 Y32.7660
G01 Z-2.0000
G01 Z0
G00 Z1.0000
G00 X16.2560 Y32.7660
G01 Z-2.0000
G01 Z0
G00 Z1.0000
G00 X26.6700 Y47.4980
G01 Z-2.0000
G01 Z0
G00 Z1.0000
G00 X26.6700 Y52.8320
G01 Z-2.0000
G01 Z0
G00 Z1.0000
G00 X41.4020 Y54.3560
G01 Z-2.0000
G01 Z0
G00 Z1.0000
G00 X41.4020 Y47.4980
G01 Z-2.0000
G01 Z0
G00 Z1.0000
G00 X56.8960 Y41.9100
G01 Z-2.0000
G01 Z0
G00 Z1.0000
G00 X62.4840 Y41.9100
G01 Z-2.0000
G01 Z0
G00 Z1.0000
G00 X75.1840 Y41.1480
G01 Z-2.0000
G01 Z0
G00 Z1.0000
G00 X77.9780 Y42.9260
G01 Z-2.0000
G01 Z0
G00 Z1.0000
M03 S500.0
G00 X36.0680 Y7.4620
G01 Z-2.0000
G01 Z0
G00 Z1.0000
G00 X36.0680 Y17.4620
G01 Z-2.0000
G01 Z0
G00 Z1.0000
G00 X62.4840 Y17.4620
G01 Z-2.0000
G01 Z0
G00 Z1.0000
G00 X62.4840 Y7.4620
G01 Z-2.0000
G01 Z0
G00 Z1.0000
M05
G00 Z5.0000
G00 X0.0 Y0.0

M02